; generated by Slic3r 0.9.10-dev on 2013-05-03 at 15:57:06

; layer_height = 0.3
; perimeters = 3
; top_solid_layers = 3
; bottom_solid_layers = 3
; fill_density = 0.2
; perimeter_speed = 30
; infill_speed = 60
; travel_speed = 130
; nozzle_diameter = 0.5
; filament_diameter = 1.1283792
; extrusion_multiplier = 1
; perimeters extrusion width = 0.70mm
; infill extrusion width = 0.70mm
; solid infill extrusion width = 0.70mm
; top infill extrusion width = 0.70mm
; first layer extrusion width = 0.60mm

G21 ; set units to millimeters
M107
M190 S115 ; wait for bed temperature to be reached
M104 S235 ; set temperature
G28 X0
G1 Y100
M109 S235 ; wait for temperature to be reached
G90 ; use absolute coordinates
G92 E0
M82 ; use absolute distances for extrusion
G1 F1800.000 E-1.00000
G92 E0
G1 Z0.300 F7800.000
G1 X87.680 Y94.850
G1 F1800.000 E1.50000
G1 X88.080 Y94.490 F600.000 E1.59340
G1 X88.290 Y94.330 E1.63922
G1 X88.720 Y94.030 E1.73022
G1 X89.180 Y93.760 E1.82280
G1 X89.660 Y93.540 E1.91444
G1 X90.160 Y93.350 E2.00728
G1 X90.920 Y93.140 E2.14413
G1 X91.710 Y93.030 E2.28256
G1 X92.240 Y93.010 E2.37462
G1 X96.240 Y93.010 E3.06887
G1 X96.770 Y93.030 E3.16092
G1 X97.560 Y93.140 E3.29936
G1 X98.070 Y93.270 E3.39070
G1 X98.820 Y93.540 E3.52905
G1 X99.300 Y93.760 E3.62070
G1 X99.980 Y94.180 E3.75941
G1 X100.400 Y94.490 E3.85002
G1 X100.980 Y95.030 E3.98756
G1 X101.340 Y95.430 E4.08096
G1 X101.500 Y95.640 E4.12678
G1 X101.800 Y96.070 E4.21778
G1 X102.070 Y96.530 E4.31036
G1 X102.290 Y97.010 E4.40200
G1 X102.480 Y97.510 E4.49484
G1 X102.690 Y98.270 E4.63169
G1 X102.800 Y99.060 E4.77012
G1 X102.820 Y99.590 E4.86218
G1 X102.820 Y103.590 E5.55642
G1 X102.800 Y104.120 E5.64848
G1 X102.690 Y104.910 E5.78691
G1 X102.560 Y105.420 E5.87826
G1 X102.290 Y106.170 E6.01661
G1 X102.070 Y106.650 E6.10825
G1 X101.650 Y107.330 E6.24697
G1 X101.340 Y107.750 E6.33757
G1 X100.800 Y108.330 E6.47512
G1 X100.400 Y108.690 E6.56852
G1 X100.190 Y108.850 E6.61434
G1 X99.760 Y109.150 E6.70534
G1 X99.300 Y109.420 E6.79791
G1 X98.820 Y109.640 E6.88956
G1 X98.320 Y109.830 E6.98239
G1 X97.560 Y110.040 E7.11924
G1 X96.770 Y110.150 E7.25768
G1 X96.240 Y110.170 E7.34973
G1 X92.240 Y110.170 E8.04398
G1 X91.710 Y110.150 E8.13603
G1 X90.920 Y110.040 E8.27447
G1 X90.410 Y109.910 E8.36582
G1 X89.660 Y109.640 E8.50417
G1 X89.180 Y109.420 E8.59581
G1 X88.500 Y109.000 E8.73453
G1 X88.080 Y108.690 E8.82513
G1 X87.500 Y108.150 E8.96267
G1 X87.140 Y107.750 E9.05608
G1 X86.980 Y107.540 E9.10190
G1 X86.680 Y107.110 E9.19290
G1 X86.410 Y106.650 E9.28547
G1 X86.190 Y106.170 E9.37712
G1 X86.000 Y105.670 E9.46995
G1 X85.790 Y104.910 E9.60680
G1 X85.680 Y104.120 E9.74524
G1 X85.660 Y103.590 E9.83729
G1 X85.660 Y99.590 E10.53154
G1 X85.680 Y99.060 E10.62359
G1 X85.790 Y98.270 E10.76203
G1 X85.920 Y97.760 E10.85338
G1 X86.190 Y97.010 E10.99173
G1 X86.410 Y96.530 E11.08337
G1 X86.680 Y96.070 E11.17594
G1 X87.140 Y95.430 E11.31274
G1 X87.619 Y94.911 E11.43523
G1 F1800.000 E10.43523
G92 E0
G1 X93.320 Y102.457 F7800.000
G1 F1800.000 E1.50000
G1 X94.096 Y102.902 F600.000 E1.65512
G1 X94.683 Y102.784 E1.75904
G1 X95.266 Y102.352 E1.88495
G1 X95.594 Y101.636 E2.02174
G1 X95.279 Y100.867 E2.16597
G1 X94.896 Y100.503 E2.25758
G1 X94.285 Y100.275 E2.37082
G1 X94.241 Y99.867 E2.44201
G1 X94.107 Y99.748 E2.47300
G1 X92.357 Y99.743 E2.77673
G1 X92.361 Y101.457 E3.07427
G1 X92.507 Y101.600 E3.10972
G1 X92.361 Y101.743 E3.14516
G1 X92.357 Y103.457 E3.44270
G1 X93.821 Y103.472 E3.69672
G1 X94.096 Y102.902 E3.80663
G1 X94.179 Y102.916 F7800.000
G1 X94.236 Y103.331 F600.000 E3.87931
G1 X94.107 Y103.477 E3.91314
G1 X94.107 Y103.477 F7800.000
G1 X93.821 Y103.473 F600.000 E3.96273
G1 X93.821 Y103.473 F7800.000
G1 X93.821 Y103.472 F600.000 E3.96293
G1 X94.236 Y103.331 F7800.000
G1 X94.393 Y103.490 F600.000 E4.00164
G1 X94.964 Y103.477 E4.10085
G1 X94.964 Y103.477 F7800.000
G1 X96.143 Y103.457 F600.000 E4.30543
G1 X96.108 Y102.062 E4.54764
G1 X95.538 Y101.794 E4.65699
G1 X95.594 Y101.636 F7800.000
G1 X95.932 Y101.608 F600.000 E4.71587
G1 X96.088 Y101.457 E4.75350
G1 X96.110 Y101.171 E4.80324
G1 X95.501 Y101.354 E4.91367
G1 X95.932 Y101.608 F7800.000
G1 X96.104 Y101.743 F600.000 E4.95154
G1 X96.108 Y102.062 E5.00695
G1 X96.093 Y101.151 F7800.000
G1 X96.103 Y100.286 F600.000 E5.15711
G1 X96.103 Y100.286 F7800.000
G1 X96.106 Y99.998 F600.000 E5.20716
G1 X96.106 Y99.998 F7800.000
G1 X96.107 Y99.707 F600.000 E5.25764
G1 X94.393 Y99.710 E5.55518
G1 X94.241 Y99.867 E5.59309
G1 X94.285 Y100.275 F7800.000
G1 X93.997 Y100.356 F600.000 E5.64507
G1 X93.835 Y99.759 F7800.000
G1 X93.997 Y100.356 F600.000 E5.75232
G1 X93.247 Y100.805 E5.90402
G1 X92.957 Y101.600 E6.05089
G1 X92.507 Y101.600 E6.12909
G1 X92.957 Y101.600 F7800.000
G1 X92.976 Y101.644 F600.000 E6.13748
G1 X92.976 Y101.644 F7800.000
G1 X93.084 Y102.127 F600.000 E6.22334
G1 X93.320 Y102.457 E6.29380
M106 S159
G1 F1800.000 E5.29380
G92 E0
G1 Z0.600 F7800.000
G1 X96.084 Y102.921
G1 F1800.000 E1.50000
G1 X96.134 Y101.767 F1260.000 E1.72680
G1 X95.932 Y101.608 E1.77722
G1 X96.112 Y101.433 E1.82650
G1 X96.089 Y101.151 E1.88203
G1 X95.505 Y101.377 E2.00499
G1 X94.980 Y100.549 E2.19739
G1 X94.285 Y100.277 E2.34391
G1 X94.083 Y99.727 E2.45897
G1 X92.333 Y99.767 E2.80267
G1 X92.336 Y101.433 E3.12992
G1 X92.507 Y101.600 E3.17674
G1 X92.336 Y101.767 E3.22356
G1 X92.333 Y103.433 E3.55081
G1 X93.821 Y103.450 E3.84286
G1 X94.043 Y102.894 E3.96056
G1 X93.393 Y102.551 E4.10483
G1 X93.053 Y102.049 E4.22395
G1 X92.961 Y101.600 E4.31394
G1 X92.507 Y101.600 E4.40306
G1 X92.961 Y101.600 F7800.000
G1 X93.241 Y100.814 F1260.000 E4.56695
G1 X93.997 Y100.357 E4.74042
G1 X93.834 Y99.776 E4.85900
G1 X94.241 Y99.867 F7800.000
G1 X94.417 Y99.686 F1260.000 E4.90860
G1 X94.657 Y99.817 E4.96227
G1 X94.657 Y99.817 F7800.000
G1 X94.428 Y100.305 F1260.000 E5.06808
G1 X94.285 Y100.277 F7800.000
G1 X94.160 Y100.330 F1260.000 E5.09480
G1 X94.160 Y100.330 F7800.000
G1 X93.997 Y100.357 F1260.000 E5.12718
G1 X94.657 Y99.759 F7800.000
G1 X94.955 Y99.767 F1260.000 E5.18582
G1 X94.955 Y99.767 F7800.000
G1 X95.254 Y99.770 F1260.000 E5.24444
G1 X95.254 Y99.770 F7800.000
G1 X96.167 Y99.767 F1260.000 E5.42371
G1 X96.089 Y101.151 E5.69602
G1 X95.932 Y101.608 F7800.000
G1 X95.594 Y101.636 F1260.000 E5.76263
G1 X95.505 Y101.377 F7800.000
G1 X95.594 Y101.636 F1260.000 E5.81634
G1 X95.208 Y102.428 E5.98943
G1 X95.208 Y102.428 F7800.000
G1 X94.890 Y102.709 F1260.000 E6.07266
G1 X94.890 Y102.709 F7800.000
G1 X94.525 Y102.831 F1260.000 E6.14814
G1 X94.525 Y102.831 F7800.000
G1 X94.179 Y102.917 F1260.000 E6.21817
G1 X94.043 Y102.894 F7800.000
G1 X94.179 Y102.917 F1260.000 E6.24526
G1 X94.236 Y103.331 E6.32728
G1 X94.083 Y103.504 E6.37261
G1 X94.083 Y103.504 F7800.000
G1 X93.821 Y103.450 F1260.000 E6.42523
G1 X94.236 Y103.331 F7800.000
G1 X94.417 Y103.514 F1260.000 E6.47573
G1 X94.750 Y103.524 E6.54122
G1 X94.750 Y103.524 F7800.000
G1 X96.083 Y103.517 F1260.000 E6.80302
G1 X96.084 Y102.921 E6.92004
M106 S179
G1 F1800.000 E5.92004
G92 E0
G1 Z0.900 F7800.000
G1 X90.838 Y87.454
G1 F1800.000 E1.50000
G1 X90.433 Y87.526 F1260.000 E1.58082
G1 X90.105 Y87.506 E1.64524
G1 X90.022 Y87.495 E1.66166
G1 X89.633 Y87.361 E1.74245
G1 X89.290 Y87.135 E1.82323
G1 X89.065 Y86.896 E1.88764
G1 X88.824 Y86.465 E1.98460
G1 X88.732 Y86.064 E2.06533
G1 X88.732 Y85.736 E2.12973
G1 X88.824 Y85.335 E2.21046
G1 X89.065 Y84.904 E2.30742
G1 X89.290 Y84.665 E2.37183
G1 X89.633 Y84.439 E2.45261
G1 X90.022 Y84.305 E2.53340
G1 X90.105 Y84.294 E2.54982
G1 X90.433 Y84.274 E2.61424
G1 X90.838 Y84.346 E2.69506
G1 X91.212 Y84.518 E2.77590
G1 X91.278 Y84.569 E2.79233
G1 X91.531 Y84.778 E2.85676
G1 X91.775 Y85.110 E2.93762
G1 X91.928 Y85.492 E3.01849
G1 X91.939 Y85.575 E3.03494
G1 X91.980 Y85.900 E3.09921
G1 X91.928 Y86.308 E3.17992
G1 X91.775 Y86.690 E3.26080
G1 X91.531 Y87.022 E3.34166
G1 X91.212 Y87.282 E3.42251
G1 X90.928 Y87.416 E3.48408
G1 X90.731 Y87.851 F7800.000
G1 F1800.000 E2.48408
G92 E0
G1 X108.656 Y112.814 F7800.000
G1 F1800.000 E1.50000
G1 X108.933 Y112.639 F1260.000 E1.56441
G1 X109.322 Y112.505 E1.64521
G1 X109.733 Y112.474 E1.72601
G1 X110.138 Y112.546 E1.80684
G1 X110.215 Y112.578 E1.82326
G1 X110.512 Y112.718 E1.88769
G1 X110.831 Y112.978 E1.96854
G1 X111.075 Y113.310 E2.04940
G1 X111.107 Y113.387 E2.06584
G1 X111.228 Y113.692 E2.13028
G1 X111.280 Y114.100 E2.21099
G1 X111.228 Y114.508 E2.29171
G1 X111.107 Y114.813 E2.35614
G1 X111.075 Y114.890 E2.37258
G1 X110.831 Y115.222 E2.45344
G1 X110.512 Y115.482 E2.53429
G1 X110.215 Y115.622 E2.59872
G1 X110.138 Y115.654 E2.61514
G1 X109.733 Y115.726 E2.69597
G1 X109.322 Y115.695 E2.77677
G1 X109.010 Y115.593 E2.84119
G1 X108.933 Y115.561 E2.85761
G1 X108.590 Y115.335 E2.93839
G1 X108.314 Y115.029 E3.01915
G1 X108.156 Y114.742 E3.08356
G1 X108.032 Y114.264 E3.18051
G1 X108.032 Y113.936 E3.24492
G1 X108.124 Y113.535 E3.32565
G1 X108.314 Y113.171 E3.40640
G1 X108.580 Y112.876 E3.48430
G1 X108.616 Y112.489 F7800.000
G1 F1800.000 E2.48430
G92 E0
G1 X91.980 Y114.100 F7800.000
G1 F1800.000 E1.50000
G1 X91.928 Y114.508 F1260.000 E1.58072
G1 X91.807 Y114.813 E1.64515
G1 X91.775 Y114.890 E1.66159
G1 X91.531 Y115.222 E1.74245
G1 X91.212 Y115.482 E1.82330
G1 X90.915 Y115.622 E1.88773
G1 X90.838 Y115.654 E1.90415
G1 X90.433 Y115.726 E1.98497
G1 X90.022 Y115.695 E2.06578
G1 X89.710 Y115.593 E2.13020
G1 X89.633 Y115.561 E2.14662
G1 X89.290 Y115.335 E2.22739
G1 X89.014 Y115.029 E2.30816
G1 X88.856 Y114.742 E2.37257
G1 X88.732 Y114.264 E2.46952
G1 X88.732 Y113.936 E2.53393
G1 X88.824 Y113.535 E2.61466
G1 X89.065 Y113.104 E2.71162
G1 X89.290 Y112.865 E2.77603
G1 X89.633 Y112.639 E2.85680
G1 X90.022 Y112.505 E2.93760
G1 X90.105 Y112.494 E2.95402
G1 X90.433 Y112.474 E3.01844
G1 X90.838 Y112.546 E3.09926
G1 X91.212 Y112.718 E3.18009
G1 X91.278 Y112.769 E3.19653
G1 X91.531 Y112.978 E3.26095
G1 X91.775 Y113.310 E3.34181
G1 X91.928 Y113.692 E3.42269
G1 X91.968 Y114.003 E3.48413
G1 X92.327 Y114.320 F7800.000
G1 X93.710 Y104.033
G1 X93.112 Y103.817 F1800.000 E3.60898
G1 X92.805 Y103.622 E3.68040
G1 X92.589 Y103.456 E3.73391
G1 X92.340 Y103.191 E3.80532
G1 X92.174 Y102.975 E3.85882
G1 X91.999 Y102.656 E3.93023
G1 X91.894 Y102.404 E3.98373
G1 X91.804 Y102.052 E4.05513
G1 X91.768 Y101.782 E4.10863
G1 X91.768 Y101.418 E4.18003
G1 X91.804 Y101.148 E4.23353
G1 X91.894 Y100.796 E4.30493
G1 X91.999 Y100.544 E4.35843
G1 X92.174 Y100.225 E4.42983
G1 X92.340 Y100.009 E4.48334
G1 X92.768 Y99.553 E4.60629
G1 X92.274 Y99.348 E4.71138
G1 X92.076 Y99.222 E4.75751
G1 X91.794 Y99.006 E4.82711
G1 X91.634 Y98.835 E4.87323
G1 X91.418 Y98.554 E4.94280
G1 X91.305 Y98.348 E4.98893
G1 X91.169 Y98.021 E5.05852
G1 X91.111 Y97.793 E5.10463
G1 X91.064 Y97.442 E5.17421
G1 X91.064 Y97.207 E5.22033
G1 X91.111 Y96.856 E5.28990
G1 X91.169 Y96.628 E5.33602
G1 X91.305 Y96.301 E5.40559
G1 X91.402 Y96.124 E5.44512
G1 X91.305 Y95.948 E5.48462
G1 X91.169 Y95.621 E5.55421
G1 X91.111 Y95.393 E5.60033
G1 X91.064 Y95.042 E5.66991
G1 X91.064 Y94.807 E5.71602
G1 X91.111 Y94.456 E5.78560
G1 X91.169 Y94.228 E5.83171
G1 X91.305 Y93.901 E5.90129
G1 X91.418 Y93.695 E5.94741
G1 X91.634 Y93.414 E6.01700
G1 X91.794 Y93.243 E6.06312
G1 X92.076 Y93.027 E6.13272
G1 X92.274 Y92.901 E6.17885
G1 X92.825 Y92.693 E6.29450
G1 X93.411 Y92.632 E6.41023
G1 X93.994 Y92.722 E6.52596
G1 X94.450 Y92.911 E6.62292
G1 X95.025 Y92.693 E6.74370
G1 X95.611 Y92.632 E6.85942
G1 X96.194 Y92.722 E6.97516
G1 X96.650 Y92.911 E7.07212
G1 X97.225 Y92.693 E7.19290
G1 X97.577 Y92.646 E7.26253
G1 X97.811 Y92.632 E7.30869
G1 X98.394 Y92.722 E7.42442
G1 X98.850 Y92.911 E7.52138
G1 X99.425 Y92.693 E7.64216
G1 X100.011 Y92.632 E7.75788
G1 X100.594 Y92.722 E7.87363
G1 X101.050 Y92.911 E7.97057
G1 X101.625 Y92.693 E8.09136
G1 X101.976 Y92.646 E8.16099
G1 X102.211 Y92.632 E8.20715
G1 X102.794 Y92.722 E8.32289
G1 X103.250 Y92.911 E8.41984
G1 X103.825 Y92.693 E8.54062
G1 X104.411 Y92.632 E8.65634
G1 X104.994 Y92.722 E8.77209
G1 X105.450 Y92.911 E8.86903
G1 X106.025 Y92.693 E8.98982
G1 X106.611 Y92.632 E9.10554
G1 X107.194 Y92.722 E9.22129
G1 X107.734 Y92.958 E9.33708
G1 X108.197 Y93.324 E9.45292
G1 X108.551 Y93.796 E9.56883
G1 X108.774 Y94.343 E9.68477
G1 X108.849 Y94.924 E9.79994
G1 X108.774 Y95.506 E9.91509
G1 X108.522 Y96.124 E10.04621
G1 X108.774 Y96.743 E10.17733
G1 X108.849 Y97.324 E10.29249
G1 X108.774 Y97.906 E10.40764
G1 X108.551 Y98.453 E10.52359
G1 X108.413 Y98.644 E10.56983
G1 X108.197 Y98.925 E10.63951
G1 X107.734 Y99.291 E10.75536
G1 X107.194 Y99.527 E10.87114
G1 X106.611 Y99.617 E10.98689
G1 X106.025 Y99.556 E11.10261
G1 X105.450 Y99.338 E11.22339
G1 X104.994 Y99.527 E11.32034
G1 X104.411 Y99.617 E11.43609
G1 X103.825 Y99.556 E11.55181
G1 X103.250 Y99.338 E11.67259
G1 X102.794 Y99.527 E11.76954
G1 X102.211 Y99.617 E11.88528
G1 X101.625 Y99.556 E12.00100
G1 X101.050 Y99.338 E12.12179
G1 X100.594 Y99.527 E12.21873
G1 X100.011 Y99.617 E12.33448
G1 X99.425 Y99.556 E12.45020
G1 X98.850 Y99.338 E12.57099
G1 X98.394 Y99.527 E12.66794
G1 X97.811 Y99.617 E12.78368
G1 X97.577 Y99.602 E12.82983
G1 X97.225 Y99.556 E12.89946
G1 X96.650 Y99.338 E13.02025
G1 X95.885 Y99.655 E13.18283
G1 X96.430 Y100.381 E13.36107
G1 X96.668 Y100.972 E13.48623
G1 X96.749 Y101.600 E13.61059
G1 X96.668 Y102.228 E13.73494
G1 X96.302 Y103.153 E13.93035
G1 X95.553 Y103.729 E14.11587
G1 X94.971 Y103.988 E14.24087
G1 X94.343 Y104.092 E14.36581
G1 X93.807 Y104.046 E14.47146
G1 X93.855 Y103.392 F7800.000
G1 X93.415 Y103.234 F1260.000 E14.56330
G1 X93.180 Y103.085 E14.61786
G1 X93.029 Y102.969 E14.65520
G1 X92.723 Y102.616 E14.74698
G1 X92.517 Y102.197 E14.83873
G1 X92.448 Y101.927 E14.89328
G1 X92.423 Y101.739 E14.93061
G1 X92.423 Y101.461 E14.98517
G1 X92.448 Y101.273 E15.02249
G1 X92.517 Y101.003 E15.07705
G1 X92.723 Y100.584 E15.16880
G1 X92.839 Y100.434 E15.20613
G1 X93.029 Y100.231 E15.26069
G1 X93.415 Y99.966 E15.35250
G1 X93.855 Y99.808 E15.44434
G1 X94.043 Y99.783 E15.48169
G1 X94.321 Y99.765 E15.53627
G1 X94.783 Y99.842 E15.62817
G1 X95.210 Y100.034 E15.72011
G1 X95.361 Y100.149 E15.75748
G1 X95.575 Y100.327 E15.81210
G1 X95.855 Y100.703 E15.90410
G1 X96.030 Y101.138 E15.99613
G1 X96.055 Y101.326 E16.03355
G1 X96.090 Y101.600 E16.08769
G1 X96.030 Y102.062 E16.17925
G1 X95.855 Y102.497 E16.27128
G1 X95.691 Y102.722 E16.32590
G1 X95.575 Y102.873 E16.36329
G1 X95.210 Y103.166 E16.45526
G1 X94.783 Y103.358 E16.54720
G1 X94.510 Y103.410 E16.60178
G1 X94.321 Y103.435 E16.63914
G1 X93.952 Y103.405 E16.71176
G1 X94.000 Y102.751 F7800.000
G1 X93.718 Y102.651 F1260.000 E16.77059
G1 X93.556 Y102.548 E16.80830
G1 X93.470 Y102.482 E16.82946
G1 X93.273 Y102.257 E16.88826
G1 X93.139 Y101.989 E16.94704
G1 X93.077 Y101.696 E17.00581
G1 X93.077 Y101.504 E17.04352
G1 X93.139 Y101.211 E17.10228
G1 X93.181 Y101.112 E17.12344
G1 X93.273 Y100.943 E17.16115
G1 X93.470 Y100.718 E17.21995
G1 X93.718 Y100.549 E17.27877
G1 X93.817 Y100.508 E17.29993
G1 X94.000 Y100.449 E17.33764
G1 X94.299 Y100.423 E17.39649
G1 X94.594 Y100.473 E17.45535
G1 X94.694 Y100.514 E17.47652
G1 X94.868 Y100.596 E17.51424
G1 X95.101 Y100.784 E17.57313
G1 X95.280 Y101.025 E17.63203
G1 X95.321 Y101.124 E17.65321
G1 X95.392 Y101.303 E17.69095
G1 X95.430 Y101.600 E17.74970
G1 X95.392 Y101.897 E17.80846
G1 X95.321 Y102.075 E17.84620
G1 X95.280 Y102.175 E17.86738
G1 X95.101 Y102.416 E17.92628
G1 X94.868 Y102.604 E17.98517
G1 X94.594 Y102.727 E18.04404
G1 X94.299 Y102.777 E18.10291
G1 X94.097 Y102.764 E18.14250
G1 X93.789 Y102.964 F7800.000
G1 X97.735 Y109.034
G1 X97.887 Y108.971 F1260.000 E18.17481
G1 X98.029 Y108.953 E18.20285
G1 X99.521 Y108.953 E18.49598
G1 X99.650 Y108.970 E18.52146
G1 X99.790 Y109.028 E18.55119
G1 X99.910 Y109.120 E18.58094
G1 X100.002 Y109.240 E18.61067
G1 X100.060 Y109.380 E18.64038
G1 X100.077 Y109.851 E18.73305
G1 X100.060 Y109.980 E18.75853
G1 X100.002 Y110.120 E18.78828
G1 X99.910 Y110.240 E18.81799
G1 X99.790 Y110.332 E18.84774
G1 X99.650 Y110.390 E18.87748
G1 X99.521 Y110.407 E18.90296
G1 X98.029 Y110.407 E19.19608
G1 X97.887 Y110.389 E19.22412
G1 X97.735 Y110.326 E19.25643
G1 X97.604 Y110.226 E19.28872
G1 X97.504 Y110.095 E19.32102
