; generated by Slic3r 0.9.10-dev on 2013-05-16 at 13:37:30

; layer_height = 0.1
; perimeters = 3
; top_solid_layers = 3
; bottom_solid_layers = 3
; fill_density = 0.35
; perimeter_speed = 70
; infill_speed = 100
; travel_speed = 175
; nozzle_diameter = 0.35
; filament_diameter = 3
; extrusion_multiplier = 1
; perimeters extrusion width = 0.59mm
; infill extrusion width = 0.98mm
; solid infill extrusion width = 0.59mm
; top infill extrusion width = 0.59mm
; first layer extrusion width = 0.17mm

G21 ; set units to millimeters
M107
M107
G28 ; home all axes
M104 S200
G1 X10 Y10 F2000
G1 Z0 F350
M109 S200
G90 ; use absolute coordinates
G92 E0
M82 ; use absolute distances for extrusion
G1 F1800.000 E-1.00000
G92 E0
G1 Z0.100 F10500.000
G1 X82.810 Y82.810
G1 F1800.000 E1.00000
G1 X83.810 Y81.980 F2100.000 E1.00391
G1 X84.960 Y81.370 E1.00782
G1 X86.210 Y80.990 E1.01175
G1 X87.500 Y80.860 E1.01565
G1 X92.500 Y80.860 E1.03068
G1 X93.800 Y80.990 E1.03461
G1 X95.040 Y81.370 E1.03851
G1 X96.190 Y81.980 E1.04243
G1 X97.190 Y82.810 E1.04634
G1 X117.180 Y102.810 E1.13137
G1 X118.010 Y103.810 E1.13527
G1 X118.620 Y104.960 E1.13919
G1 X119.000 Y106.210 E1.14312
G1 X119.130 Y107.500 E1.14702
G1 X119.130 Y112.500 E1.16205
G1 X119.000 Y113.790 E1.16595
G1 X118.620 Y115.040 E1.16988
G1 X118.010 Y116.190 E1.17379
G1 X117.180 Y117.190 E1.17770
G1 X116.180 Y118.020 E1.18161
G1 X115.030 Y118.630 E1.18552
G1 X113.780 Y119.010 E1.18945
G1 X112.490 Y119.140 E1.19335
G1 X87.500 Y119.140 E1.26850
G1 X86.210 Y119.010 E1.27240
G1 X84.960 Y118.630 E1.27632
G1 X83.810 Y118.020 E1.28024
G1 X82.810 Y117.190 E1.28415
G1 X81.980 Y116.190 E1.28805
G1 X81.370 Y115.040 E1.29197
G1 X80.990 Y113.790 E1.29590
G1 X80.860 Y112.500 E1.29980
G1 X80.860 Y87.500 E1.37497
G1 X80.990 Y86.210 E1.37887
G1 X81.370 Y84.960 E1.38280
G1 X81.980 Y83.810 E1.38671
G1 X82.790 Y82.835 E1.39053
G1 X82.960 Y82.960 F10500.000
G1 X83.930 Y82.160 F2100.000 E1.39431
G1 X85.040 Y81.560 E1.39810
G1 X86.250 Y81.200 E1.40190
G1 X87.500 Y81.070 E1.40568
G1 X92.500 Y81.070 E1.42071
G1 X93.750 Y81.200 E1.42449
G1 X94.960 Y81.560 E1.42829
G1 X96.070 Y82.160 E1.43208
G1 X97.040 Y82.960 E1.43586
G1 X117.030 Y102.960 E1.52089
G1 X117.830 Y103.930 E1.52467
G1 X118.430 Y105.040 E1.52847
G1 X118.790 Y106.250 E1.53226
G1 X118.920 Y107.500 E1.53604
G1 X118.920 Y112.500 E1.55108
G1 X118.790 Y113.750 E1.55486
G1 X118.430 Y114.960 E1.55865
G1 X117.830 Y116.070 E1.56245
G1 X117.030 Y117.040 E1.56623
G1 X116.060 Y117.840 E1.57001
G1 X114.950 Y118.440 E1.57380
G1 X113.740 Y118.800 E1.57760
G1 X112.490 Y118.930 E1.58138
G1 X87.500 Y118.930 E1.65653
G1 X86.250 Y118.800 E1.66030
G1 X85.040 Y118.440 E1.66410
G1 X83.930 Y117.840 E1.66789
G1 X82.960 Y117.040 E1.67168
G1 X82.160 Y116.070 E1.67546
G1 X81.560 Y114.960 E1.67925
G1 X81.200 Y113.750 E1.68305
G1 X81.070 Y112.500 E1.68683
G1 X81.070 Y87.500 E1.76200
G1 X81.200 Y86.250 E1.76578
G1 X81.560 Y85.040 E1.76958
G1 X82.160 Y83.930 E1.77337
G1 X82.940 Y82.985 E1.77706
G1 X82.640 Y83.630 F10500.000
G1 X83.630 Y82.640 F2100.000 E1.78127
G1 X84.800 Y81.900 E1.78543
G1 X86.120 Y81.440 E1.78963
G1 X87.500 Y81.290 E1.79381
G1 X92.500 Y81.290 E1.80884
G1 X94.110 Y81.500 E1.81372
G1 X95.610 Y82.120 E1.81861
G1 X96.890 Y83.110 E1.82347
G1 X116.880 Y103.110 E1.90850
G1 X117.870 Y104.390 E1.91337
G1 X118.490 Y105.890 E1.91825
G1 X118.700 Y107.500 E1.92313
G1 X118.700 Y112.500 E1.93817
G1 X118.550 Y113.880 E1.94234
G1 X118.090 Y115.200 E1.94654
G1 X117.350 Y116.370 E1.95071
G1 X116.360 Y117.360 E1.95492
G1 X115.190 Y118.100 E1.95908
G1 X113.870 Y118.560 E1.96328
G1 X112.490 Y118.710 E1.96746
G1 X87.500 Y118.710 E2.04260
G1 X86.120 Y118.560 E2.04678
G1 X84.800 Y118.100 E2.05098
G1 X83.630 Y117.360 E2.05514
G1 X82.640 Y116.370 E2.05935
G1 X81.900 Y115.200 E2.06352
G1 X81.440 Y113.880 E2.06772
G1 X81.290 Y112.500 E2.07189
G1 X81.290 Y87.500 E2.14707
G1 X81.440 Y86.120 E2.15124
G1 X81.900 Y84.800 E2.15545
G1 X82.623 Y83.657 E2.15951
G1 F1800.000 E1.15951
G92 E0
G1 X88.031 Y88.031 F10500.000
G1 F1800.000 E1.00000
G1 X91.969 Y88.031 F2100.000 E1.01184
G1 X91.969 Y93.031 E1.02687
G1 X96.969 Y93.031 E1.04191
G1 X96.969 Y98.031 E1.05695
G1 X101.969 Y98.031 E1.07198
G1 X101.969 Y103.031 E1.08702
G1 X106.969 Y103.031 E1.10205
G1 X106.969 Y108.031 E1.11709
G1 X111.969 Y108.031 E1.13212
G1 X111.969 Y111.969 E1.14396
G1 X103.031 Y111.969 E1.17084
G1 X103.031 Y106.969 E1.18587
G1 X91.969 Y106.969 E1.21914
G1 X91.969 Y111.969 E1.23417
G1 X88.031 Y111.969 E1.24601
G1 X88.031 Y88.063 E1.31790
G1 X87.819 Y87.819 F10500.000
G1 X92.181 Y87.819 F2100.000 E1.33101
G1 X92.181 Y92.819 E1.34605
G1 X97.181 Y92.819 E1.36108
G1 X97.181 Y97.819 E1.37612
G1 X102.181 Y97.819 E1.39115
G1 X102.181 Y102.819 E1.40619
G1 X107.181 Y102.819 E1.42122
G1 X107.181 Y107.819 E1.43626
G1 X112.181 Y107.819 E1.45129
G1 X112.181 Y112.181 E1.46441
G1 X102.819 Y112.181 E1.49257
G1 X102.819 Y107.181 E1.50760
G1 X92.181 Y107.181 E1.53959
G1 X92.181 Y112.181 E1.55462
G1 X87.819 Y112.181 E1.56774
G1 X87.819 Y87.851 E1.64090
G1 X87.606 Y87.606 F10500.000
G1 X92.394 Y87.606 F1200.000 E1.65530
G1 X92.394 Y92.606 E1.67034
G1 X97.394 Y92.606 E1.68537
G1 X97.394 Y97.606 E1.70041
G1 X102.394 Y97.606 E1.71544
G1 X102.394 Y102.606 E1.73048
G1 X107.394 Y102.606 E1.74551
G1 X107.394 Y107.606 E1.76055
G1 X112.394 Y107.606 E1.77558
G1 X112.394 Y112.394 E1.78998
G1 X102.606 Y112.394 E1.81941
G1 X102.606 Y107.394 E1.83444
G1 X92.394 Y107.394 E1.86515
G1 X92.394 Y112.394 E1.88019
G1 X87.606 Y112.394 E1.89459
G1 X87.606 Y87.638 E1.96903
G1 X87.790 Y87.713 F10500.000
G1 X91.800 Y88.185
G1 X91.815 Y88.200 F1800.000 E1.96909
G1 X91.815 Y88.501 E1.97000
G1 X91.499 Y88.185 E1.97134
G1 X91.197 Y88.185 E1.97225
G1 X91.815 Y88.803 E1.97488
G1 X91.815 Y89.104 E1.97579
G1 X90.896 Y88.185 E1.97970
G1 X90.595 Y88.185 E1.98061
G1 X91.815 Y89.405 E1.98581
G1 X91.815 Y89.706 E1.98671
G1 X90.294 Y88.185 E1.99319
G1 X89.993 Y88.185 E1.99410
G1 X91.815 Y90.007 E2.00187
G1 X91.815 Y90.309 E2.00277
G1 X89.691 Y88.185 E2.01182
G1 X89.390 Y88.185 E2.01273
G1 X91.815 Y90.610 E2.02306
G1 X91.815 Y90.911 E2.02397
G1 X89.089 Y88.185 E2.03558
G1 X88.788 Y88.185 E2.03649
G1 X91.815 Y91.212 E2.04939
G1 X91.815 Y91.513 E2.05029
G1 X88.487 Y88.185 E2.06447
G1 X88.185 Y88.185 E2.06538
G1 X91.815 Y91.815 E2.08085
G1 X91.815 Y92.116 E2.08175
G1 X88.185 Y88.487 E2.09722
G1 X88.185 Y88.788 E2.09813
G1 X91.815 Y92.417 E2.11359
G1 X91.815 Y92.718 E2.11450
G1 X88.185 Y89.089 E2.12996
G1 X88.185 Y89.390 E2.13087
G1 X91.815 Y93.019 E2.14634
G1 X91.981 Y93.185 F10500.000
G1 X96.815 Y98.019 F1800.000 E2.16694
G1 X96.981 Y98.185 F10500.000
G1 X101.815 Y103.019 F1800.000 E2.18753
G1 X101.981 Y103.185 F10500.000
G1 X106.815 Y108.019 F1800.000 E2.20813
G1 X106.981 Y108.185 F10500.000
G1 X110.610 Y111.815 F1800.000 E2.22360
G1 X110.309 Y111.815 E2.22451
G1 X88.185 Y89.691 E2.31878
G1 X88.185 Y89.993 E2.31968
G1 X110.007 Y111.815 E2.41267
G1 X109.706 Y111.815 E2.41358
G1 X88.185 Y90.294 E2.50528
G1 X88.185 Y90.595 E2.50619
G1 X109.405 Y111.815 E2.59661
G1 X109.104 Y111.815 E2.59752
G1 X88.185 Y90.896 E2.68666
G1 X88.185 Y91.197 E2.68757
G1 X108.803 Y111.815 E2.77542
G1 X108.501 Y111.815 E2.77633
G1 X88.185 Y91.499 E2.86290
G1 X88.185 Y91.800 E2.86380
G1 X108.200 Y111.815 E2.94909
G1 X107.282 Y108.185 F10500.000
G1 X110.911 Y111.815 F1800.000 E2.96456
G1 X111.212 Y111.815 E2.96546
G1 X107.583 Y108.185 E2.98093
G1 X107.884 Y108.185 E2.98184
G1 X111.513 Y111.815 E2.99730
G1 X111.815 Y111.815 E2.99821
G1 X108.185 Y108.185 E3.01367
G1 X108.487 Y108.185 E3.01458
G1 X111.815 Y111.513 E3.02876
G1 X111.815 Y111.212 E3.02967
G1 X108.788 Y108.185 E3.04257
G1 X109.089 Y108.185 E3.04348
G1 X111.815 Y110.911 E3.05509
G1 X111.815 Y110.610 E3.05600
G1 X109.390 Y108.185 E3.06633
G1 X109.691 Y108.185 E3.06724
G1 X111.815 Y110.309 E3.07628
G1 X111.815 Y110.007 E3.07719
G1 X109.993 Y108.185 E3.08495
G1 X110.294 Y108.185 E3.08586
G1 X111.815 Y109.706 E3.09234
G1 X111.815 Y109.405 E3.09325
G1 X110.595 Y108.185 E3.09845
G1 X110.896 Y108.185 E3.09935
G1 X111.815 Y109.104 E3.10327
G1 X111.815 Y108.803 E3.10418
G1 X111.197 Y108.185 E3.10680
G1 X111.499 Y108.185 E3.10771
G1 X111.815 Y108.501 E3.10906
G1 X111.815 Y108.200 E3.10997
G1 X111.800 Y108.185 E3.11003
G1 X112.000 Y108.000 F10500.000
G1 X107.000 Y108.000
G1 X107.000 Y103.000
G1 X106.800 Y103.185
G1 X106.815 Y103.200 F1800.000 E3.11009
G1 X106.815 Y103.501 E3.11100
G1 X106.499 Y103.185 E3.11235
G1 X106.197 Y103.185 E3.11325
G1 X106.815 Y103.803 E3.11588
G1 X106.815 Y104.104 E3.11679
G1 X105.896 Y103.185 E3.12070
G1 X105.595 Y103.185 E3.12161
G1 X106.815 Y104.405 E3.12681
G1 X106.815 Y104.706 E3.12772
G1 X105.294 Y103.185 E3.13420
G1 X104.993 Y103.185 E3.13510
G1 X106.815 Y105.007 E3.14287
G1 X106.815 Y105.309 E3.14378
G1 X104.691 Y103.185 E3.15282
G1 X104.390 Y103.185 E3.15373
G1 X106.815 Y105.610 E3.16406
G1 X106.815 Y105.911 E3.16497
G1 X104.089 Y103.185 E3.17658
G1 X103.788 Y103.185 E3.17749
G1 X106.815 Y106.212 E3.19039
G1 X106.815 Y106.513 E3.19130
G1 X103.487 Y103.185 E3.20548
G1 X103.185 Y103.185 E3.20638
G1 X106.815 Y106.815 E3.22185
G1 X106.815 Y107.116 E3.22276
G1 X102.884 Y103.185 E3.23951
G1 X102.583 Y103.185 E3.24041
G1 X106.815 Y107.417 E3.25844
G1 X106.815 Y107.718 E3.25935
G1 X102.282 Y103.185 E3.27867
G1 X102.899 Y106.815 F10500.000
G1 X88.185 Y92.101 F1800.000 E3.34137
G1 X88.185 Y92.402 E3.34227
G1 X102.598 Y106.815 E3.40369
G1 X102.297 Y106.815 E3.40459
G1 X88.185 Y92.703 E3.46472
G1 X88.185 Y93.005 E3.46563
G1 X101.995 Y106.815 E3.52448
G1 X101.694 Y106.815 E3.52539
G1 X88.185 Y93.306 E3.58295
G1 X88.185 Y93.607 E3.58386
G1 X101.393 Y106.815 E3.64014
G1 X101.092 Y106.815 E3.64105
G1 X88.185 Y93.908 E3.69604
G1 X88.185 Y94.209 E3.69695
G1 X100.791 Y106.815 E3.75066
G1 X100.489 Y106.815 E3.75157
G1 X88.185 Y94.511 E3.80400
G1 X88.185 Y94.812 E3.80491
G1 X100.188 Y106.815 E3.85605
G1 X99.887 Y106.815 E3.85696
G1 X88.185 Y95.113 E3.90682
G1 X88.185 Y95.414 E3.90773
G1 X99.586 Y106.815 E3.95631
G1 X99.285 Y106.815 E3.95722
G1 X88.185 Y95.715 E4.00451
G1 X88.185 Y96.017 E4.00542
G1 X98.983 Y106.815 E4.05143
G1 X98.682 Y106.815 E4.05234
G1 X88.185 Y96.318 E4.09707
G1 X88.185 Y96.619 E4.09798
G1 X98.381 Y106.815 E4.14142
G1 X98.080 Y106.815 E4.14233
G1 X88.185 Y96.920 E4.18449
G1 X88.185 Y97.221 E4.18540
G1 X97.779 Y106.815 E4.22628
G1 X97.477 Y106.815 E4.22718
G1 X88.185 Y97.523 E4.26678
G1 X88.185 Y97.824 E4.26769
G1 X97.176 Y106.815 E4.30600
G1 X96.875 Y106.815 E4.30690
G1 X88.185 Y98.125 E4.34393
G1 X88.185 Y98.426 E4.34484
G1 X96.574 Y106.815 E4.38058
G1 X96.272 Y106.815 E4.38149
G1 X88.185 Y98.728 E4.41595
G1 X88.185 Y99.029 E4.41686
G1 X95.971 Y106.815 E4.45004
G1 X95.670 Y106.815 E4.45094
G1 X88.185 Y99.330 E4.48284
G1 X88.185 Y99.631 E4.48375
G1 X95.369 Y106.815 E4.51436
G1 X95.068 Y106.815 E4.51526
G1 X88.185 Y99.932 E4.54459
G1 X88.185 Y100.234 E4.54550
G1 X94.766 Y106.815 E4.57354
G1 X94.465 Y106.815 E4.57445
G1 X88.185 Y100.535 E4.60121
G1 X88.185 Y100.836 E4.60212
G1 X94.164 Y106.815 E4.62759
G1 X93.863 Y106.815 E4.62850
G1 X88.185 Y101.137 E4.65269
G1 X88.185 Y101.438 E4.65360
G1 X93.562 Y106.815 E4.67651
G1 X93.260 Y106.815 E4.67742
G1 X88.185 Y101.740 E4.69904
G1 X88.185 Y102.041 E4.69995
G1 X92.959 Y106.815 E4.72029
G1 X92.658 Y106.815 E4.72120
G1 X88.185 Y102.342 E4.74026
G1 X88.185 Y102.643 E4.74117
G1 X92.357 Y106.815 E4.75894
G1 X92.056 Y106.815 E4.75985
G1 X88.185 Y102.944 E4.77634
G1 X88.185 Y103.246 E4.77725
G1 X91.815 Y106.875 E4.79271
G1 X91.815 Y107.176 E4.79362
G1 X88.185 Y103.547 E4.80909
G1 X88.185 Y103.848 E4.80999
G1 X91.815 Y107.477 E4.82546
G1 X91.815 Y107.778 E4.82637
G1 X88.185 Y104.149 E4.84183
G1 X88.185 Y104.450 E4.84274
G1 X91.815 Y108.080 E4.85820
G1 X91.815 Y108.381 E4.85911
G1 X88.185 Y104.752 E4.87458
G1 X88.185 Y105.053 E4.87548
G1 X91.815 Y108.682 E4.89095
G1 X91.815 Y108.983 E4.89186
G1 X88.185 Y105.354 E4.90732
G1 X88.185 Y105.655 E4.90823
G1 X91.815 Y109.284 E4.92369
G1 X91.815 Y109.586 E4.92460
G1 X88.185 Y105.956 E4.94007
G1 X88.185 Y106.258 E4.94097
G1 X91.815 Y109.887 E4.95644
G1 X91.815 Y110.188 E4.95735
G1 X88.185 Y106.559 E4.97281
G1 X88.185 Y106.860 E4.97372
G1 X91.815 Y110.489 E4.98918
G1 X91.815 Y110.791 E4.99009
G1 X88.185 Y107.161 E5.00556
G1 X88.185 Y107.462 E5.00646
G1 X91.815 Y111.092 E5.02193
G1 X91.815 Y111.393 E5.02284
G1 X88.185 Y107.764 E5.03830
G1 X88.185 Y108.065 E5.03921
G1 X91.815 Y111.694 E5.05467
G1 X91.634 Y111.815 E5.05533
G1 X88.185 Y108.366 E5.07002
G1 X88.185 Y108.667 E5.07093
G1 X91.333 Y111.815 E5.08434
G1 X91.032 Y111.815 E5.08525
G1 X88.185 Y108.968 E5.09738
G1 X88.185 Y109.270 E5.09829
G1 X90.730 Y111.815 E5.10913
G1 X90.429 Y111.815 E5.11004
G1 X88.185 Y109.571 E5.11960
G1 X88.185 Y109.872 E5.12051
G1 X90.128 Y111.815 E5.12878
G1 X89.827 Y111.815 E5.12969
G1 X88.185 Y110.173 E5.13668
G1 X88.185 Y110.475 E5.13759
G1 X89.525 Y111.815 E5.14330
G1 X89.224 Y111.815 E5.14421
G1 X88.185 Y110.776 E5.14864
G1 X88.185 Y111.077 E5.14954
G1 X88.923 Y111.815 E5.15269
G1 X88.622 Y111.815 E5.15360
G1 X88.185 Y111.378 E5.15546
G1 X88.185 Y111.679 E5.15636
G1 X88.321 Y111.815 E5.15694
G1 X88.000 Y112.000 F10500.000
G1 X92.000 Y107.000
G1 X103.000 Y107.000
G1 X103.000 Y112.000
G1 X103.185 Y111.619
G1 X103.381 Y111.815 F1800.000 E5.15777
G1 X103.682 Y111.815 E5.15868
G1 X103.185 Y111.318 E5.16080
G1 X103.185 Y111.017 E5.16170
G1 X103.983 Y111.815 E5.16510
G1 X104.285 Y111.815 E5.16601
G1 X103.185 Y110.715 E5.17070
G1 X103.185 Y110.414 E5.17160
G1 X104.586 Y111.815 E5.17757
G1 X104.887 Y111.815 E5.17848
G1 X103.185 Y110.113 E5.18573
G1 X103.185 Y109.812 E5.18664
G1 X105.188 Y111.815 E5.19517
G1 X105.489 Y111.815 E5.19608
G1 X103.185 Y109.511 E5.20590
G1 X103.185 Y109.209 E5.20680
G1 X105.791 Y111.815 E5.21791
G1 X106.092 Y111.815 E5.21881
G1 X103.185 Y108.908 E5.23120
G1 X103.185 Y108.607 E5.23211
G1 X106.393 Y111.815 E5.24577
G1 X106.694 Y111.815 E5.24668
G1 X103.185 Y108.306 E5.26163
G1 X103.185 Y108.005 E5.26254
G1 X106.995 Y111.815 E5.27878
G1 X107.297 Y111.815 E5.27968
G1 X103.185 Y107.703 E5.29720
G1 X103.185 Y107.402 E5.29811
G1 X107.598 Y111.815 E5.31691
G1 X107.899 Y111.815 E5.31782
G1 X103.185 Y107.101 E5.33790
G1 X101.800 Y98.185 F10500.000
G1 X101.815 Y98.200 F1800.000 E5.33797
G1 X101.815 Y98.501 E5.33887
G1 X101.499 Y98.185 E5.34022
G1 X101.197 Y98.185 E5.34113
G1 X101.815 Y98.803 E5.34376
G1 X101.815 Y99.104 E5.34467
G1 X100.896 Y98.185 E5.34858
G1 X100.595 Y98.185 E5.34949
G1 X101.815 Y99.405 E5.35468
G1 X101.815 Y99.706 E5.35559
G1 X100.294 Y98.185 E5.36207
G1 X99.993 Y98.185 E5.36298
G1 X101.815 Y100.007 E5.37074
G1 X101.815 Y100.309 E5.37165
G1 X99.691 Y98.185 E5.38070
G1 X99.390 Y98.185 E5.38161
G1 X101.815 Y100.610 E5.39194
G1 X101.815 Y100.911 E5.39284
G1 X99.089 Y98.185 E5.40446
G1 X98.788 Y98.185 E5.40537
G1 X101.815 Y101.212 E5.41826
G1 X101.815 Y101.513 E5.41917
G1 X98.487 Y98.185 E5.43335
G1 X98.185 Y98.185 E5.43426
G1 X101.815 Y101.815 E5.44972
G1 X101.815 Y102.116 E5.45063
G1 X97.884 Y98.185 E5.46738
G1 X97.583 Y98.185 E5.46829
G1 X101.815 Y102.417 E5.48632
G1 X101.815 Y102.718 E5.48723
G1 X97.282 Y98.185 E5.50654
G1 X96.800 Y93.185 F10500.000
G1 X96.815 Y93.200 F1800.000 E5.50661
G1 X96.815 Y93.501 E5.50751
G1 X96.499 Y93.185 E5.50886
G1 X96.197 Y93.185 E5.50977
G1 X96.815 Y93.803 E5.51240
G1 X96.815 Y94.104 E5.51330
G1 X95.896 Y93.185 E5.51722
G1 X95.595 Y93.185 E5.51813
G1 X96.815 Y94.405 E5.52332
G1 X96.815 Y94.706 E5.52423
G1 X95.294 Y93.185 E5.53071
G1 X94.993 Y93.185 E5.53162
G1 X96.815 Y95.007 E5.53938
G1 X96.815 Y95.309 E5.54029
G1 X94.691 Y93.185 E5.54934
G1 X94.390 Y93.185 E5.55024
G1 X96.815 Y95.610 E5.56058
G1 X96.815 Y95.911 E5.56148
G1 X94.089 Y93.185 E5.57310
G1 X93.788 Y93.185 E5.57400
G1 X96.815 Y96.212 E5.58690
G1 X96.815 Y96.513 E5.58781
G1 X93.487 Y93.185 E5.60199
G1 X93.185 Y93.185 E5.60290
G1 X96.815 Y96.815 E5.61836
G1 X96.815 Y97.116 E5.61927
G1 X92.884 Y93.185 E5.63602
G1 X92.583 Y93.185 E5.63693
G1 X96.815 Y97.417 E5.65496
G1 X96.815 Y97.718 E5.65587
G1 X92.282 Y93.185 E5.67518
