; generated by Slic3r 0.9.10-dev on 2013-04-28 at 11:47:08

; layer_height = 0.4
; perimeters = 3
; top_solid_layers = 3
; bottom_solid_layers = 3
; fill_density = 0.4
; perimeter_speed = 30
; infill_speed = 60
; travel_speed = 130
; nozzle_diameter = 0.5
; filament_diameter = 3
; extrusion_multiplier = 1
; perimeters extrusion width = 0.53mm
; infill extrusion width = 0.53mm
; solid infill extrusion width = 0.53mm
; top infill extrusion width = 0.53mm
; first layer extrusion width = 0.70mm

G21 ; set units to millimeters
M107
M104 S200 ; set temperature
G28 ; home all axes
G1 Z5 F5000 ; lift nozzle
M109 S200 ; wait for temperature to be reached
G90 ; use absolute coordinates
G92 E0
M82 ; use absolute distances for extrusion
G1 F1800.000 E-1.00000
G92 E0
G1 Z0.350 F7800.000
G1 X84.871 Y75.525
G1 F1800.000 E1.00000
G1 X85.231 Y75.125 F540.000 E1.01751
G1 X85.821 Y74.575 E1.04375
G1 X86.251 Y74.255 E1.06119
G1 X86.701 Y73.965 E1.07861
G1 X87.421 Y73.615 E1.10465
G1 X87.921 Y73.425 E1.12206
G1 X88.701 Y73.215 E1.14834
G1 X89.491 Y73.095 E1.17434
G1 X90.031 Y73.075 E1.19192
G1 X110.031 Y73.075 E1.84262
G1 X110.571 Y73.095 E1.86020
G1 X110.831 Y73.125 E1.86872
G1 X111.621 Y73.275 E1.89488
G1 X112.391 Y73.515 E1.92112
G1 X112.881 Y73.725 E1.93847
G1 X113.361 Y73.965 E1.95593
G1 X114.031 Y74.415 E1.98218
G1 X114.241 Y74.575 E1.99077
G1 X114.641 Y74.935 E2.00828
G1 X115.191 Y75.525 E2.03453
G1 X115.511 Y75.955 E2.05196
G1 X115.801 Y76.405 E2.06938
G1 X116.041 Y76.885 E2.08684
G1 X116.251 Y77.375 E2.10419
G1 X116.491 Y78.145 E2.13043
G1 X116.641 Y78.935 E2.15659
G1 X116.671 Y79.195 E2.16511
G1 X116.691 Y79.735 E2.18269
G1 X116.691 Y120.245 E3.50069
G1 X116.671 Y120.785 E3.51827
G1 X116.551 Y121.575 E3.54427
G1 X116.341 Y122.355 E3.57055
G1 X116.041 Y123.095 E3.59653
G1 X115.801 Y123.575 E3.61399
G1 X115.661 Y123.805 E3.62275
G1 X115.191 Y124.455 E3.64884
G1 X114.641 Y125.045 E3.67509
G1 X114.241 Y125.405 E3.69260
G1 X114.031 Y125.565 E3.70119
G1 X113.361 Y126.015 E3.72744
G1 X112.881 Y126.255 E3.74490
G1 X112.391 Y126.465 E3.76225
G1 X111.621 Y126.705 E3.78849
G1 X110.831 Y126.855 E3.81465
G1 X110.571 Y126.885 E3.82317
G1 X110.031 Y126.905 E3.84075
G1 X90.031 Y126.905 E4.49145
G1 X89.491 Y126.885 E4.50903
G1 X88.701 Y126.765 E4.53503
G1 X87.921 Y126.555 E4.56131
G1 X87.181 Y126.255 E4.58729
G1 X86.701 Y126.015 E4.60475
G1 X86.471 Y125.875 E4.61351
G1 X85.821 Y125.405 E4.63961
G1 X85.231 Y124.855 E4.66585
G1 X84.871 Y124.455 E4.68336
G1 X84.711 Y124.245 E4.69195
G1 X84.261 Y123.575 E4.71821
G1 X84.021 Y123.095 E4.73567
G1 X83.811 Y122.605 E4.75301
G1 X83.571 Y121.835 E4.77926
G1 X83.421 Y121.045 E4.80542
G1 X83.391 Y120.785 E4.81393
G1 X83.371 Y120.245 E4.83151
G1 X83.371 Y79.735 E6.14952
G1 X83.391 Y79.195 E6.16710
G1 X83.461 Y78.665 E6.18449
G1 X83.571 Y78.145 E6.20178
G1 X83.721 Y77.625 E6.21939
G1 X83.911 Y77.125 E6.23679
G1 X84.261 Y76.405 E6.26284
G1 X84.551 Y75.955 E6.28026
G1 X84.812 Y75.603 E6.29449
G1 F1800.000 E5.29449
G92 E0
G1 X91.684 Y81.388 F7800.000
G1 F1800.000 E1.00000
G1 X108.399 Y81.388 F540.000 E1.54381
G1 X108.399 Y118.612 E2.75492
G1 X91.684 Y118.612 E3.29874
G1 X91.684 Y81.486 E4.50664
G1 X91.027 Y80.731 F7800.000
G1 X109.056 Y80.731 F540.000 E5.09321
G1 X109.056 Y119.269 E6.34708
G1 X91.027 Y119.269 E6.93365
G1 X91.027 Y80.829 E8.18431
G1 X90.370 Y80.074 F7800.000
G1 X109.713 Y80.074 F378.000 E8.81363
G1 X109.713 Y119.926 E10.11026
G1 X90.370 Y119.926 E10.73958
G1 X90.370 Y80.172 E12.03300
G1 X90.939 Y80.402 F7800.000
G1 X107.922 Y81.864
G1 X106.976 Y81.864 F1080.000 E12.06434
G1 X107.922 Y82.810 E12.10867
G1 X107.922 Y83.756 E12.14000
G1 X106.030 Y81.864 E12.22865
G1 X105.084 Y81.864 E12.25998
G1 X107.922 Y84.702 E12.39295
G1 X107.922 Y85.648 E12.42428
G1 X104.138 Y81.864 E12.60156
G1 X103.192 Y81.864 E12.63290
G1 X107.922 Y86.594 E12.85450
G1 X107.922 Y87.541 E12.88584
G1 X102.246 Y81.864 E13.15175
G1 X101.300 Y81.864 E13.18309
G1 X107.922 Y88.487 E13.49332
G1 X107.922 Y89.433 E13.52466
G1 X100.354 Y81.864 E13.87921
G1 X99.408 Y81.864 E13.91055
G1 X107.922 Y90.379 E14.30942
G1 X107.922 Y91.325 E14.34076
G1 X98.461 Y81.864 E14.78395
G1 X97.515 Y81.864 E14.81529
G1 X107.922 Y92.271 E15.30279
G1 X107.922 Y93.217 E15.33413
G1 X96.569 Y81.864 E15.86595
G1 X95.623 Y81.864 E15.89729
G1 X107.922 Y94.163 E16.47343
G1 X107.922 Y95.109 E16.50477
G1 X94.677 Y81.864 E17.12523
G1 X93.731 Y81.864 E17.15657
G1 X107.922 Y96.055 E17.82135
G1 X107.922 Y97.001 E17.85269
G1 X92.785 Y81.864 E18.56178
G1 X92.160 Y82.185 E18.58506
G1 X107.922 Y97.947 E19.32342
G1 X107.922 Y98.893 E19.35476
G1 X92.160 Y83.131 E20.09313
G1 X92.160 Y84.077 E20.12446
G1 X107.922 Y99.839 E20.86283
G1 X107.922 Y100.785 E20.89417
G1 X92.160 Y85.023 E21.63254
G1 X92.160 Y85.969 E21.66387
G1 X107.922 Y101.732 E22.40224
G1 X107.922 Y102.678 E22.43358
G1 X92.160 Y86.916 E23.17194
G1 X92.160 Y87.862 E23.20328
G1 X107.922 Y103.624 E23.94165
G1 X107.922 Y104.570 E23.97299
G1 X92.160 Y88.808 E24.71135
G1 X92.160 Y89.754 E24.74269
G1 X107.922 Y105.516 E25.48106
G1 X107.922 Y106.462 E25.51239
G1 X92.160 Y90.700 E26.25076
G1 X92.160 Y91.646 E26.28210
G1 X107.922 Y107.408 E27.02047
G1 X107.922 Y108.354 E27.05180
G1 X92.160 Y92.592 E27.79017
G1 X92.160 Y93.538 E27.82151
G1 X107.922 Y109.300 E28.55987
G1 X107.922 Y110.246 E28.59121
G1 X92.160 Y94.484 E29.32958
G1 X92.160 Y95.430 E29.36092
G1 X107.922 Y111.192 E30.09928
G1 X107.922 Y112.138 E30.13062
G1 X92.160 Y96.376 E30.86899
G1 X92.160 Y97.322 E30.90032
G1 X107.922 Y113.084 E31.63869
G1 X107.922 Y114.030 E31.67003
G1 X92.160 Y98.268 E32.40839
G1 X92.160 Y99.214 E32.43973
G1 X107.922 Y114.977 E33.17810
G1 X107.922 Y115.923 E33.20944
G1 X92.160 Y100.161 E33.94780
G1 X92.160 Y101.107 E33.97914
G1 X107.922 Y116.869 E34.71751
G1 X107.922 Y117.815 E34.74885
G1 X92.160 Y102.053 E35.48721
G1 X92.160 Y102.999 E35.51855
G1 X107.298 Y118.136 E36.22765
G1 X106.351 Y118.136 E36.25899
G1 X92.160 Y103.945 E36.92377
G1 X92.160 Y104.891 E36.95511
G1 X105.405 Y118.136 E37.57557
G1 X104.459 Y118.136 E37.60691
G1 X92.160 Y105.837 E38.18305
G1 X92.160 Y106.783 E38.21439
G1 X103.513 Y118.136 E38.74622
G1 X102.567 Y118.136 E38.77755
G1 X92.160 Y107.729 E39.26506
G1 X92.160 Y108.675 E39.29640
G1 X101.621 Y118.136 E39.73959
G1 X100.675 Y118.136 E39.77093
G1 X92.160 Y109.621 E40.16980
G1 X92.160 Y110.567 E40.20114
G1 X99.729 Y118.136 E40.55569
G1 X98.783 Y118.136 E40.58703
G1 X92.160 Y111.513 E40.89727
G1 X92.160 Y112.459 E40.92861
G1 X97.837 Y118.136 E41.19452
G1 X96.891 Y118.136 E41.22586
G1 X92.160 Y113.405 E41.44746
G1 X92.160 Y114.352 E41.47880
G1 X95.945 Y118.136 E41.65608
G1 X94.999 Y118.136 E41.68742
G1 X92.160 Y115.298 E41.82038
G1 X92.160 Y116.244 E41.85172
G1 X94.053 Y118.136 E41.94037
G1 X93.106 Y118.136 E41.97170
G1 X92.160 Y117.190 E42.01603
G1 X92.160 Y118.136 E42.04737
M106 S233
G1 F1800.000 E41.04737
G92 E0
G1 Z0.750 F7800.000
G1 X91.340 Y118.956
G1 F1800.000 E1.00000
G1 X91.340 Y81.044 F1800.000 E2.11481
G1 X108.742 Y81.044 E2.62652
G1 X108.742 Y118.956 E3.74133
G1 X91.418 Y118.956 E4.25074
G1 X90.821 Y119.476 F7800.000
G1 X90.821 Y80.524 F1800.000 E5.39611
G1 X109.262 Y80.524 E5.93838
G1 X109.262 Y119.476 E7.08375
G1 X90.899 Y119.476 E7.62372
G1 X90.301 Y119.995 F7800.000
G1 X90.301 Y80.005 F1260.000 E8.79965
G1 X109.781 Y80.005 E9.37248
G1 X109.781 Y119.995 E10.54841
G1 X90.379 Y119.995 E11.11894
G1 X90.561 Y119.545 F7800.000
G1 X108.366 Y118.579
G1 X107.628 Y118.579 F3600.000 E11.14068
G1 X108.366 Y117.842 E11.17144
G1 X108.366 Y117.105 E11.19318
G1 X106.891 Y118.579 E11.25467
G1 X106.154 Y118.579 E11.27641
G1 X108.366 Y116.368 E11.36865
G1 X108.366 Y115.631 E11.39039
G1 X105.417 Y118.579 E11.51337
G1 X104.680 Y118.579 E11.53511
G1 X108.366 Y114.894 E11.68884
G1 X108.366 Y114.157 E11.71058
G1 X103.943 Y118.579 E11.89505
G1 X103.206 Y118.579 E11.91679
G1 X108.366 Y113.420 E12.13200
G1 X108.366 Y112.682 E12.15374
G1 X102.469 Y118.579 E12.39970
G1 X101.732 Y118.579 E12.42144
G1 X108.366 Y111.945 E12.69814
G1 X108.366 Y111.208 E12.71988
G1 X100.995 Y118.579 E13.02733
G1 X100.257 Y118.579 E13.04907
G1 X108.366 Y110.471 E13.38726
G1 X108.366 Y109.734 E13.40900
G1 X99.520 Y118.579 E13.77793
G1 X98.783 Y118.579 E13.79967
G1 X108.366 Y108.997 E14.19935
G1 X108.366 Y108.260 E14.22109
G1 X98.046 Y118.579 E14.65151
G1 X97.309 Y118.579 E14.67325
G1 X108.366 Y107.523 E15.13442
G1 X108.366 Y106.786 E15.15615
G1 X96.572 Y118.579 E15.64806
G1 X95.835 Y118.579 E15.66980
G1 X108.366 Y106.049 E16.19246
G1 X108.366 Y105.312 E16.21420
G1 X95.098 Y118.579 E16.76759
G1 X94.361 Y118.579 E16.78933
G1 X108.366 Y104.575 E17.37347
G1 X108.366 Y103.837 E17.39521
G1 X93.624 Y118.579 E18.01010
G1 X92.887 Y118.579 E18.03183
G1 X108.366 Y103.100 E18.67746
G1 X108.366 Y102.363 E18.69920
G1 X92.150 Y118.579 E19.37557
G1 X91.717 Y118.275 E19.39118
G1 X108.366 Y101.626 E20.08559
G1 X108.366 Y100.889 E20.10733
G1 X91.717 Y117.538 E20.80175
G1 X91.717 Y116.801 E20.82349
G1 X108.366 Y100.152 E21.51791
G1 X108.366 Y99.415 E21.53965
G1 X91.717 Y116.064 E22.23406
G1 X91.717 Y115.327 E22.25580
G1 X108.366 Y98.678 E22.95022
G1 X108.366 Y97.941 E22.97196
G1 X91.717 Y114.589 E23.66637
G1 X91.717 Y113.852 E23.68811
G1 X108.366 Y97.204 E24.38253
G1 X108.366 Y96.467 E24.40427
G1 X91.717 Y113.115 E25.09869
G1 X91.717 Y112.378 E25.12043
G1 X108.366 Y95.730 E25.81484
G1 X108.366 Y94.993 E25.83658
G1 X91.717 Y111.641 E26.53100
G1 X91.717 Y110.904 E26.55274
G1 X108.366 Y94.255 E27.24715
G1 X108.366 Y93.518 E27.26889
G1 X91.717 Y110.167 E27.96331
G1 X91.717 Y109.430 E27.98505
G1 X108.366 Y92.781 E28.67947
G1 X108.366 Y92.044 E28.70121
G1 X91.717 Y108.693 E29.39562
G1 X91.717 Y107.956 E29.41736
G1 X108.366 Y91.307 E30.11178
G1 X108.366 Y90.570 E30.13352
G1 X91.717 Y107.219 E30.82793
G1 X91.717 Y106.482 E30.84967
G1 X108.366 Y89.833 E31.54409
G1 X108.366 Y89.096 E31.56583
G1 X91.717 Y105.744 E32.26025
G1 X91.717 Y105.007 E32.28199
G1 X108.366 Y88.359 E32.97640
G1 X108.366 Y87.622 E32.99814
G1 X91.717 Y104.270 E33.69256
G1 X91.717 Y103.533 E33.71430
G1 X108.366 Y86.885 E34.40871
G1 X108.366 Y86.148 E34.43045
G1 X91.717 Y102.796 E35.12487
G1 X91.717 Y102.059 E35.14661
G1 X108.366 Y85.410 E35.84103
G1 X108.366 Y84.673 E35.86277
G1 X91.717 Y101.322 E36.55718
G1 X91.717 Y100.585 E36.57892
G1 X108.366 Y83.936 E37.27334
G1 X108.366 Y83.199 E37.29508
G1 X91.717 Y99.848 E37.98949
G1 X91.717 Y99.111 E38.01123
G1 X108.366 Y82.462 E38.70565
G1 X108.366 Y81.725 E38.72739
G1 X91.717 Y98.374 E39.42181
G1 X91.717 Y97.637 E39.44355
G1 X107.933 Y81.421 E40.11991
G1 X107.196 Y81.421 E40.14165
G1 X91.717 Y96.899 E40.78728
G1 X91.717 Y96.162 E40.80902
G1 X106.459 Y81.421 E41.42390
G1 X105.722 Y81.421 E41.44564
G1 X91.717 Y95.425 E42.02977
G1 X91.717 Y94.688 E42.05151
G1 X104.985 Y81.421 E42.60490
G1 X104.247 Y81.421 E42.62664
G1 X91.717 Y93.951 E43.14929
G1 X91.717 Y93.214 E43.17103
G1 X103.510 Y81.421 E43.66294
G1 X102.773 Y81.421 E43.68468
G1 X91.717 Y92.477 E44.14584
G1 X91.717 Y91.740 E44.16758
G1 X102.036 Y81.421 E44.59799
G1 X101.299 Y81.421 E44.61973
G1 X91.717 Y91.003 E45.01941
G1 X91.717 Y90.266 E45.04115
G1 X100.562 Y81.421 E45.41008
G1 X99.825 Y81.421 E45.43181
G1 X91.717 Y89.529 E45.77000
G1 X91.717 Y88.792 E45.79174
G1 X99.088 Y81.421 E46.09918
G1 X98.351 Y81.421 E46.12092
G1 X91.717 Y88.055 E46.39762
G1 X91.717 Y87.317 E46.41936
G1 X97.614 Y81.421 E46.66531
G1 X96.877 Y81.421 E46.68705
G1 X91.717 Y86.580 E46.90226
G1 X91.717 Y85.843 E46.92400
G1 X96.140 Y81.421 E47.10847
G1 X95.402 Y81.421 E47.13021
G1 X91.717 Y85.106 E47.28393
G1 X91.717 Y84.369 E47.30567
G1 X94.665 Y81.421 E47.42865
G1 X93.928 Y81.421 E47.45039
G1 X91.717 Y83.632 E47.54263
G1 X91.717 Y82.895 E47.56437
G1 X93.191 Y81.421 E47.62586
G1 X92.454 Y81.421 E47.64760
G1 X91.717 Y82.158 E47.67834
G1 X91.717 Y81.421 E47.70009
M106 S255
G1 F1800.000 E46.70009
G92 E0
G1 Z1.150 F7800.000
G1 X91.340 Y81.044
G1 F1800.000 E1.00000
G1 X108.742 Y81.044 F1392.755 E1.51171
G1 X108.742 Y118.956 E2.62652
G1 X91.340 Y118.956 E3.13822
G1 X91.340 Y81.122 E4.25074
G1 X90.821 Y80.524 F7800.000
G1 X109.262 Y80.524 F1392.755 E4.79301
G1 X109.262 Y119.476 E5.93838
G1 X90.821 Y119.476 E6.48064
G1 X90.821 Y80.602 E7.62372
G1 X90.301 Y80.005 F7800.000
G1 X109.781 Y80.005 F974.929 E8.19655
G1 X109.781 Y119.995 E9.37248
G1 X90.301 Y119.995 E9.94530
G1 X90.301 Y80.083 E11.11894
G1 X90.751 Y80.265 F7800.000
G1 X108.366 Y81.421
G1 X107.628 Y81.421 F2785.511 E11.14068
G1 X108.366 Y82.158 E11.17143
G1 X108.366 Y82.895 E11.19317
G1 X106.891 Y81.421 E11.25466
G1 X106.154 Y81.421 E11.27640
G1 X108.366 Y83.632 E11.36864
G1 X108.366 Y84.369 E11.39038
G1 X105.417 Y81.421 E11.51335
G1 X104.680 Y81.421 E11.53509
G1 X108.366 Y85.106 E11.68882
G1 X108.366 Y85.843 E11.71056
G1 X103.943 Y81.421 E11.89502
G1 X103.206 Y81.421 E11.91676
G1 X108.366 Y86.580 E12.13197
G1 X108.366 Y87.317 E12.15371
G1 X102.469 Y81.421 E12.39967
G1 X101.732 Y81.421 E12.42141
G1 X108.366 Y88.055 E12.69810
G1 X108.366 Y88.792 E12.71984
G1 X100.995 Y81.421 E13.02729
G1 X100.258 Y81.421 E13.04903
G1 X108.366 Y89.529 E13.38721
G1 X108.366 Y90.266 E13.40895
G1 X99.520 Y81.421 E13.77788
G1 X98.783 Y81.421 E13.79962
G1 X108.366 Y91.003 E14.19929
G1 X108.366 Y91.740 E14.22103
G1 X98.046 Y81.421 E14.65145
G1 X97.309 Y81.421 E14.67319
G1 X108.366 Y92.477 E15.13435
G1 X108.366 Y93.214 E15.15609
G1 X96.572 Y81.421 E15.64800
G1 X95.835 Y81.421 E15.66973
G1 X108.366 Y93.951 E16.19238
G1 X108.366 Y94.688 E16.21412
G1 X95.098 Y81.421 E16.76752
G1 X94.361 Y81.421 E16.78925
G1 X108.366 Y95.425 E17.37339
G1 X108.366 Y96.162 E17.39513
G1 X93.624 Y81.421 E18.01001
G1 X92.887 Y81.421 E18.03175
G1 X108.366 Y96.899 E18.67737
G1 X108.366 Y97.637 E18.69911
G1 X92.150 Y81.421 E19.37548
G1 X91.717 Y81.725 E19.39108
G1 X108.366 Y98.374 E20.08550
G1 X108.366 Y99.111 E20.10724
G1 X91.717 Y82.462 E20.80166
G1 X91.717 Y83.199 E20.82340
G1 X108.366 Y99.848 E21.51781
G1 X108.366 Y100.585 E21.53955
G1 X91.717 Y83.936 E22.23397
G1 X91.717 Y84.673 E22.25571
G1 X108.366 Y101.322 E22.95013
G1 X108.366 Y102.059 E22.97186
G1 X91.717 Y85.410 E23.66628
G1 X91.717 Y86.148 E23.68802
G1 X108.366 Y102.796 E24.38244
G1 X108.366 Y103.533 E24.40418
G1 X91.717 Y86.885 E25.09859
G1 X91.717 Y87.622 E25.12033
G1 X108.366 Y104.270 E25.81475
G1 X108.366 Y105.007 E25.83649
G1 X91.717 Y88.359 E26.53091
G1 X91.717 Y89.096 E26.55264
G1 X108.366 Y105.744 E27.24706
G1 X108.366 Y106.482 E27.26880
G1 X91.717 Y89.833 E27.96322
G1 X91.717 Y90.570 E27.98496
G1 X108.366 Y107.219 E28.67937
G1 X108.366 Y107.956 E28.70111
G1 X91.717 Y91.307 E29.39553
G1 X91.717 Y92.044 E29.41727
G1 X108.366 Y108.693 E30.11169
G1 X108.366 Y109.430 E30.13342
G1 X91.717 Y92.781 E30.82784
G1 X91.717 Y93.518 E30.84958
G1 X108.366 Y110.167 E31.54400
G1 X108.366 Y110.904 E31.56574
G1 X91.717 Y94.255 E32.26015
G1 X91.717 Y94.993 E32.28189
G1 X108.366 Y111.641 E32.97631
G1 X108.366 Y112.378 E32.99805
G1 X91.717 Y95.730 E33.69247
G1 X91.717 Y96.467 E33.71420
G1 X108.366 Y113.115 E34.40862
G1 X108.366 Y113.852 E34.43036
G1 X91.717 Y97.204 E35.12478
G1 X91.717 Y97.941 E35.14652
G1 X108.366 Y114.589 E35.84093
G1 X108.366 Y115.327 E35.86267
G1 X91.717 Y98.678 E36.55709
G1 X91.717 Y99.415 E36.57883
G1 X108.366 Y116.064 E37.27325
G1 X108.366 Y116.801 E37.29498
G1 X91.717 Y100.152 E37.98940
G1 X91.717 Y100.889 E38.01114
G1 X108.366 Y117.538 E38.70556
G1 X108.366 Y118.275 E38.72730
G1 X91.717 Y101.626 E39.42171
G1 X91.717 Y102.363 E39.44345
G1 X107.933 Y118.579 E40.11982
G1 X107.196 Y118.579 E40.14156
G1 X91.717 Y103.100 E40.78719
G1 X91.717 Y103.837 E40.80893
G1 X106.459 Y118.579 E41.42382
G1 X105.722 Y118.579 E41.44556
G1 X91.717 Y104.575 E42.02970
G1 X91.717 Y105.312 E42.05144
G1 X104.985 Y118.579 E42.60483
G1 X104.248 Y118.579 E42.62657
G1 X91.717 Y106.049 E43.14922
G1 X91.717 Y106.786 E43.17096
G1 X103.510 Y118.579 E43.66287
G1 X102.773 Y118.579 E43.68461
G1 X91.717 Y107.523 E44.14578
G1 X91.717 Y108.260 E44.16752
G1 X102.036 Y118.579 E44.59794
G1 X101.299 Y118.579 E44.61968
G1 X91.717 Y108.997 E45.01936
G1 X91.717 Y109.734 E45.04109
