; generated by Slic3r 0.9.10-dev on 2013-04-21 at 15:32:11

; layer_height = 0.4
; perimeters = 3
; top_solid_layers = 3
; bottom_solid_layers = 3
; fill_density = 0.4
; perimeter_speed = 30
; infill_speed = 60
; travel_speed = 130
; nozzle_diameter = 0.5
; filament_diameter = 3
; extrusion_multiplier = 1
; perimeters extrusion width = 0.53mm
; infill extrusion width = 0.53mm
; solid infill extrusion width = 0.53mm
; top infill extrusion width = 0.53mm
; first layer extrusion width = 0.70mm

G21 ; set units to millimeters
M107
M104 S200 ; set temperature
G28 ; home all axes
G1 Z5 F5000 ; lift nozzle
M109 S200 ; wait for temperature to be reached
G90 ; use absolute coordinates
G92 E0
M82 ; use absolute distances for extrusion
G1 F1800.000 E-1.00000
G92 E0
G1 Z0.350 F7800.000
G1 X74.330 Y72.890
G1 F1800.000 E1.00000
G1 X74.920 Y72.340 F540.000 E1.02624
G1 X75.350 Y72.020 E1.04368
G1 X75.800 Y71.730 E1.06110
G1 X76.520 Y71.380 E1.08715
G1 X77.020 Y71.190 E1.10455
G1 X77.800 Y70.980 E1.13083
G1 X78.590 Y70.860 E1.15683
G1 X79.130 Y70.840 E1.17441
G1 X122.490 Y70.840 E2.58514
G1 X123.030 Y70.860 E2.60272
G1 X123.560 Y70.930 E2.62011
G1 X124.340 Y71.110 E2.64615
G1 X124.850 Y71.280 E2.66364
G1 X125.340 Y71.490 E2.68099
G1 X125.820 Y71.730 E2.69845
G1 X126.270 Y72.020 E2.71587
G1 X126.700 Y72.340 E2.73331
G1 X127.290 Y72.890 E2.75955
G1 X127.650 Y73.290 E2.77706
G1 X128.120 Y73.940 E2.80316
G1 X128.260 Y74.170 E2.81192
G1 X128.610 Y74.890 E2.83796
G1 X128.800 Y75.390 E2.85536
G1 X128.950 Y75.910 E2.87297
G1 X129.060 Y76.430 E2.89027
G1 X129.130 Y76.960 E2.90766
G1 X129.150 Y77.500 E2.92524
G1 X129.150 Y122.490 E4.38900
G1 X129.130 Y123.030 E4.40658
G1 X129.010 Y123.820 E4.43258
G1 X128.800 Y124.600 E4.45886
G1 X128.610 Y125.100 E4.47626
G1 X128.260 Y125.820 E4.50231
G1 X127.970 Y126.270 E4.51973
G1 X127.650 Y126.700 E4.53716
G1 X127.100 Y127.290 E4.56341
G1 X126.700 Y127.650 E4.58092
G1 X126.050 Y128.120 E4.60701
G1 X125.820 Y128.260 E4.61577
G1 X125.100 Y128.610 E4.64182
G1 X124.600 Y128.800 E4.65922
G1 X124.080 Y128.950 E4.67683
G1 X123.560 Y129.060 E4.69412
G1 X123.030 Y129.130 E4.71152
G1 X122.490 Y129.150 E4.72910
G1 X79.130 Y129.150 E6.13982
G1 X78.590 Y129.130 E6.15741
G1 X77.800 Y129.010 E6.18340
G1 X77.020 Y128.800 E6.20968
G1 X76.520 Y128.610 E6.22709
G1 X75.800 Y128.260 E6.25313
G1 X75.350 Y127.970 E6.27055
G1 X74.920 Y127.650 E6.28799
G1 X74.330 Y127.100 E6.31423
G1 X73.970 Y126.700 E6.33174
G1 X73.500 Y126.050 E6.35784
G1 X73.360 Y125.820 E6.36660
G1 X73.010 Y125.100 E6.39265
G1 X72.820 Y124.600 E6.41005
G1 X72.610 Y123.820 E6.43633
G1 X72.490 Y123.030 E6.46233
G1 X72.470 Y122.490 E6.47991
G1 X72.470 Y77.500 E7.94367
G1 X72.490 Y76.960 E7.96125
G1 X72.560 Y76.430 E7.97864
G1 X72.740 Y75.650 E8.00469
G1 X72.910 Y75.140 E8.02218
G1 X73.120 Y74.650 E8.03952
G1 X73.360 Y74.170 E8.05698
G1 X73.500 Y73.940 E8.06574
G1 X73.970 Y73.290 E8.09184
G1 X74.264 Y72.963 E8.10614
G1 F1800.000 E7.10614
G92 E0
G1 X82.071 Y83.869 F7800.000
G1 F1800.000 E1.00000
G1 X82.918 Y83.420 F540.000 E1.03117
G1 X83.841 Y83.164 E1.06234
G1 X84.797 Y83.112 E1.09351
G1 X85.743 Y83.267 E1.12468
G1 X86.633 Y83.622 E1.15585
G1 X87.426 Y84.159 E1.18702
G1 X88.085 Y84.855 E1.21819
G1 X88.579 Y85.676 E1.24936
G1 X88.885 Y86.584 E1.28053
G1 X88.988 Y87.536 E1.31170
G1 X88.885 Y88.488 E1.34287
G1 X88.579 Y89.396 E1.37404
G1 X88.085 Y90.217 E1.40521
G1 X87.426 Y90.913 E1.43638
G1 X86.633 Y91.450 E1.46755
G1 X85.743 Y91.805 E1.49872
G1 X84.797 Y91.960 E1.52989
G1 X83.841 Y91.908 E1.56106
G1 X82.918 Y91.652 E1.59223
G1 X82.071 Y91.203 E1.62340
G1 X81.341 Y90.583 E1.65457
G1 X80.761 Y89.820 E1.68574
G1 X80.359 Y88.951 E1.71691
G1 X80.153 Y88.015 E1.74808
G1 X80.153 Y87.057 E1.77925
G1 X80.359 Y86.121 E1.81042
G1 X80.761 Y85.252 E1.84159
G1 X81.341 Y84.489 E1.87276
G1 X81.996 Y83.933 E1.90072
G1 X82.048 Y83.212 F7800.000
G1 F1800.000 E0.90072
G92 E0
G1 X83.862 Y108.107 F7800.000
G1 F1800.000 E1.00000
G1 X84.819 Y108.055 F540.000 E1.03119
G1 X85.765 Y108.210 E1.06239
G1 X86.656 Y108.565 E1.09358
G1 X87.377 Y109.054 E1.12193
G1 X87.450 Y109.103 E1.12478
G1 X88.109 Y109.799 E1.15597
G1 X88.603 Y110.621 E1.18716
G1 X88.909 Y111.529 E1.21836
G1 X89.013 Y112.483 E1.24955
G1 X88.919 Y113.349 E1.27790
G1 X88.909 Y113.436 E1.28074
G1 X88.603 Y114.344 E1.31194
G1 X88.109 Y115.166 E1.34313
G1 X87.450 Y115.862 E1.37433
G1 X86.656 Y116.400 E1.40552
G1 X85.765 Y116.755 E1.43671
G1 X84.819 Y116.910 E1.46791
G1 X83.862 Y116.858 E1.49910
G1 X82.938 Y116.602 E1.53029
G1 X82.091 Y116.153 E1.56149
G1 X81.360 Y115.532 E1.59268
G1 X80.780 Y114.769 E1.62388
G1 X80.378 Y113.898 E1.65507
G1 X80.171 Y112.962 E1.68626
G1 X80.171 Y112.003 E1.71746
G1 X80.378 Y111.067 E1.74865
G1 X80.780 Y110.197 E1.77984
G1 X81.360 Y109.433 E1.81104
G1 X82.091 Y108.813 E1.84223
G1 X82.938 Y108.364 E1.87343
G1 X83.767 Y108.134 E1.90141
G1 X84.116 Y107.501 F7800.000
G1 X83.878 Y106.790
G1 X83.648 Y106.803 F540.000 E1.90891
G1 X82.449 Y107.136 E1.94940
G1 X81.349 Y107.719 E1.98990
G1 X80.779 Y108.203 E2.01425
G1 X80.779 Y91.830 E2.54696
G1 X81.329 Y92.297 E2.57047
G1 X82.428 Y92.880 E2.61094
G1 X83.627 Y93.213 E2.65141
G1 X84.869 Y93.280 E2.69188
G1 X86.097 Y93.079 E2.73235
G1 X87.252 Y92.618 E2.77282
G1 X88.282 Y91.920 E2.81329
G1 X89.137 Y91.017 E2.85376
G1 X89.778 Y89.951 E2.89423
G1 X90.175 Y88.773 E2.93470
G1 X90.310 Y87.536 E2.97517
G1 X90.176 Y86.299 E3.01564
G1 X89.778 Y85.121 E3.05611
G1 X89.137 Y84.055 E3.09658
G1 X88.282 Y83.152 E3.13705
G1 X87.252 Y82.454 E3.17752
G1 X86.097 Y81.993 E3.21799
G1 X84.869 Y81.792 E3.25846
G1 X83.627 Y81.859 E3.29893
G1 X82.428 Y82.192 E3.33940
G1 X81.329 Y82.775 E3.37987
G1 X80.779 Y83.243 E3.40337
G1 X80.779 Y79.143 E3.53677
G1 X120.857 Y79.143 E4.84073
G1 X120.857 Y120.857 E6.19792
G1 X80.779 Y120.857 E7.50188
G1 X80.779 Y116.762 E7.63512
G1 X81.349 Y117.247 E7.65947
G1 X82.449 Y117.830 E7.69996
G1 X83.648 Y118.163 E7.74045
G1 X84.891 Y118.230 E7.78095
G1 X86.119 Y118.029 E7.82144
G1 X87.275 Y117.568 E7.86194
G1 X88.305 Y116.869 E7.90243
G1 X89.161 Y115.966 E7.94292
G1 X89.803 Y114.899 E7.98342
G1 X90.200 Y113.720 E8.02391
G1 X90.335 Y112.483 E8.06441
G1 X90.200 Y111.245 E8.10490
G1 X89.803 Y110.066 E8.14539
G1 X89.161 Y108.999 E8.18589
G1 X88.305 Y108.096 E8.22638
G1 X87.275 Y107.397 E8.26687
G1 X86.119 Y106.937 E8.30737
G1 X84.891 Y106.735 E8.34786
G1 X83.977 Y106.785 E8.37765
G1 X83.914 Y107.446 F7800.000
G1 X83.755 Y107.455 F540.000 E8.38283
G1 X82.694 Y107.750 E8.41867
G1 X81.720 Y108.266 E8.45451
G1 X80.880 Y108.979 E8.49036
G1 X80.283 Y109.764 E8.52246
G1 X80.122 Y109.710 E8.52801
G1 X80.122 Y90.332 E9.15848
G1 X80.283 Y90.277 E9.16403
G1 X80.861 Y91.037 E9.19510
G1 X81.700 Y91.750 E9.23092
G1 X82.673 Y92.266 E9.26674
G1 X83.734 Y92.560 E9.30256
G1 X84.833 Y92.620 E9.33838
G1 X85.920 Y92.442 E9.37420
G1 X86.942 Y92.034 E9.41002
G1 X87.854 Y91.417 E9.44584
G1 X88.611 Y90.617 E9.48166
G1 X89.178 Y89.674 E9.51748
G1 X89.530 Y88.631 E9.55330
G1 X89.649 Y87.536 E9.58912
G1 X89.530 Y86.442 E9.62494
G1 X89.178 Y85.398 E9.66076
G1 X88.611 Y84.455 E9.69658
G1 X87.854 Y83.656 E9.73240
G1 X86.942 Y83.038 E9.76822
G1 X85.920 Y82.630 E9.80404
G1 X84.833 Y82.452 E9.83986
G1 X83.734 Y82.512 E9.87568
G1 X82.673 Y82.806 E9.91150
G1 X81.700 Y83.322 E9.94732
G1 X80.861 Y84.035 E9.98314
G1 X80.283 Y84.795 E10.01420
G1 X80.122 Y84.740 E10.01975
G1 X80.122 Y78.486 E10.22325
G1 X121.514 Y78.486 E11.56997
G1 X121.514 Y121.514 E12.96992
G1 X80.122 Y121.514 E14.31664
G1 X80.122 Y115.255 E14.52028
G1 X80.283 Y115.201 E14.52583
G1 X80.880 Y115.986 E14.55793
G1 X81.720 Y116.700 E14.59377
G1 X82.694 Y117.216 E14.62961
G1 X83.755 Y117.510 E14.66546
G1 X84.855 Y117.570 E14.70130
G1 X85.942 Y117.392 E14.73715
G1 X86.966 Y116.984 E14.77299
G1 X87.878 Y116.366 E14.80883
G1 X88.635 Y115.566 E14.84468
G1 X89.203 Y114.622 E14.88052
G1 X89.555 Y113.578 E14.91636
G1 X89.674 Y112.483 E14.95221
G1 X89.555 Y111.387 E14.98805
G1 X89.203 Y110.343 E15.02390
G1 X88.635 Y109.399 E15.05974
G1 X87.878 Y108.600 E15.09558
G1 X86.966 Y107.981 E15.13143
G1 X85.942 Y107.574 E15.16727
G1 X84.855 Y107.395 E15.20312
G1 X84.012 Y107.441 E15.23058
G1 F1800.000 E14.23058
G92 E0
G1 X79.465 Y122.171 F7800.000
G1 F1800.000 E1.00000
G1 X79.465 Y77.829 F378.000 E2.44271
G1 X122.171 Y77.829 E3.83218
G1 X122.171 Y122.171 E5.27489
G1 X79.563 Y122.171 E6.66116
G1 X79.793 Y121.602 F7800.000
G1 X81.255 Y120.381
G1 X81.255 Y119.441 F1080.000 E6.69209
G1 X82.195 Y120.381 E6.73584
G1 X83.135 Y120.381 E6.76676
G1 X81.255 Y118.501 E6.85425
G1 X81.627 Y117.933 E6.87659
G1 X84.075 Y120.381 E6.99053
G1 X85.015 Y120.381 E7.02146
G1 X83.153 Y118.519 E7.10809
G1 X84.245 Y118.672 E7.14439
G1 X85.955 Y120.381 E7.22392
G1 X86.894 Y120.381 E7.25485
G1 X85.179 Y118.665 E7.33469
G1 X85.986 Y118.533 E7.36161
G1 X87.834 Y120.381 E7.44762
G1 X88.774 Y120.381 E7.47854
G1 X86.702 Y118.309 E7.57497
G1 X87.374 Y118.041 E7.59878
G1 X89.714 Y120.381 E7.70766
G1 X90.654 Y120.381 E7.73859
G1 X87.955 Y117.682 E7.86418
G1 X88.515 Y117.303 E7.88645
G1 X91.594 Y120.381 E8.02970
G1 X92.534 Y120.381 E8.06063
G1 X88.991 Y116.838 E8.22549
G1 X89.448 Y116.356 E8.24737
G1 X93.473 Y120.381 E8.43470
G1 X94.413 Y120.381 E8.46562
G1 X89.823 Y115.791 E8.67925
G1 X90.176 Y115.204 E8.70179
G1 X95.353 Y120.381 E8.94272
G1 X96.293 Y120.381 E8.97365
G1 X90.433 Y114.521 E9.24635
G1 X90.669 Y113.817 E9.27078
G1 X97.233 Y120.381 E9.57624
G1 X98.173 Y120.381 E9.60717
G1 X90.761 Y112.970 E9.95207
G1 X90.765 Y112.034 E9.98287
G1 X99.113 Y120.381 E10.37132
G1 X100.052 Y120.381 E10.40225
G1 X90.595 Y110.923 E10.84239
G1 X89.878 Y109.267 E10.90176
G1 X100.992 Y120.381 E11.41897
G1 X101.932 Y120.381 E11.44990
G1 X81.255 Y99.704 E12.41214
G1 X81.255 Y98.764 E12.44307
G1 X102.872 Y120.381 E13.44905
G1 X103.812 Y120.381 E13.47997
G1 X81.255 Y97.824 E14.52969
G1 X81.255 Y96.884 E14.56062
G1 X104.752 Y120.381 E15.65408
G1 X105.692 Y120.381 E15.68500
G1 X81.255 Y95.945 E16.82220
G1 X81.255 Y95.005 E16.85312
G1 X106.631 Y120.381 E18.03406
G1 X107.571 Y120.381 E18.06498
G1 X81.255 Y94.065 E19.28965
G1 X81.255 Y93.125 E19.32058
G1 X108.511 Y120.381 E20.58899
G1 X109.451 Y120.381 E20.61992
G1 X82.450 Y93.380 E21.87645
G1 X83.704 Y93.694 E21.91897
G1 X110.391 Y120.381 E23.16091
G1 X111.331 Y120.381 E23.19184
G1 X84.697 Y93.748 E24.43127
G1 X85.542 Y93.652 E24.45924
G1 X112.271 Y120.381 E25.70311
G1 X113.210 Y120.381 E25.73403
G1 X86.328 Y93.499 E26.98503
G1 X87.000 Y93.231 E27.00884
G1 X114.150 Y120.381 E28.27230
G1 X115.090 Y120.381 E28.30323
G1 X87.640 Y92.931 E29.58068
G1 X88.200 Y92.551 E29.60294
G1 X116.030 Y120.381 E30.89806
G1 X116.970 Y120.381 E30.92899
G1 X88.729 Y92.140 E32.24322
G1 X89.186 Y91.658 E32.26510
G1 X117.910 Y120.381 E33.60179
G1 X118.850 Y120.381 E33.63271
G1 X89.615 Y91.147 E34.99319
G1 X89.968 Y90.560 E35.01573
G1 X119.789 Y120.381 E36.40351
G1 X120.381 Y120.033 E36.42610
G1 X90.286 Y89.937 E37.82665
G1 X90.522 Y89.234 E37.85106
G1 X120.381 Y119.093 E39.24058
G1 X120.381 Y118.153 E39.27151
G1 X90.689 Y88.461 E40.65331
G1 X90.781 Y87.613 E40.68136
G1 X120.381 Y117.213 E42.05887
G1 X120.381 Y116.273 E42.08980
G1 X90.685 Y86.577 E43.47177
G1 X90.338 Y85.291 E43.51561
G1 X120.381 Y115.334 E44.91371
G1 X120.381 Y114.394 E44.94463
G1 X85.606 Y79.619 E46.56294
G1 X84.666 Y79.619 E46.59387
G1 X86.814 Y81.767 E46.69381
G1 X85.525 Y81.417 E46.73777
G1 X83.727 Y79.619 E46.82144
G1 X82.787 Y79.619 E46.85237
G1 X84.503 Y81.335 E46.93223
G1 X83.611 Y81.383 E46.96161
G1 X81.847 Y79.619 E47.04372
G1 X81.255 Y79.967 E47.06631
G1 X82.865 Y81.577 E47.14122
G1 X82.149 Y81.801 E47.16590
G1 X81.255 Y80.907 E47.20751
G1 X81.255 Y81.847 E47.23844
G1 X81.535 Y82.127 E47.25147
G1 X86.546 Y79.619 F7800.000
G1 X120.381 Y113.454 F1080.000 E48.82604
G1 X120.381 Y112.514 E48.85697
G1 X87.486 Y79.619 E50.38780
G1 X88.426 Y79.619 E50.41872
G1 X120.381 Y111.574 E51.90582
G1 X120.381 Y110.634 E51.93675
G1 X89.366 Y79.619 E53.38010
G1 X90.306 Y79.619 E53.41103
G1 X120.381 Y109.694 E54.81065
G1 X120.381 Y108.755 E54.84157
G1 X91.245 Y79.619 E56.19745
G1 X92.185 Y79.619 E56.22838
G1 X120.381 Y107.815 E57.54052
G1 X120.381 Y106.875 E57.57145
G1 X93.125 Y79.619 E58.83985
G1 X94.065 Y79.619 E58.87078
G1 X120.381 Y105.935 E60.09545
G1 X120.381 Y104.995 E60.12637
G1 X95.005 Y79.619 E61.30730
G1 X95.945 Y79.619 E61.33823
G1 X120.381 Y104.055 E62.47542
G1 X120.381 Y103.115 E62.50635
G1 X96.885 Y79.619 E63.59980
G1 X97.824 Y79.619 E63.63073
G1 X120.381 Y102.176 E64.68044
G1 X120.381 Y101.236 E64.71137
G1 X98.764 Y79.619 E65.71735
G1 X99.704 Y79.619 E65.74827
G1 X120.381 Y100.296 E66.71051
G1 X120.381 Y99.356 E66.74144
G1 X100.644 Y79.619 E67.65994
G1 X101.584 Y79.619 E67.69087
G1 X120.381 Y98.416 E68.56563
G1 X120.381 Y97.476 E68.59656
G1 X102.524 Y79.619 E69.42759
G1 X103.464 Y79.619 E69.45851
G1 X120.381 Y96.536 E70.24580
G1 X120.381 Y95.597 E70.27673
G1 X104.403 Y79.619 E71.02028
G1 X105.343 Y79.619 E71.05120
G1 X120.381 Y94.657 E71.75102
G1 X120.381 Y93.717 E71.78194
G1 X106.283 Y79.619 E72.43802
G1 X107.223 Y79.619 E72.46894
G1 X120.381 Y92.777 E73.08128
G1 X120.381 Y91.837 E73.11221
G1 X108.163 Y79.619 E73.68081
G1 X109.103 Y79.619 E73.71173
G1 X120.381 Y90.897 E74.23659
G1 X120.381 Y89.957 E74.26752
G1 X110.043 Y79.619 E74.74864
G1 X110.982 Y79.619 E74.77957
G1 X120.381 Y89.018 E75.21696
G1 X120.381 Y88.078 E75.24788
G1 X111.922 Y79.619 E75.64153
G1 X112.862 Y79.619 E75.67246
G1 X120.381 Y87.138 E76.02237
G1 X120.381 Y86.198 E76.05329
G1 X113.802 Y79.619 E76.35946
G1 X114.742 Y79.619 E76.39039
G1 X120.381 Y85.258 E76.65282
G1 X120.381 Y84.318 E76.68375
G1 X115.682 Y79.619 E76.90245
G1 X116.621 Y79.619 E76.93337
G1 X120.381 Y83.379 E77.10833
G1 X120.381 Y82.439 E77.13926
G1 X117.561 Y79.619 E77.27048
G1 X118.501 Y79.619 E77.30141
G1 X120.381 Y81.499 E77.38889
G1 X120.381 Y80.559 E77.41981
G1 X119.441 Y79.619 E77.46356
G1 X120.381 Y79.619 E77.49449
G1 X87.765 Y107.154 F7800.000
G1 X81.255 Y100.644 F1080.000 E77.79746
G1 X81.255 Y101.584 E77.82839
G1 X86.127 Y106.455 E78.05510
G1 X85.002 Y106.271 E78.09258
G1 X81.255 Y102.524 E78.26697
G1 X81.255 Y103.463 E78.29790
G1 X84.093 Y106.302 E78.42998
G1 X83.266 Y106.414 E78.45745
G1 X81.255 Y104.403 E78.55104
G1 X81.255 Y105.343 E78.58197
G1 X82.531 Y106.619 E78.64133
G1 X81.874 Y106.902 E78.66486
G1 X81.255 Y106.283 E78.69365
G1 X81.259 Y107.227 E78.72472
G1 X79.933 Y114.825 F7800.000
G1 X79.933 Y114.054 F360.000 E78.74551
G1 X79.933 Y110.911 F7800.000
G1 X80.087 Y110.578 F360.000 E78.75178
G1 X79.933 Y110.424 E78.75551
G1 X80.242 Y110.245 E78.76160
G1 X79.933 Y89.901 F7800.000
G1 X79.933 Y89.146 F360.000 E78.78154
G1 X79.933 Y85.926 F7800.000
G1 X80.084 Y85.600 F360.000 E78.78756
G1 X79.933 Y85.448 E78.79113
G1 X80.235 Y85.273 E78.79697
G1 F1800.000 E77.79697
G92 E0
G1 Z0.750 F7800.000
G1 X80.821 Y85.288
G1 F1800.000 E1.00000
G1 X81.391 Y84.537 F1800.000 E1.02773
G1 X82.110 Y83.926 E1.05546
G1 X82.943 Y83.484 E1.08320
G1 X83.852 Y83.232 E1.11093
G1 X84.794 Y83.181 E1.13866
G1 X85.724 Y83.334 E1.16639
G1 X86.600 Y83.683 E1.19412
G1 X87.381 Y84.212 E1.22185
G1 X88.030 Y84.897 E1.24959
G1 X88.516 Y85.705 E1.27732
G1 X88.817 Y86.598 E1.30505
G1 X88.919 Y87.536 E1.33278
G1 X88.817 Y88.474 E1.36051
G1 X88.516 Y89.367 E1.38825
G1 X88.030 Y90.175 E1.41598
G1 X87.381 Y90.860 E1.44371
G1 X86.600 Y91.389 E1.47144
G1 X85.724 Y91.738 E1.49917
G1 X84.794 Y91.891 E1.52691
G1 X83.852 Y91.840 E1.55464
G1 X82.943 Y91.588 E1.58237
G1 X82.110 Y91.146 E1.61010
G1 X81.391 Y90.535 E1.63783
G1 X80.821 Y89.785 E1.66556
G1 X80.425 Y88.929 E1.69330
G1 X80.222 Y88.008 E1.72103
G1 X80.222 Y87.065 E1.74876
G1 X80.425 Y86.143 E1.77649
G1 X80.788 Y85.358 E1.80193
G1 X80.585 Y84.824 F7800.000
G1 F1800.000 E0.80193
G92 E0
G1 X83.873 Y108.175 F7800.000
G1 F1800.000 E1.00000
G1 X84.816 Y108.124 F1800.000 E1.02775
G1 X85.747 Y108.277 E1.05551
G1 X86.624 Y108.626 E1.08326
G1 X87.405 Y109.156 E1.11101
G1 X88.054 Y109.841 E1.13877
G1 X88.152 Y110.005 E1.14438
G1 X88.541 Y110.650 E1.16652
G1 X88.842 Y111.544 E1.19427
G1 X88.944 Y112.483 E1.22203
G1 X88.842 Y113.421 E1.24978
