; generated by Slic3r 0.9.10-dev on 2013-05-16 at 13:44:10

; layer_height = 0.2
; perimeters = 3
; top_solid_layers = 3
; bottom_solid_layers = 3
; fill_density = 0.35
; perimeter_speed = 70
; infill_speed = 100
; travel_speed = 175
; nozzle_diameter = 0.35
; filament_diameter = 3
; extrusion_multiplier = 1.18
; perimeters extrusion width = 0.52mm
; infill extrusion width = 0.52mm
; solid infill extrusion width = 0.52mm
; top infill extrusion width = 0.52mm
; first layer extrusion width = 0.35mm

G21 ; set units to millimeters
M107
M107
G28 ; home all axes
M104 S200
G1 X10 Y10 F2000
G1 Z0 F350
M109 S200
G90 ; use absolute coordinates
G92 E0
M82 ; use absolute distances for extrusion
G1 F1800.000 E-1.00000
G92 E0
G1 Z0.200 F10500.000
G1 X82.510 Y82.510
G1 F1800.000 E1.00000
G1 X83.580 Y81.640 F2100.000 E1.01611
G1 X84.800 Y80.990 E1.03227
G1 X86.120 Y80.590 E1.04839
G1 X87.500 Y80.450 E1.06459
G1 X92.500 Y80.450 E1.12302
G1 X93.880 Y80.590 E1.13923
G1 X95.200 Y80.990 E1.15535
G1 X96.420 Y81.640 E1.17150
G1 X97.490 Y82.520 E1.18769
G1 X117.480 Y102.520 E1.51812
G1 X118.350 Y103.580 E1.53415
G1 X119.000 Y104.800 E1.55030
G1 X119.400 Y106.130 E1.56653
G1 X119.540 Y107.500 E1.58262
G1 X119.540 Y112.500 E1.64105
G1 X119.400 Y113.880 E1.65726
G1 X119.000 Y115.200 E1.67338
G1 X118.350 Y116.420 E1.68953
G1 X117.480 Y117.490 E1.70565
G1 X116.410 Y118.360 E1.72176
G1 X115.190 Y119.010 E1.73792
G1 X113.870 Y119.410 E1.75403
G1 X112.490 Y119.550 E1.77024
G1 X87.500 Y119.550 E2.06226
G1 X86.120 Y119.410 E2.07847
G1 X84.800 Y119.010 E2.09459
G1 X83.580 Y118.360 E2.11074
G1 X82.510 Y117.490 E2.12686
G1 X81.640 Y116.420 E2.14297
G1 X80.990 Y115.200 E2.15913
G1 X80.590 Y113.880 E2.17524
G1 X80.450 Y112.500 E2.19145
G1 X80.450 Y87.500 E2.48359
G1 X80.590 Y86.120 E2.49980
G1 X80.990 Y84.800 E2.51592
G1 X81.640 Y83.580 E2.53207
G1 X82.477 Y82.551 E2.54757
G1 X82.760 Y82.760 F10500.000
G1 X83.780 Y81.930 F2100.000 E2.56294
G1 X84.940 Y81.310 E2.57831
G1 X86.190 Y80.930 E2.59357
G1 X87.500 Y80.800 E2.60896
G1 X92.500 Y80.800 E2.66739
G1 X93.810 Y80.930 E2.68277
G1 X95.060 Y81.310 E2.69804
G1 X96.220 Y81.930 E2.71341
G1 X97.240 Y82.760 E2.72877
G1 X117.230 Y102.760 E3.05921
G1 X118.060 Y103.780 E3.07457
G1 X118.680 Y104.940 E3.08994
G1 X119.060 Y106.190 E3.10521
G1 X119.190 Y107.500 E3.12059
G1 X119.190 Y112.500 E3.17902
G1 X119.060 Y113.810 E3.19440
G1 X118.680 Y115.060 E3.20967
G1 X118.060 Y116.220 E3.22504
G1 X117.230 Y117.240 E3.24041
G1 X116.210 Y118.070 E3.25577
G1 X115.050 Y118.690 E3.27114
G1 X113.800 Y119.070 E3.28641
G1 X112.490 Y119.200 E3.30179
G1 X87.500 Y119.200 E3.59381
G1 X86.190 Y119.070 E3.60920
G1 X84.940 Y118.690 E3.62446
G1 X83.780 Y118.070 E3.63983
G1 X82.760 Y117.240 E3.65520
G1 X81.930 Y116.220 E3.67057
G1 X81.310 Y115.060 E3.68594
G1 X80.930 Y113.810 E3.70121
G1 X80.800 Y112.500 E3.71659
G1 X80.800 Y87.500 E4.00873
G1 X80.930 Y86.190 E4.02411
G1 X81.310 Y84.940 E4.03938
G1 X81.930 Y83.780 E4.05475
G1 X82.727 Y82.801 E4.06950
G1 X83.010 Y83.010 F10500.000
G1 X83.970 Y82.220 F2100.000 E4.08403
G1 X85.070 Y81.630 E4.09861
G1 X86.260 Y81.270 E4.11314
G1 X87.500 Y81.150 E4.12770
G1 X92.500 Y81.150 E4.18613
G1 X93.740 Y81.270 E4.20068
G1 X94.930 Y81.630 E4.21521
G1 X96.030 Y82.220 E4.22980
G1 X96.990 Y83.010 E4.24433
G1 X116.980 Y103.010 E4.57476
G1 X117.770 Y103.970 E4.58929
G1 X118.360 Y105.070 E4.60388
G1 X118.720 Y106.260 E4.61840
G1 X118.840 Y107.500 E4.63296
G1 X118.840 Y112.500 E4.69139
G1 X118.720 Y113.740 E4.70595
G1 X118.360 Y114.930 E4.72047
G1 X117.770 Y116.030 E4.73506
G1 X116.980 Y116.990 E4.74959
G1 X116.020 Y117.780 E4.76412
G1 X114.920 Y118.370 E4.77870
G1 X113.730 Y118.730 E4.79323
G1 X112.490 Y118.850 E4.80779
G1 X87.500 Y118.850 E5.09981
G1 X86.260 Y118.730 E5.11437
G1 X85.070 Y118.370 E5.12890
G1 X83.970 Y117.780 E5.14348
G1 X83.010 Y116.990 E5.15801
G1 X82.220 Y116.030 E5.17254
G1 X81.630 Y114.930 E5.18713
G1 X81.270 Y113.740 E5.20165
G1 X81.150 Y112.500 E5.21621
G1 X81.150 Y87.500 E5.50835
G1 X81.270 Y86.260 E5.52291
G1 X81.630 Y85.070 E5.53743
G1 X82.220 Y83.970 E5.55202
G1 X82.977 Y83.051 E5.56594
G1 F1800.000 E4.56594
G92 E0
G1 X88.375 Y88.375 F10500.000
G1 F1800.000 E1.00000
G1 X91.625 Y88.375 F2100.000 E1.03798
G1 X91.625 Y93.375 E1.09641
G1 X96.625 Y93.375 E1.15483
G1 X96.625 Y98.375 E1.21326
G1 X101.625 Y98.375 E1.27169
G1 X101.625 Y103.375 E1.33012
G1 X106.625 Y103.375 E1.38854
G1 X106.625 Y108.375 E1.44697
G1 X111.625 Y108.375 E1.50540
G1 X111.625 Y111.625 E1.54338
G1 X103.375 Y111.625 E1.63978
G1 X103.375 Y106.625 E1.69821
G1 X91.625 Y106.625 E1.83551
G1 X91.625 Y111.625 E1.89394
G1 X88.375 Y111.625 E1.93192
G1 X88.375 Y88.427 E2.20299
G1 X88.025 Y88.025 F10500.000
G1 X91.975 Y88.025 F2100.000 E2.24915
G1 X91.975 Y93.025 E2.30758
G1 X96.975 Y93.025 E2.36601
G1 X96.975 Y98.025 E2.42443
G1 X101.975 Y98.025 E2.48286
G1 X101.975 Y103.025 E2.54129
G1 X106.975 Y103.025 E2.59972
G1 X106.975 Y108.025 E2.65814
G1 X111.975 Y108.025 E2.71657
G1 X111.975 Y111.975 E2.76273
G1 X103.025 Y111.975 E2.86732
G1 X103.025 Y106.975 E2.92574
G1 X91.975 Y106.975 E3.05487
G1 X91.975 Y111.975 E3.11330
G1 X88.025 Y111.975 E3.15945
G1 X88.025 Y88.077 E3.43871
G1 X87.675 Y87.675 F10500.000
G1 X92.325 Y87.675 F1200.000 E3.49304
G1 X92.325 Y92.675 E3.55147
G1 X97.325 Y92.675 E3.60990
G1 X97.325 Y97.675 E3.66833
G1 X102.325 Y97.675 E3.72676
G1 X102.325 Y102.675 E3.78518
G1 X107.325 Y102.675 E3.84361
G1 X107.325 Y107.675 E3.90204
G1 X112.325 Y107.675 E3.96047
G1 X112.325 Y112.325 E4.01480
G1 X102.675 Y112.325 E4.12757
G1 X102.675 Y107.325 E4.18600
G1 X92.325 Y107.325 E4.30694
G1 X92.325 Y112.325 E4.36537
G1 X87.675 Y112.325 E4.41971
G1 X87.675 Y87.727 E4.70714
G1 X87.978 Y87.850 F10500.000
G1 X91.371 Y88.649
G1 X91.351 Y88.629 F1800.000 E4.70747
G1 X90.856 Y88.629 E4.71326
G1 X91.371 Y89.144 E4.72177
G1 X91.371 Y89.639 E4.72755
G1 X90.361 Y88.629 E4.74425
G1 X89.866 Y88.629 E4.75003
G1 X91.371 Y90.134 E4.77491
G1 X91.371 Y90.629 E4.78070
G1 X89.371 Y88.629 E4.81376
G1 X88.876 Y88.629 E4.81954
G1 X91.371 Y91.124 E4.86078
G1 X91.371 Y91.619 E4.86657
G1 X88.629 Y88.876 E4.91190
G1 X88.629 Y89.371 E4.91769
G1 X91.371 Y92.114 E4.96302
G1 X91.371 Y92.609 E4.96881
G1 X88.629 Y89.866 E5.01414
G1 X88.629 Y90.361 E5.01993
G1 X91.371 Y93.104 E5.06526
G1 X91.371 Y93.599 F10500.000
G1 X88.629 Y90.856 F1800.000 E5.11059
G1 X88.629 Y91.351 E5.11638
G1 X108.649 Y111.371 E5.44727
G1 X108.154 Y111.371 E5.45306
G1 X103.629 Y106.846 E5.52785
G1 X103.154 Y106.371 F10500.000
G1 X88.629 Y91.846 F1800.000 E5.76792
G1 X88.629 Y92.342 E5.77371
G1 X102.658 Y106.371 E6.00560
G1 X102.163 Y106.371 E6.01138
G1 X88.629 Y92.837 E6.23509
G1 X88.629 Y93.332 E6.24088
G1 X101.668 Y106.371 E6.45640
G1 X101.173 Y106.371 E6.46219
G1 X88.629 Y93.827 E6.66953
G1 X88.629 Y94.322 E6.67532
G1 X100.678 Y106.371 E6.87448
G1 X100.183 Y106.371 E6.88026
G1 X88.629 Y94.817 E7.07124
G1 X88.629 Y95.312 E7.07703
G1 X99.688 Y106.371 E7.25982
G1 X99.193 Y106.371 E7.26561
G1 X88.629 Y95.807 E7.44022
G1 X88.629 Y96.302 E7.44601
G1 X98.698 Y106.371 E7.61244
G1 X98.203 Y106.371 E7.61822
G1 X88.629 Y96.797 E7.77647
G1 X88.629 Y97.292 E7.78226
G1 X97.708 Y106.371 E7.93232
G1 X97.213 Y106.371 E7.93811
G1 X88.629 Y97.787 E8.07999
G1 X88.629 Y98.282 E8.08578
G1 X96.718 Y106.371 E8.21948
G1 X96.223 Y106.371 E8.22527
G1 X88.629 Y98.777 E8.35079
G1 X88.629 Y99.272 E8.35657
G1 X95.728 Y106.371 E8.47391
G1 X95.233 Y106.371 E8.47970
G1 X88.629 Y99.767 E8.58885
G1 X88.629 Y100.262 E8.59464
G1 X94.738 Y106.371 E8.69561
G1 X94.243 Y106.371 E8.70140
G1 X88.629 Y100.757 E8.79419
G1 X88.629 Y101.252 E8.79997
G1 X93.748 Y106.371 E8.88458
G1 X93.253 Y106.371 E8.89037
G1 X88.629 Y101.747 E8.96679
G1 X88.629 Y102.242 E8.97258
G1 X92.758 Y106.371 E9.04082
G1 X92.262 Y106.371 E9.04661
G1 X88.629 Y102.738 E9.10667
G1 X88.629 Y103.233 E9.11245
G1 X91.767 Y106.371 E9.16433
G1 X91.371 Y106.470 E9.16910
G1 X88.629 Y103.728 E9.21444
G1 X88.629 Y104.223 E9.22022
G1 X91.371 Y106.965 E9.26555
G1 X91.371 Y107.460 E9.27134
G1 X88.629 Y104.718 E9.31667
G1 X88.629 Y105.213 E9.32246
G1 X91.371 Y107.956 E9.36779
G1 X91.371 Y108.451 E9.37358
G1 X88.629 Y105.708 E9.41891
G1 X88.629 Y106.203 E9.42470
G1 X91.371 Y108.946 E9.47003
G1 X91.371 Y109.441 E9.47581
G1 X88.629 Y106.698 E9.52115
G1 X88.629 Y107.193 E9.52693
G1 X91.371 Y109.936 E9.57227
G1 X91.371 Y110.431 E9.57805
G1 X88.629 Y107.688 E9.62339
G1 X88.629 Y108.183 E9.62917
G1 X91.371 Y110.926 E9.67450
G1 X91.322 Y111.371 E9.67974
G1 X88.629 Y108.678 E9.72426
G1 X88.629 Y109.173 E9.73004
G1 X90.827 Y111.371 E9.76638
G1 X90.332 Y111.371 E9.77216
G1 X88.629 Y109.668 E9.80031
G1 X88.629 Y110.163 E9.80610
G1 X89.837 Y111.371 E9.82606
G1 X89.342 Y111.371 E9.83185
G1 X88.629 Y110.658 E9.84364
G1 X88.629 Y111.153 E9.84942
G1 X88.847 Y111.371 E9.85302
G1 X88.000 Y112.000 F10500.000
G1 X92.000 Y107.000
G1 X102.000 Y103.000
G1 X101.371 Y103.599
G1 X96.401 Y98.629 F1800.000 E9.93518
G1 X96.371 Y98.599 F10500.000
G1 X91.401 Y93.629 F1800.000 E10.01733
G1 X96.371 Y93.649 F10500.000
G1 X96.351 Y93.629 F1800.000 E10.01766
G1 X95.856 Y93.629 E10.02345
G1 X96.371 Y94.144 E10.03196
G1 X96.371 Y94.639 E10.03775
G1 X95.361 Y93.629 E10.05444
G1 X94.866 Y93.629 E10.06023
G1 X96.371 Y95.134 E10.08510
G1 X96.371 Y95.629 E10.09089
G1 X94.371 Y93.629 E10.12395
G1 X93.876 Y93.629 E10.12973
G1 X96.371 Y96.124 E10.17098
G1 X96.371 Y96.619 E10.17676
G1 X93.381 Y93.629 E10.22618
G1 X92.886 Y93.629 E10.23197
G1 X96.371 Y97.114 E10.28958
G1 X96.371 Y97.609 E10.29536
G1 X92.391 Y93.629 E10.36115
G1 X91.896 Y93.629 E10.36694
G1 X96.371 Y98.104 E10.44091
G1 X101.371 Y98.649 F10500.000
G1 X101.351 Y98.629 F1800.000 E10.44124
G1 X100.856 Y98.629 E10.44702
G1 X101.371 Y99.144 E10.45554
G1 X101.371 Y99.639 E10.46132
G1 X100.361 Y98.629 E10.47802
G1 X99.866 Y98.629 E10.48380
G1 X101.371 Y100.134 E10.50868
G1 X101.371 Y100.629 E10.51447
G1 X99.371 Y98.629 E10.54752
G1 X98.876 Y98.629 E10.55331
G1 X101.371 Y101.124 E10.59455
G1 X101.371 Y101.619 E10.60034
G1 X98.381 Y98.629 E10.64976
G1 X97.886 Y98.629 E10.65555
G1 X101.371 Y102.114 E10.71315
G1 X101.371 Y102.609 E10.71894
G1 X97.391 Y98.629 E10.78473
G1 X96.896 Y98.629 E10.79051
G1 X101.371 Y103.104 E10.86448
G1 X101.401 Y103.629 F10500.000
G1 X106.371 Y108.599 F1800.000 E10.94664
G1 X106.401 Y108.629 F10500.000
G1 X109.144 Y111.371 F1800.000 E10.99197
G1 X109.639 Y111.371 E10.99776
G1 X106.896 Y108.629 E11.04309
G1 X107.391 Y108.629 E11.04888
G1 X110.134 Y111.371 E11.09421
G1 X110.629 Y111.371 E11.09999
G1 X107.886 Y108.629 E11.14533
G1 X108.381 Y108.629 E11.15111
G1 X111.124 Y111.371 E11.19645
G1 X111.371 Y111.124 E11.20054
G1 X108.876 Y108.629 E11.24178
G1 X109.371 Y108.629 E11.24756
G1 X111.371 Y110.629 E11.28062
G1 X111.371 Y110.134 E11.28641
G1 X109.866 Y108.629 E11.31129
G1 X110.361 Y108.629 E11.31707
G1 X111.371 Y109.639 E11.33377
G1 X111.371 Y109.144 E11.33955
G1 X110.856 Y108.629 E11.34806
G1 X111.351 Y108.629 E11.35385
G1 X111.371 Y108.649 E11.35418
G1 X107.658 Y111.371 F10500.000
G1 X103.629 Y107.341 F1800.000 E11.42079
G1 X103.629 Y107.837 E11.42657
G1 X107.163 Y111.371 E11.48500
G1 X106.668 Y111.371 E11.49078
G1 X103.629 Y108.332 E11.54103
G1 X103.629 Y108.827 E11.54681
G1 X106.173 Y111.371 E11.58887
G1 X105.678 Y111.371 E11.59466
G1 X103.629 Y109.322 E11.62853
G1 X103.629 Y109.817 E11.63432
G1 X105.183 Y111.371 E11.66002
G1 X104.688 Y111.371 E11.66580
G1 X103.629 Y110.312 E11.68331
G1 X103.629 Y110.807 E11.68910
G1 X104.193 Y111.371 E11.69843
G1 X103.698 Y111.371 E11.70422
G1 X103.629 Y111.302 E11.70537
G1 X106.371 Y108.104 F10500.000
G1 X101.896 Y103.629 F1800.000 E11.77934
G1 X102.391 Y103.629 E11.78512
G1 X106.371 Y107.609 E11.85091
G1 X106.371 Y107.114 E11.85670
G1 X102.886 Y103.629 E11.91430
G1 X103.381 Y103.629 E11.92009
G1 X106.371 Y106.619 E11.96951
G1 X106.371 Y106.124 E11.97530
G1 X103.876 Y103.629 E12.01654
G1 X104.371 Y103.629 E12.02233
G1 X106.371 Y105.629 E12.05538
G1 X106.371 Y105.134 E12.06117
G1 X104.866 Y103.629 E12.08605
G1 X105.361 Y103.629 E12.09183
G1 X106.371 Y104.639 E12.10853
G1 X106.371 Y104.144 E12.11431
G1 X105.856 Y103.629 E12.12283
G1 X106.351 Y103.629 E12.12861
G1 X106.371 Y103.649 E12.12894
M104 S200 ; set temperature
G1 F1800.000 E11.12894
G92 E0
G1 Z0.400 F10500.000
G1 X106.297 Y103.703
G1 F1800.000 E1.00000
G1 X106.297 Y108.703 F2107.475 E1.08031
G1 X111.297 Y108.703 E1.16061
G1 X111.297 Y111.297 E1.20229
G1 X103.703 Y111.297 E1.32426
G1 X103.703 Y106.297 E1.40457
G1 X91.297 Y106.297 E1.60381
G1 X91.297 Y111.297 E1.68412
G1 X88.703 Y111.297 E1.72579
G1 X88.703 Y88.703 E2.08869
G1 X91.297 Y88.703 E2.13036
G1 X91.297 Y93.703 E2.21067
G1 X96.297 Y93.703 E2.29097
G1 X96.297 Y98.703 E2.37128
G1 X101.297 Y98.703 E2.45158
G1 X101.297 Y103.703 E2.53189
G1 X106.225 Y103.703 E2.61104
G1 X106.778 Y103.222 F10500.000
G1 X106.778 Y108.222 F2107.475 E2.69134
G1 X111.778 Y108.222 E2.77165
G1 X111.778 Y111.778 E2.82877
G1 X103.222 Y111.778 E2.96621
G1 X103.222 Y106.778 E3.04651
G1 X91.778 Y106.778 E3.23030
G1 X91.778 Y111.778 E3.31061
G1 X88.222 Y111.778 E3.36773
G1 X88.222 Y88.222 E3.74608
G1 X91.778 Y88.222 E3.80321
G1 X91.778 Y93.222 E3.88352
G1 X96.778 Y93.222 E3.96382
G1 X96.778 Y98.222 E4.04413
G1 X101.778 Y98.222 E4.12443
G1 X101.778 Y103.222 E4.20474
G1 X106.706 Y103.222 E4.28388
G1 X107.259 Y102.741 F10500.000
G1 X107.259 Y107.741 F1204.272 E4.36419
G1 X112.259 Y107.741 E4.44450
G1 X112.259 Y112.259 E4.51707
G1 X102.741 Y112.259 E4.66996
G1 X102.741 Y107.259 E4.75027
G1 X92.259 Y107.259 E4.91860
G1 X92.259 Y112.259 E4.99891
G1 X87.741 Y112.259 E5.07149
G1 X87.741 Y87.741 E5.46529
G1 X92.259 Y87.741 E5.53787
G1 X92.259 Y92.741 E5.61817
G1 X97.259 Y92.741 E5.69848
G1 X97.259 Y97.741 E5.77878
G1 X102.259 Y97.741 E5.85909
G1 X102.259 Y102.741 E5.93940
G1 X107.187 Y102.741 E6.01854
G1 X107.019 Y103.157 F10500.000
G1 X107.000 Y103.000
G1 X107.000 Y108.000
G1 X112.000 Y112.000
G1 X110.949 Y110.627
G1 X110.627 Y110.949 F1806.407 E6.02591
G1 X109.942 Y110.949 E6.03698
G1 X110.949 Y109.942 E6.06001
G1 X110.949 Y109.257 E6.07109
G1 X109.257 Y110.949 E6.10978
G1 X108.572 Y110.949 E6.12085
G1 X110.469 Y109.051 E6.16424
G1 X109.784 Y109.051 E6.17532
G1 X107.887 Y110.949 E6.21871
G1 X107.202 Y110.949 E6.22978
G1 X109.099 Y109.051 E6.27318
G1 X108.414 Y109.051 E6.28425
G1 X106.517 Y110.949 E6.32764
G1 X105.832 Y110.949 E6.33872
G1 X107.730 Y109.051 E6.38211
G1 X107.045 Y109.051 E6.39318
G1 X105.147 Y110.949 E6.43657
G1 X104.462 Y110.949 E6.44765
G1 X106.360 Y109.051 E6.49104
G1 X105.949 Y108.777 E6.49902
G1 X104.051 Y110.675 E6.54241
G1 X104.051 Y109.990 E6.55349
G1 X105.949 Y108.092 E6.59688
G1 X105.949 Y107.407 E6.60796
G1 X104.051 Y109.305 E6.65135
G1 X104.051 Y108.620 E6.66242
G1 X105.949 Y106.723 E6.70581
G1 X105.949 Y106.038 E6.71689
G1 X104.051 Y107.935 E6.76028
G1 X104.051 Y107.250 E6.77135
G1 X105.949 Y105.353 E6.81474
G1 X105.949 Y104.668 E6.82582
G1 X104.051 Y106.565 E6.86921
G1 X103.983 Y105.949 E6.87924
G1 X105.880 Y104.051 E6.92263
G1 X105.195 Y104.051 E6.93370
G1 X103.298 Y105.949 E6.97709
G1 X102.613 Y105.949 E6.98817
G1 X104.510 Y104.051 E7.03156
G1 X103.825 Y104.051 E7.04263
G1 X101.928 Y105.949 E7.08602
G1 X101.243 Y105.949 E7.09710
G1 X103.140 Y104.051 E7.14049
G1 X102.456 Y104.051 E7.15156
G1 X100.558 Y105.949 E7.19496
G1 X99.873 Y105.949 E7.20603
G1 X101.771 Y104.051 E7.24942
G1 X101.086 Y104.051 E7.26050
G1 X99.188 Y105.949 E7.30389
G1 X98.503 Y105.949 E7.31496
G1 X100.949 Y103.503 E7.37088
G1 X100.949 Y102.818 E7.38196
G1 X97.818 Y105.949 E7.45354
G1 X97.133 Y105.949 E7.46462
G1 X100.949 Y102.133 E7.55186
G1 X100.949 Y101.449 E7.56294
G1 X96.449 Y105.949 E7.66585
G1 X95.764 Y105.949 E7.67692
G1 X100.949 Y100.764 E7.79550
G1 X100.949 Y100.079 E7.80657
G1 X95.079 Y105.949 E7.94081
G1 X94.394 Y105.949 E7.95188
G1 X100.949 Y99.394 E8.10178
G1 X100.606 Y99.051 E8.10961
G1 X93.709 Y105.949 E8.26734
G1 X93.024 Y105.949 E8.27842
G1 X99.921 Y99.051 E8.43615
G1 X99.236 Y99.051 E8.44722
G1 X92.339 Y105.949 E8.60495
G1 X91.654 Y105.949 E8.61603
G1 X98.551 Y99.051 E8.77376
