; generated by Slic3r 0.9.10-dev on 2013-05-20 at 13:15:57

; layer_height = 0.2
; perimeters = 3
; top_solid_layers = 3
; bottom_solid_layers = 3
; fill_density = .35
; perimeter_speed = 60
; infill_speed = 100
; travel_speed = 130
; nozzle_diameter = 0.35
; filament_diameter = 1.6383
; extrusion_multiplier = 1
; perimeters extrusion width = 0.52mm
; infill extrusion width = 0.52mm
; solid infill extrusion width = 0.52mm
; top infill extrusion width = 0.52mm
; first layer extrusion width = 0.70mm

G21 ; set units to millimeters
M107
M190 S80 ; wait for bed temperature to be reached
M104 S180 ; set temperature
G28 ; home all axes
G1 Z5 F5000 ; lift nozzle
M109 S180 ; wait for temperature to be reached
G90 ; use absolute coordinates
G92 E0
M82 ; use absolute distances for extrusion
G1 F2400.000 E-2.00000
G92 E0
G1 Z0.350 F7800.000
G1 X91.779 Y73.576
G1 F2400.000 E2.00000
G1 X92.349 Y72.926 F1080.000 E2.08970
G1 X93.059 Y72.266 E2.19027
G1 X93.819 Y71.726 E2.28700
G1 X94.859 Y71.146 E2.41055
G1 X95.699 Y70.806 E2.50457
G1 X96.599 Y70.556 E2.60148
G1 X97.839 Y70.366 E2.73163
G1 X98.849 Y70.356 E2.83643
G1 X99.819 Y70.456 E2.93760
G1 X100.759 Y70.656 E3.03731
G1 X101.499 Y70.906 E3.11835
G1 X102.509 Y71.356 E3.23307
G1 X103.179 Y71.756 E3.31402
G1 X103.489 Y71.966 E3.35287
G1 X104.409 Y72.706 E3.47537
G1 X105.109 Y73.426 E3.57956
G1 X105.559 Y73.996 E3.65490
G1 X106.109 Y74.836 E3.75907
G1 X106.409 Y75.406 E3.82590
G1 X106.539 Y75.686 E3.85793
G1 X106.929 Y76.746 E3.97512
G1 X113.609 Y101.636 E6.64888
G1 X113.829 Y102.516 E6.74299
G1 X113.969 Y103.196 E6.81502
G1 X114.169 Y104.636 E6.96585
G1 X114.919 Y114.086 E7.94939
G1 X114.959 Y114.896 E8.03353
G1 X114.959 Y115.526 E8.09889
G1 X114.849 Y116.636 E8.21462
G1 X114.659 Y117.606 E8.31717
G1 X114.349 Y118.626 E8.42778
G1 X113.899 Y119.706 E8.54917
G1 X113.459 Y120.516 E8.64481
G1 X113.289 Y120.786 E8.67791
G1 X112.569 Y121.746 E8.80241
G1 X111.799 Y122.546 E8.91761
G1 X110.879 Y123.276 E9.03946
G1 X107.069 Y125.836 E9.51570
G1 X106.169 Y126.356 E9.62354
G1 X105.419 Y126.716 E9.70986
G1 X104.459 Y127.036 E9.81484
G1 X103.689 Y127.196 E9.89644
G1 X102.909 Y127.286 E9.97790
G1 X102.539 Y127.306 E10.01635
G1 X97.669 Y127.306 E10.52162
G1 X96.969 Y127.266 E10.59436
G1 X96.129 Y127.156 E10.68226
G1 X95.499 Y127.006 E10.74945
G1 X94.589 Y126.706 E10.84886
G1 X93.919 Y126.396 E10.92545
G1 X93.009 Y125.866 E11.03471
G1 X89.169 Y123.266 E11.51585
G1 X88.469 Y122.736 E11.60695
G1 X87.629 Y121.946 E11.72658
G1 X87.099 Y121.276 E11.81522
G1 X86.799 Y120.856 E11.86877
G1 X86.419 Y120.266 E11.94158
G1 X86.099 Y119.646 E12.01397
G1 X85.899 Y119.206 E12.06411
G1 X85.639 Y118.556 E12.13675
G1 X85.339 Y117.586 E12.24209
G1 X85.209 Y116.956 E12.30883
G1 X85.129 Y116.436 E12.36341
G1 X85.049 Y115.336 E12.47784
G1 X85.069 Y114.266 E12.58888
G1 X85.809 Y104.806 E13.57336
G1 X85.879 Y104.136 E13.64326
G1 X89.969 Y77.696 E16.41907
G1 X90.249 Y76.516 E16.54490
G1 X90.379 Y76.126 E16.58755
G1 X90.779 Y75.176 E16.69450
G1 X91.249 Y74.316 E16.79618
G1 X91.721 Y73.650 E16.88090
G1 X92.159 Y74.106 F7800.000
G1 X92.799 Y73.376 F1080.000 E16.98162
G1 X93.459 Y72.756 E17.07557
G1 X94.169 Y72.246 E17.16627
G1 X95.119 Y71.716 E17.27914
G1 X95.899 Y71.396 E17.36661
G1 X96.739 Y71.166 E17.45697
G1 X97.879 Y70.996 E17.57655
G1 X98.819 Y70.986 E17.67409
G1 X99.719 Y71.076 E17.76793
G1 X100.599 Y71.256 E17.86112
G1 X101.569 Y71.606 E17.96811
G1 X102.219 Y71.906 E18.04238
G1 X103.139 Y72.486 E18.15522
G1 X103.979 Y73.166 E18.26735
G1 X104.639 Y73.836 E18.36493
G1 X105.049 Y74.356 E18.43363
G1 X105.569 Y75.146 E18.53176
G1 X105.839 Y75.666 E18.59254
G1 X105.969 Y75.946 E18.62457
G1 X106.329 Y76.916 E18.73192
G1 X113.039 Y101.906 E21.41651
G1 X113.229 Y102.666 E21.49779
G1 X113.349 Y103.286 E21.56331
G1 X113.489 Y104.216 E21.66088
G1 X113.539 Y104.686 E21.70992
G1 X114.309 Y114.326 E22.71327
G1 X114.339 Y114.926 E22.77560
G1 X114.339 Y115.506 E22.83577
G1 X114.229 Y116.556 E22.94531
G1 X114.059 Y117.446 E23.03932
G1 X113.979 Y117.746 E23.07153
G1 X113.769 Y118.406 E23.14339
G1 X113.639 Y118.746 E23.18116
G1 X113.329 Y119.446 E23.26059
G1 X112.929 Y120.186 E23.34786
G1 X112.759 Y120.456 E23.38096
G1 X112.239 Y121.166 E23.47227
G1 X112.089 Y121.346 E23.49658
G1 X111.369 Y122.086 E23.60370
G1 X110.529 Y122.756 E23.71518
G1 X106.719 Y125.316 E24.19142
G1 X106.199 Y125.636 E24.25476
G1 X105.869 Y125.816 E24.29376
G1 X105.189 Y126.136 E24.37174
G1 X104.469 Y126.376 E24.45048
G1 X103.589 Y126.586 E24.54434
G1 X102.879 Y126.666 E24.61847
G1 X102.509 Y126.686 E24.65692
G1 X97.679 Y126.676 E25.15804
G1 X97.029 Y126.646 E25.22555
G1 X96.249 Y126.546 E25.30714
G1 X95.669 Y126.406 E25.36904
G1 X94.819 Y126.126 E25.46189
G1 X94.209 Y125.846 E25.53153
G1 X93.359 Y125.356 E25.63332
G1 X89.519 Y122.756 E26.11446
G1 X88.879 Y122.266 E26.19809
G1 X88.649 Y122.066 E26.22971
G1 X88.099 Y121.526 E26.30968
G1 X87.609 Y120.916 E26.39086
G1 X87.309 Y120.496 E26.44441
G1 X86.959 Y119.956 E26.51117
G1 X86.669 Y119.386 E26.57753
G1 X86.229 Y118.356 E26.69373
G1 X86.109 Y118.006 E26.73212
G1 X85.949 Y117.436 E26.79355
G1 X85.829 Y116.866 E26.85398
G1 X85.749 Y116.346 E26.90857
G1 X85.679 Y115.336 E27.01361
G1 X85.699 Y114.316 E27.11945
G1 X86.449 Y104.676 E28.12264
G1 X86.539 Y103.896 E28.20410
G1 X90.579 Y77.796 E30.94427
G1 X90.849 Y76.716 E31.05977
G1 X90.979 Y76.326 E31.10242
G1 X91.329 Y75.456 E31.19971
G1 X91.769 Y74.646 E31.29535
G1 X92.104 Y74.182 E31.35473
G1 F2400.000 E29.35473
G92 E0
G1 X99.183 Y104.111 F7800.000
G1 F2400.000 E2.00000
G1 X99.386 Y104.097 F270.000 E2.02114
G1 X99.650 Y104.038 E2.04925
G1 X99.823 Y104.034 E2.06715
G1 X100.573 Y104.039 E2.14498
G1 X100.848 Y104.098 E2.17422
G1 X101.062 Y104.112 E2.19641
G1 X101.624 Y104.266 E2.25690
G1 X102.097 Y104.448 E2.30950
G1 X102.586 Y104.698 E2.36643
G1 X102.843 Y104.869 E2.39843
G1 X103.153 Y105.098 E2.43847
G1 X103.603 Y105.537 E2.50366
G1 X103.852 Y105.798 E2.54110
G1 X104.074 Y106.095 E2.57954
G1 X104.314 Y106.481 E2.62674
G1 X104.527 Y106.923 E2.67769
G1 X104.758 Y107.593 E2.75113
G1 X104.841 Y107.953 E2.78954
G1 X104.851 Y108.170 E2.81206
G1 X104.897 Y108.326 E2.82895
G1 X104.911 Y108.474 E2.84433
G1 X104.917 Y108.984 E2.89729
G1 X104.910 Y109.149 E2.91443
G1 X104.850 Y109.399 E2.94109
G1 X104.830 Y109.677 E2.96997
G1 X104.758 Y109.986 E3.00292
G1 X104.604 Y110.471 E3.05567
G1 X104.457 Y110.800 E3.09308
G1 X104.176 Y111.337 E3.15598
G1 X103.960 Y111.655 E3.19582
G1 X103.587 Y112.099 E3.25600
G1 X103.267 Y112.392 E3.30104
G1 X102.989 Y112.614 E3.33791
G1 X102.432 Y112.977 E3.40692
G1 X102.138 Y113.122 E3.44096
G1 X101.716 Y113.291 E3.48810
G1 X101.198 Y113.447 E3.54425
G1 X101.009 Y113.466 E3.56391
G1 X100.709 Y113.530 E3.59572
G1 X99.577 Y113.530 E3.71322
G1 X99.409 Y113.507 E3.73078
G1 X99.283 Y113.464 E3.74457
G1 X99.109 Y113.447 E3.76269
G1 X98.779 Y113.364 E3.79804
G1 X98.383 Y113.215 E3.84196
G1 X98.056 Y113.067 E3.87922
G1 X97.563 Y112.800 E3.93729
G1 X97.128 Y112.483 E3.99321
G1 X96.399 Y111.737 E4.10136
G1 X96.114 Y111.322 E4.15363
G1 X95.876 Y110.900 E4.20393
G1 X95.663 Y110.418 E4.25853
G1 X95.502 Y109.879 E4.31694
G1 X95.442 Y109.579 E4.34863
G1 X95.416 Y109.096 E4.39883
G1 X95.370 Y108.828 E4.42712
G1 X95.377 Y108.662 E4.44428
G1 X95.413 Y108.493 E4.46223
G1 X95.433 Y108.039 E4.50937
G1 X95.484 Y107.866 E4.52807
G1 X95.505 Y107.687 E4.54679
G1 X95.650 Y107.200 E4.59949
G1 X95.868 Y106.657 E4.66024
G1 X96.173 Y106.129 E4.72343
G1 X96.356 Y105.867 E4.75665
G1 X96.710 Y105.440 E4.81415
G1 X97.224 Y104.992 E4.88487
G1 X97.534 Y104.776 E4.92410
G1 X97.933 Y104.552 E4.97162
G1 X98.400 Y104.340 E5.02487
G1 X98.851 Y104.195 E5.07394
G1 X99.093 Y104.137 E5.09975
G1 X99.306 Y104.273 F7800.000
G1 F2400.000 E3.09975
G92 E0
G1 X94.559 Y111.120 F7800.000
G1 F2400.000 E2.00000
G1 X95.053 Y111.984 F270.000 E2.10328
G1 X95.513 Y112.632 E2.18573
G1 X96.201 Y113.329 E2.28731
G1 X96.508 Y113.586 E2.32891
G1 X96.881 Y113.850 E2.37631
G1 X97.508 Y114.191 E2.45038
G1 X97.905 Y114.371 E2.49555
G1 X98.427 Y114.569 E2.55352
G1 X98.640 Y114.610 E2.57597
G1 X98.854 Y114.678 E2.59931
G1 X99.512 Y114.780 E2.66832
G1 X100.766 Y114.780 E2.79851
G1 X101.480 Y114.673 E2.87338
G1 X102.137 Y114.468 E2.94480
G1 X102.647 Y114.264 E3.00175
G1 X103.045 Y114.068 E3.04785
G1 X103.737 Y113.617 E3.13352
G1 X104.065 Y113.356 E3.17703
G1 X104.482 Y112.975 E3.23558
G1 X104.948 Y112.428 E3.31012
G1 X105.557 Y111.564 E3.41984
G1 X105.858 Y113.482 E3.62134
G1 X106.100 Y114.567 E3.73660
G1 X106.149 Y114.872 E3.76870
G1 X106.161 Y115.191 E3.80177
G1 X106.147 Y115.323 E3.81563
G1 X106.011 Y115.884 E3.87549
G1 X105.275 Y115.471 E3.96305
G1 X105.089 Y115.382 E3.98447
G1 X104.739 Y115.272 E4.02256
G1 X104.175 Y115.227 E4.08120
G1 X103.735 Y115.320 E4.12786
G1 X103.380 Y115.457 E4.16735
G1 X103.186 Y115.576 E4.19094
G1 X102.825 Y115.867 E4.23905
G1 X102.566 Y116.160 E4.27965
G1 X102.403 Y116.423 E4.31174
G1 X102.235 Y116.773 E4.35207
G1 X102.148 Y117.004 E4.37767
G1 X101.894 Y117.888 E4.47302
G1 X101.509 Y117.311 E4.54502
G1 X101.220 Y116.966 E4.59163
G1 X100.876 Y116.679 E4.63813
G1 X100.571 Y116.592 E4.67106
G1 X100.270 Y116.473 E4.70462
G1 X99.509 Y116.534 E4.78386
G1 X99.049 Y116.761 E4.83709
G1 X98.683 Y117.092 E4.88826
G1 X98.538 Y117.257 E4.91107
G1 X98.109 Y117.970 E4.99742
G1 X97.856 Y116.995 E5.10203
G1 X97.684 Y116.579 E5.14873
G1 X97.538 Y116.304 E5.18101
G1 X97.349 Y116.053 E5.21364
G1 X97.084 Y115.774 E5.25354
G1 X96.748 Y115.534 E5.29633
G1 X96.521 Y115.424 E5.32254
G1 X96.103 Y115.278 E5.36847
G1 X95.701 Y115.236 E5.41046
G1 X95.370 Y115.272 E5.44495
G1 X94.984 Y115.367 E5.48622
G1 X94.605 Y115.519 E5.52858
G1 X93.978 Y115.854 E5.60233
G1 X93.861 Y115.214 E5.66976
G1 X93.886 Y114.738 E5.71928
G1 X94.152 Y113.449 E5.85583
G1 X94.351 Y112.189 E5.98818
G1 X94.541 Y111.212 E6.09144
G1 X93.957 Y111.096 F7800.000
G1 X94.241 Y109.946 F1080.000 E6.21432
G1 X94.384 Y109.090 E6.30437
G1 X94.718 Y109.085 E6.33911
G1 X94.887 Y110.011 E6.43674
G1 X95.075 Y110.632 E6.50414
G1 X95.316 Y111.179 E6.56613
G1 X95.583 Y111.653 E6.62256
G1 X95.985 Y112.221 E6.69473
G1 X96.723 Y112.960 E6.80315
G1 X97.222 Y113.325 E6.86726
G1 X97.539 Y113.502 E6.90492
G1 X98.144 Y113.793 E6.97453
G1 X98.603 Y113.966 E7.02547
G1 X98.982 Y114.063 E7.06600
G1 X99.544 Y114.155 E7.12513
G1 X100.738 Y114.155 E7.24898
G1 X100.886 Y114.140 E7.26445
G1 X101.133 Y114.082 E7.29073
G1 X101.339 Y114.060 E7.31223
G1 X101.616 Y113.978 E7.34218
G1 X101.927 Y113.879 E7.37602
G1 X102.392 Y113.693 E7.42807
G1 X102.739 Y113.522 E7.46814
G1 X103.092 Y113.299 E7.51146
G1 X103.363 Y113.115 E7.54548
G1 X103.666 Y112.874 E7.58568
G1 X104.130 Y112.428 E7.65245
G1 X104.454 Y112.042 E7.70476
G1 X104.699 Y111.680 E7.75009
G1 X105.118 Y110.862 E7.84543
G1 X105.501 Y109.766 E7.96583
G1 X105.700 Y109.773 E7.98648
G1 X106.211 Y111.760 E8.19928
G1 X106.473 Y113.371 E8.36867
G1 X106.718 Y114.474 E8.48589
G1 X106.770 Y114.797 E8.51987
G1 X106.787 Y115.219 E8.56363
G1 X106.740 Y115.559 E8.59932
G1 X106.688 Y115.760 E8.62081
G1 X106.502 Y116.208 E8.67115
G1 X106.391 Y116.383 E8.69266
G1 X106.235 Y116.568 E8.71776
G1 X106.025 Y116.530 E8.73999
G1 X105.789 Y116.452 E8.76577
G1 X105.004 Y116.034 E8.85804
G1 X104.868 Y115.969 E8.87369
G1 X104.606 Y115.887 E8.90210
G1 X104.219 Y115.856 E8.94244
G1 X103.914 Y115.921 E8.97479
G1 X103.672 Y116.014 E9.00168
G1 X103.350 Y116.236 E9.04224
G1 X103.073 Y116.529 E9.08406
G1 X102.864 Y116.898 E9.12810
G1 X102.743 Y117.200 E9.16181
G1 X102.632 Y117.669 E9.21183
G1 X102.593 Y117.993 E9.24562
G1 X102.589 Y118.988 E9.34894
G1 X102.370 Y119.123 E9.37567
G1 X102.182 Y119.129 E9.39516
G1 X101.952 Y119.075 E9.41966
G1 X101.669 Y118.866 E9.45611
G1 X101.516 Y118.679 E9.48124
G1 X101.069 Y117.777 E9.58569
G1 X100.912 Y117.558 E9.61366
G1 X100.800 Y117.433 E9.63105
G1 X100.566 Y117.240 E9.66248
G1 X100.176 Y117.107 E9.70528
G1 X99.690 Y117.146 E9.75583
G1 X99.384 Y117.298 E9.79132
G1 X99.045 Y117.627 E9.84034
G1 X98.901 Y117.851 E9.86797
G1 X98.734 Y118.214 E9.90936
G1 X98.486 Y118.674 E9.96360
G1 X98.385 Y118.811 E9.98121
G1 X98.179 Y118.986 E10.00937
G1 X98.034 Y119.082 E10.02731
G1 X97.832 Y119.120 E10.04861
G1 X97.651 Y119.114 E10.06746
G1 X97.418 Y118.965 E10.09619
G1 X97.402 Y117.918 E10.20488
G1 X97.327 Y117.451 E10.25397
G1 X97.260 Y117.190 E10.28189
G1 X97.127 Y116.865 E10.31836
G1 X97.009 Y116.642 E10.34454
G1 X96.867 Y116.454 E10.36900
G1 X96.673 Y116.249 E10.39827
G1 X96.425 Y116.072 E10.42989
G1 X96.280 Y116.002 E10.44654
G1 X95.984 Y115.898 E10.47914
G1 X95.694 Y115.868 E10.50940
G1 X95.456 Y115.893 E10.53419
G1 X95.175 Y115.963 E10.56420
G1 X94.875 Y116.084 E10.59785
G1 X94.187 Y116.433 E10.67785
G1 X93.781 Y116.547 E10.72158
G1 X93.580 Y116.287 E10.75568
G1 X93.483 Y116.119 E10.77576
G1 X93.371 Y115.861 E10.80494
G1 X93.295 Y115.616 E10.83164
G1 X93.238 Y115.261 E10.86891
G1 X93.239 Y114.905 E10.90586
G1 X93.320 Y114.351 E10.96389
G1 X93.536 Y113.340 E11.07123
G1 X93.770 Y111.890 E11.22357
G1 X93.934 Y111.187 E11.29850
G1 F2400.000 E9.29850
G92 E0
G1 X98.375 Y111.804 F7800.000
G1 F2400.000 E2.00000
G1 X98.726 Y111.657 F270.000 E2.03954
G1 X98.903 Y111.524 E2.06248
G1 X99.044 Y111.342 E2.08637
G1 X99.212 Y110.875 E2.13788
G1 X99.307 Y110.879 E2.14776
G1 X99.399 Y111.232 E2.18564
G1 X99.515 Y111.449 E2.21114
G1 X99.654 Y111.581 E2.23108
G1 X99.862 Y111.689 E2.25534
G1 X100.056 Y111.726 E2.27585
G1 X100.228 Y111.728 E2.29373
G1 X100.324 Y111.725 E2.30365
G1 X100.499 Y111.679 E2.32239
G1 X100.693 Y111.574 E2.34539
G1 X100.822 Y111.457 E2.36346
G1 X100.929 Y111.283 E2.38462
G1 X101.075 Y110.859 E2.43115
G1 X101.161 Y110.860 E2.44005
G1 X101.284 Y111.258 E2.48333
G1 X101.419 Y111.441 E2.50685
G1 X101.577 Y111.573 E2.52824
G1 X101.997 Y111.808 E2.57815
G1 X101.266 Y112.100 E2.65985
G1 X101.005 Y112.183 E2.68830
G1 X100.728 Y112.247 E2.71778
G1 X100.156 Y112.267 E2.77714
G1 X99.582 Y112.249 E2.83669
G1 X99.287 Y112.182 E2.86808
G1 X98.870 Y112.050 E2.91350
G1 X98.458 Y111.847 E2.96116
G1 X97.410 Y110.833 F7800.000
G1 X97.309 Y110.858 F270.000 E2.97200
G1 X97.127 Y110.546 E3.00946
G1 X96.899 Y110.089 E3.06251
G1 X96.698 Y109.416 E3.13541
G1 X96.693 Y109.147 E3.16331
G1 X96.631 Y108.870 E3.19273
G1 X96.635 Y108.673 E3.21320
G1 X96.693 Y108.431 E3.23895
G1 X96.698 Y108.166 E3.26644
G1 X96.830 Y107.676 E3.31918
G1 X97.026 Y107.201 E3.37245
G1 X97.300 Y106.693 E3.43227
G1 X97.419 Y106.723 E3.44505
G1 X97.427 Y110.357 E3.82203
G1 X97.413 Y110.739 E3.86176
G1 F2400.000 E1.86176
G92 E0
G1 X102.913 Y110.762 F7800.000
G1 F2400.000 E2.00000
G1 X102.911 Y110.075 F270.000 E2.07127
G1 X102.849 Y108.936 E2.18959
G1 X102.847 Y106.723 E2.41920
G1 X102.945 Y106.694 E2.42976
G1 X103.296 Y107.270 E2.49974
G1 X103.401 Y107.534 E2.52917
G1 X103.567 Y108.063 E2.58673
G1 X103.584 Y108.261 E2.60728
G1 X103.634 Y108.434 E2.62598
G1 X103.633 Y109.151 E2.70036
G1 X103.501 Y109.769 E2.76593
G1 X103.361 Y110.165 E2.80956
G1 X103.235 Y110.428 E2.83979
G1 X103.023 Y110.791 E2.88343
G1 X103.004 Y110.786 E2.88557
G1 F2400.000 E0.88557
G92 E0
G1 X105.226 Y105.439 F7800.000
G1 F2400.000 E2.00000
G1 X104.490 Y104.657 F270.000 E2.11135
G1 X104.091 Y104.259 E2.16987
G1 X103.856 Y104.054 E2.20226
G1 X103.207 Y103.611 E2.28372
G1 X102.611 Y103.307 E2.35319
G1 X102.007 Y103.076 E2.42027
G1 X101.303 Y102.876 E2.49618
G1 X101.066 Y102.860 E2.52084
G1 X100.666 Y102.790 E2.56297
G1 X99.557 Y102.790 E2.67800
G1 X99.174 Y102.859 E2.71845
G1 X98.961 Y102.874 E2.74056
G1 X98.519 Y102.988 E2.78793
G1 X97.950 Y103.171 E2.84992
G1 X97.372 Y103.434 E2.91583
G1 X96.867 Y103.718 E2.97595
G1 X96.439 Y104.016 E3.03005
G1 X95.999 Y104.388 E3.08984
G1 X95.782 Y104.600 E3.12128
G1 X95.364 Y105.105 E3.18933
G1 X94.796 Y105.917 E3.29211
G1 X94.568 Y105.832 E3.31739
G1 X94.658 Y105.016 E3.40253
G1 X94.801 Y104.245 E3.48393
G1 X94.928 Y103.780 E3.53390
G1 X95.055 Y103.409 E3.57455
G1 X95.366 Y102.660 E3.65874
G1 X95.546 Y102.356 E3.69535
G1 X95.715 Y102.138 E3.72392
G1 X96.418 Y101.369 E3.83205
G1 X96.697 Y101.034 E3.87735
G1 X96.962 Y100.665 E3.92449
G1 X97.407 Y99.913 E4.01511
