; generated by Slic3r 0.9.10-dev on 2013-05-16 at 12:33:35

; layer_height = 0.2
; perimeters = 3
; top_solid_layers = 3
; bottom_solid_layers = 3
; fill_density = 0.35
; perimeter_speed = 70
; infill_speed = 100
; travel_speed = 175
; nozzle_diameter = 0.35
; filament_diameter = 3
; extrusion_multiplier = 1.18
; perimeters extrusion width = 0.52mm
; infill extrusion width = 0.52mm
; solid infill extrusion width = 0.52mm
; top infill extrusion width = 0.52mm
; first layer extrusion width = 0.35mm

G21 ; set units to millimeters
M107
M107
G28 ; home all axes
M104 S200
G1 X10 Y10 F2000
G1 Z0 F350
M109 S200
G90 ; use absolute coordinates
G92 E0
M82 ; use absolute distances for extrusion
G1 F1800.000 E-1.00000
G92 E0
G1 Z0.200 F10500.000
G1 X91.929 Y73.736
G1 F1800.000 E1.00000
G1 X92.629 Y72.956 F2100.000 E1.01225
G1 X93.349 Y72.336 E1.02335
G1 X94.159 Y71.766 E1.03492
G1 X94.809 Y71.416 E1.04355
G1 X95.719 Y71.036 E1.05507
G1 X96.469 Y70.816 E1.06421
G1 X96.779 Y70.746 E1.06792
G1 X97.789 Y70.596 E1.07985
G1 X98.599 Y70.566 E1.08933
G1 X99.619 Y70.656 E1.10129
G1 X100.419 Y70.796 E1.11078
G1 X101.189 Y71.026 E1.12017
G1 X102.109 Y71.396 E1.13176
G1 X102.739 Y71.746 E1.14018
G1 X103.549 Y72.276 E1.15149
G1 X104.049 Y72.686 E1.15905
G1 X104.379 Y72.986 E1.16426
G1 X105.039 Y73.666 E1.17533
G1 X105.599 Y74.436 E1.18646
G1 X105.789 Y74.736 E1.19061
G1 X106.199 Y75.476 E1.20049
G1 X106.549 Y76.286 E1.21081
G1 X106.849 Y77.206 E1.22211
G1 X113.579 Y102.536 E1.52838
G1 X113.709 Y103.196 E1.53624
G1 X113.909 Y104.586 E1.55265
G1 X114.709 Y114.076 E1.66394
G1 X114.749 Y114.886 E1.67341
G1 X114.719 Y115.996 E1.68639
G1 X114.579 Y116.966 E1.69784
G1 X114.479 Y117.446 E1.70357
G1 X114.249 Y118.286 E1.71375
G1 X114.109 Y118.696 E1.71881
G1 X113.749 Y119.566 E1.72981
G1 X113.609 Y119.846 E1.73347
G1 X113.129 Y120.676 E1.74468
G1 X112.419 Y121.616 E1.75844
G1 X112.259 Y121.796 E1.76126
G1 X111.499 Y122.536 E1.77365
G1 X111.319 Y122.686 E1.77639
G1 X110.769 Y123.096 E1.78440
G1 X107.019 Y125.646 E1.83740
G1 X106.559 Y125.936 E1.84375
G1 X105.689 Y126.396 E1.85525
G1 X105.089 Y126.636 E1.86280
G1 X104.829 Y126.726 E1.86602
G1 X103.879 Y126.986 E1.87753
G1 X102.909 Y127.106 E1.88895
G1 X102.139 Y127.136 E1.89795
G1 X97.639 Y127.126 E1.95054
G1 X96.539 Y127.036 E1.96344
G1 X95.659 Y126.866 E1.97391
G1 X94.659 Y126.546 E1.98618
G1 X93.879 Y126.186 E1.99622
G1 X93.039 Y125.686 E2.00764
G1 X89.279 Y123.096 E2.06099
G1 X88.859 Y122.786 E2.06709
G1 X88.059 Y122.106 E2.07936
G1 X87.929 Y121.976 E2.08151
G1 X87.169 Y121.066 E2.09536
G1 X86.999 Y120.826 E2.09880
G1 X86.539 Y120.086 E2.10898
G1 X86.399 Y119.826 E2.11243
G1 X86.009 Y118.976 E2.12336
G1 X85.709 Y118.136 E2.13379
G1 X85.599 Y117.746 E2.13852
G1 X85.439 Y117.026 E2.14714
G1 X85.369 Y116.616 E2.15200
G1 X85.269 Y115.566 E2.16432
G1 X85.259 Y115.076 E2.17005
G1 X85.279 Y114.346 E2.17859
G1 X86.079 Y104.826 E2.29022
G1 X86.189 Y103.806 E2.30221
G1 X90.159 Y77.826 E2.60933
G1 X90.379 Y76.846 E2.62106
G1 X90.689 Y75.896 E2.63274
G1 X90.949 Y75.296 E2.64038
G1 X91.269 Y74.726 E2.64802
G1 X91.459 Y74.416 E2.65227
G1 X91.899 Y73.779 E2.66131
G1 X92.209 Y73.946 F10500.000
G1 X92.879 Y73.206 F2100.000 E2.67298
G1 X93.559 Y72.616 E2.68350
G1 X94.349 Y72.066 E2.69475
G1 X94.959 Y71.726 E2.70291
G1 X95.829 Y71.366 E2.71391
G1 X96.539 Y71.156 E2.72256
G1 X96.849 Y71.086 E2.72628
G1 X97.819 Y70.946 E2.73773
G1 X98.599 Y70.916 E2.74685
G1 X99.579 Y71.006 E2.75835
G1 X100.339 Y71.136 E2.76736
G1 X101.069 Y71.356 E2.77627
G1 X101.959 Y71.706 E2.78745
G1 X102.559 Y72.036 E2.79545
G1 X103.339 Y72.546 E2.80634
G1 X104.149 Y73.246 E2.81885
G1 X104.769 Y73.896 E2.82934
G1 X105.299 Y74.626 E2.83989
G1 X105.489 Y74.926 E2.84404
G1 X105.879 Y75.626 E2.85340
G1 X106.219 Y76.406 E2.86334
G1 X106.509 Y77.296 E2.87428
G1 X113.239 Y102.626 E3.18054
G1 X113.369 Y103.246 E3.18795
G1 X113.559 Y104.616 E3.20411
G1 X114.359 Y114.106 E3.31540
G1 X114.399 Y114.896 E3.32464
G1 X114.369 Y115.956 E3.33703
G1 X114.239 Y116.896 E3.34812
G1 X114.139 Y117.376 E3.35385
G1 X113.919 Y118.176 E3.36355
G1 X113.779 Y118.586 E3.36861
G1 X113.429 Y119.416 E3.37914
G1 X113.289 Y119.696 E3.38279
G1 X112.829 Y120.486 E3.39348
G1 X112.159 Y121.386 E3.40659
G1 X111.999 Y121.566 E3.40940
G1 X111.279 Y122.266 E3.42114
G1 X111.099 Y122.416 E3.42387
G1 X110.579 Y122.806 E3.43147
G1 X106.829 Y125.356 E3.48446
G1 X106.379 Y125.636 E3.49065
G1 X105.549 Y126.076 E3.50163
G1 X104.969 Y126.306 E3.50892
G1 X104.709 Y126.396 E3.51214
G1 X103.809 Y126.636 E3.52302
G1 X102.889 Y126.756 E3.53386
G1 X102.139 Y126.786 E3.54264
G1 X97.639 Y126.776 E3.59522
G1 X96.599 Y126.696 E3.60741
G1 X95.549 Y126.476 E3.61995
G1 X94.789 Y126.226 E3.62929
G1 X94.049 Y125.876 E3.63886
G1 X93.239 Y125.396 E3.64986
G1 X89.479 Y122.806 E3.70322
G1 X89.069 Y122.506 E3.70915
G1 X88.179 Y121.726 E3.72298
G1 X87.449 Y120.856 E3.73625
G1 X87.279 Y120.616 E3.73969
G1 X86.849 Y119.926 E3.74919
G1 X86.709 Y119.666 E3.75264
G1 X86.329 Y118.836 E3.76331
G1 X86.049 Y118.046 E3.77310
G1 X85.939 Y117.656 E3.77784
G1 X85.719 Y116.556 E3.79095
G1 X85.619 Y115.566 E3.80257
G1 X85.609 Y115.076 E3.80830
G1 X85.629 Y114.376 E3.81648
G1 X86.429 Y104.856 E3.92812
G1 X86.539 Y103.856 E3.93988
G1 X90.509 Y77.876 E4.24699
G1 X90.709 Y76.936 E4.25822
G1 X91.019 Y76.016 E4.26957
G1 X91.269 Y75.446 E4.27684
G1 X91.569 Y74.906 E4.28406
G1 X91.759 Y74.596 E4.28831
G1 X92.179 Y73.989 E4.29693
G1 X92.479 Y74.166 F10500.000
G1 X93.129 Y73.456 F2100.000 E4.30818
G1 X93.769 Y72.896 E4.31812
G1 X94.529 Y72.366 E4.32894
G1 X95.109 Y72.046 E4.33669
G1 X95.949 Y71.696 E4.34732
G1 X96.929 Y71.436 E4.35917
G1 X97.839 Y71.296 E4.36993
G1 X98.589 Y71.266 E4.37870
G1 X99.539 Y71.346 E4.38984
G1 X100.259 Y71.476 E4.39839
G1 X101.199 Y71.776 E4.40992
G1 X101.799 Y72.026 E4.41751
G1 X102.379 Y72.336 E4.42520
G1 X103.129 Y72.826 E4.43567
G1 X103.909 Y73.506 E4.44776
G1 X104.499 Y74.126 E4.45776
G1 X104.999 Y74.806 E4.46762
G1 X105.189 Y75.106 E4.47177
G1 X105.659 Y75.986 E4.48343
G1 X105.889 Y76.526 E4.49029
G1 X106.179 Y77.386 E4.50090
G1 X112.679 Y101.816 E4.79630
G1 X112.899 Y102.706 E4.80702
G1 X113.019 Y103.296 E4.81405
G1 X113.209 Y104.646 E4.82998
G1 X114.009 Y114.136 E4.94127
G1 X114.049 Y114.916 E4.95040
G1 X114.019 Y115.926 E4.96221
G1 X113.899 Y116.826 E4.97282
G1 X113.799 Y117.306 E4.97855
G1 X113.589 Y118.056 E4.98765
G1 X113.449 Y118.466 E4.99271
G1 X113.119 Y119.256 E5.00271
G1 X112.979 Y119.536 E5.00637
G1 X112.529 Y120.306 E5.01679
G1 X111.899 Y121.156 E5.02916
G1 X111.739 Y121.336 E5.03197
G1 X111.059 Y121.996 E5.04305
G1 X110.879 Y122.146 E5.04578
G1 X110.379 Y122.516 E5.05305
G1 X106.629 Y125.066 E5.10604
G1 X106.209 Y125.326 E5.11182
G1 X105.409 Y125.756 E5.12243
G1 X104.859 Y125.976 E5.12935
G1 X104.599 Y126.066 E5.13257
G1 X103.749 Y126.296 E5.14286
G1 X102.869 Y126.406 E5.15322
G1 X102.149 Y126.436 E5.16164
G1 X97.639 Y126.426 E5.21434
G1 X96.649 Y126.346 E5.22595
G1 X95.829 Y126.186 E5.23571
G1 X94.909 Y125.896 E5.24698
G1 X94.219 Y125.566 E5.25592
G1 X93.439 Y125.106 E5.26650
G1 X89.509 Y122.396 E5.32229
G1 X89.279 Y122.226 E5.32563
G1 X88.429 Y121.476 E5.33888
G1 X87.739 Y120.656 E5.35140
G1 X87.569 Y120.416 E5.35484
G1 X87.159 Y119.756 E5.36392
G1 X87.019 Y119.496 E5.36737
G1 X86.649 Y118.696 E5.37767
G1 X86.389 Y117.946 E5.38694
G1 X86.129 Y116.906 E5.39947
G1 X86.059 Y116.496 E5.40433
G1 X85.969 Y115.556 E5.41536
G1 X85.959 Y115.066 E5.42109
G1 X85.979 Y114.406 E5.42881
G1 X86.779 Y104.886 E5.54045
G1 X86.879 Y103.906 E5.55196
G1 X90.849 Y77.926 E5.85907
G1 X91.049 Y77.026 E5.86984
G1 X91.269 Y76.356 E5.87808
G1 X91.579 Y75.606 E5.88757
G1 X92.059 Y74.776 E5.89877
G1 X92.449 Y74.210 E5.90681
G1 F1800.000 E4.90681
G92 E0
G1 X99.136 Y103.896 F10500.000
G1 F1800.000 E1.00000
G1 X99.337 Y103.881 F1200.000 E1.00236
G1 X99.614 Y103.821 E1.00567
G1 X99.849 Y103.816 E1.00842
G1 X100.593 Y103.821 E1.01712
G1 X100.894 Y103.882 E1.02070
G1 X101.110 Y103.897 E1.02324
G1 X101.697 Y104.058 E1.03035
G1 X102.168 Y104.240 E1.03625
G1 X102.681 Y104.499 E1.04297
G1 X102.967 Y104.687 E1.04696
G1 X103.328 Y104.960 E1.05225
G1 X103.717 Y105.342 E1.05861
G1 X104.022 Y105.657 E1.06375
G1 X104.254 Y105.971 E1.06831
G1 X104.507 Y106.376 E1.07388
G1 X104.733 Y106.841 E1.07993
G1 X104.969 Y107.532 E1.08846
G1 X105.059 Y107.917 E1.09308
G1 X105.068 Y108.126 E1.09552
G1 X105.110 Y108.274 E1.09732
G1 X105.128 Y108.444 E1.09932
G1 X105.136 Y108.985 E1.10564
G1 X105.127 Y109.174 E1.10786
G1 X105.066 Y109.447 E1.11112
G1 X105.042 Y109.734 E1.11449
G1 X104.970 Y110.046 E1.11822
G1 X104.807 Y110.555 E1.12448
G1 X104.660 Y110.886 E1.12871
G1 X104.346 Y111.479 E1.13655
G1 X104.138 Y111.786 E1.14088
G1 X103.792 Y112.204 E1.14722
G1 X103.405 Y112.565 E1.15341
G1 X103.119 Y112.791 E1.15767
G1 X102.537 Y113.172 E1.16579
G1 X102.222 Y113.326 E1.16989
G1 X101.796 Y113.497 E1.17526
G1 X101.249 Y113.660 E1.18192
G1 X100.730 Y113.748 E1.18807
G1 X99.564 Y113.748 E1.20170
G1 X99.352 Y113.720 E1.20420
G1 X98.690 Y113.564 E1.21215
G1 X98.309 Y113.422 E1.21689
G1 X97.966 Y113.267 E1.22129
G1 X97.450 Y112.991 E1.22813
G1 X97.088 Y112.732 E1.23334
G1 X96.902 Y112.573 E1.23620
G1 X96.209 Y111.851 E1.24789
G1 X95.935 Y111.450 E1.25357
G1 X95.683 Y111.007 E1.25952
G1 X95.456 Y110.492 E1.26609
G1 X95.287 Y109.925 E1.27301
G1 X95.230 Y109.638 E1.27643
G1 X95.199 Y109.129 E1.28239
G1 X95.149 Y108.852 E1.28568
G1 X95.158 Y108.628 E1.28829
G1 X95.202 Y108.381 E1.29122
G1 X95.217 Y108.000 E1.29569
G1 X95.270 Y107.814 E1.29794
G1 X95.292 Y107.636 E1.30004
G1 X95.444 Y107.124 E1.30629
G1 X95.688 Y106.524 E1.31385
G1 X95.985 Y106.017 E1.32071
G1 X96.166 Y105.754 E1.32444
G1 X96.537 Y105.302 E1.33128
G1 X97.089 Y104.818 E1.33985
G1 X97.417 Y104.588 E1.34454
G1 X97.835 Y104.355 E1.35013
G1 X98.314 Y104.138 E1.35628
G1 X98.782 Y103.985 E1.36203
G1 X99.085 Y103.911 E1.36568
G1 X99.198 Y104.242 F10500.000
G1 X99.399 Y104.228 F1200.000 E1.36803
G1 X99.640 Y104.171 E1.37093
G1 X99.852 Y104.166 E1.37341
G1 X100.567 Y104.171 E1.38177
G1 X100.833 Y104.229 E1.38494
G1 X101.043 Y104.243 E1.38740
G1 X101.590 Y104.392 E1.39403
G1 X102.024 Y104.559 E1.39946
G1 X102.507 Y104.804 E1.40579
G1 X102.763 Y104.972 E1.40937
G1 X103.097 Y105.224 E1.41426
G1 X103.468 Y105.588 E1.42033
G1 X103.750 Y105.879 E1.42507
G1 X103.966 Y106.171 E1.42931
G1 X104.204 Y106.551 E1.43455
G1 X104.410 Y106.975 E1.44006
G1 X104.630 Y107.623 E1.44805
G1 X104.711 Y107.967 E1.45218
G1 X104.720 Y108.183 E1.45472
G1 X104.775 Y108.421 E1.45757
G1 X104.785 Y108.977 E1.46406
G1 X104.778 Y109.137 E1.46593
G1 X104.718 Y109.397 E1.46905
G1 X104.698 Y109.669 E1.47224
G1 X104.630 Y109.961 E1.47574
G1 X104.480 Y110.430 E1.48150
G1 X104.346 Y110.731 E1.48535
G1 X104.055 Y111.284 E1.49265
G1 X103.862 Y111.570 E1.49668
G1 X103.535 Y111.966 E1.50268
G1 X103.181 Y112.295 E1.50833
G1 X102.906 Y112.512 E1.51242
G1 X102.366 Y112.865 E1.51996
G1 X102.083 Y113.004 E1.52365
G1 X101.678 Y113.167 E1.52875
G1 X101.170 Y113.317 E1.53493
G1 X100.993 Y113.335 E1.53701
G1 X100.714 Y113.398 E1.54036
G1 X99.583 Y113.398 E1.55358
G1 X99.438 Y113.379 E1.55529
G1 X99.306 Y113.334 E1.55692
G1 X99.127 Y113.317 E1.55901
G1 X98.795 Y113.229 E1.56303
G1 X98.443 Y113.099 E1.56742
G1 X98.120 Y112.952 E1.57156
G1 X97.642 Y112.697 E1.57789
G1 X97.144 Y112.320 E1.58520
G1 X96.490 Y111.643 E1.59619
G1 X96.232 Y111.264 E1.60154
G1 X95.997 Y110.850 E1.60711
G1 X95.786 Y110.375 E1.61318
G1 X95.632 Y109.852 E1.61956
G1 X95.575 Y109.568 E1.62294
G1 X95.548 Y109.097 E1.62845
G1 X95.500 Y108.828 E1.63164
G1 X95.506 Y108.674 E1.63345
G1 X95.552 Y108.404 E1.63665
G1 X95.562 Y108.067 E1.64058
G1 X95.614 Y107.887 E1.64277
G1 X95.635 Y107.712 E1.64483
G1 X95.775 Y107.238 E1.65061
G1 X96.002 Y106.680 E1.65765
G1 X96.281 Y106.204 E1.66410
G1 X96.444 Y105.968 E1.66745
G1 X96.800 Y105.535 E1.67400
G1 X97.308 Y105.092 E1.68188
G1 X97.603 Y104.885 E1.68608
G1 X97.992 Y104.668 E1.69129
G1 X98.441 Y104.465 E1.69704
G1 X98.875 Y104.323 E1.70239
G1 X99.147 Y104.257 E1.70566
G1 X99.320 Y104.402 F10500.000
G1 X99.280 Y103.534
G1 X99.074 Y103.550 F2100.000 E1.70807
G1 X98.689 Y103.647 E1.71270
G1 X98.188 Y103.811 E1.71887
G1 X97.678 Y104.042 E1.72541
G1 X97.231 Y104.291 E1.73139
G1 X96.869 Y104.545 E1.73656
G1 X96.465 Y104.884 E1.74272
G1 X96.275 Y105.070 E1.74583
G1 X95.888 Y105.541 E1.75295
G1 X95.688 Y105.830 E1.75706
G1 X95.375 Y106.369 E1.76434
G1 X95.113 Y107.009 E1.77243
G1 X94.948 Y107.560 E1.77914
G1 X94.925 Y107.747 E1.78134
G1 X94.873 Y107.932 E1.78359
G1 X94.852 Y108.359 E1.78859
G1 X94.810 Y108.583 E1.79125
G1 X94.799 Y108.876 E1.79468
G1 X94.850 Y109.166 E1.79812
G1 X94.885 Y109.707 E1.80446
G1 X94.943 Y109.999 E1.80794
G1 X95.125 Y110.610 E1.81538
G1 X95.370 Y111.163 E1.82245
G1 X95.638 Y111.635 E1.82880
G1 X96.021 Y112.178 E1.83656
G1 X96.660 Y112.826 E1.84720
G1 X96.886 Y113.018 E1.85066
G1 X97.259 Y113.285 E1.85603
G1 X97.813 Y113.582 E1.86337
G1 X98.175 Y113.746 E1.86802
G1 X98.584 Y113.898 E1.87311
G1 X98.985 Y114.006 E1.87796
G1 X99.546 Y114.098 E1.88461
G1 X100.746 Y114.098 E1.89863
G1 X101.329 Y114.003 E1.90553
G1 X101.914 Y113.826 E1.91267
G1 X102.360 Y113.648 E1.91828
G1 X102.707 Y113.478 E1.92280
G1 X103.331 Y113.070 E1.93151
G1 X103.628 Y112.835 E1.93594
G1 X103.975 Y112.517 E1.94144
G1 X104.415 Y112.003 E1.94934
G1 X104.715 Y111.550 E1.95569
G1 X105.078 Y110.817 E1.96525
G1 X105.231 Y110.400 E1.97044
G1 X105.368 Y109.888 E1.97663
G1 X105.473 Y109.284 E1.98380
G1 X105.662 Y109.282 E1.98600
G1 X105.810 Y110.057 E1.99522
G1 X106.260 Y111.832 E2.01662
G1 X106.527 Y113.435 E2.03561
G1 X106.782 Y114.563 E2.04913
G1 X106.828 Y114.896 E2.05305
G1 X106.837 Y115.217 E2.05680
G1 X106.820 Y115.418 E2.05916
G1 X106.747 Y115.764 E2.06329
G1 X106.635 Y116.075 E2.06716
G1 X106.540 Y116.271 E2.06970
G1 X106.368 Y116.509 E2.07313
G1 X106.239 Y116.604 E2.07500
G1 X106.010 Y116.576 E2.07770
G1 X105.793 Y116.504 E2.08036
G1 X105.484 Y116.355 E2.08438
G1 X105.011 Y116.093 E2.09069
G1 X104.823 Y116.012 E2.09309
G1 X104.532 Y115.928 E2.09662
G1 X104.227 Y115.916 E2.10020
G1 X103.915 Y115.978 E2.10391
G1 X103.698 Y116.072 E2.10667
G1 X103.525 Y116.180 E2.10906
G1 X103.341 Y116.333 E2.11185
G1 X103.137 Y116.563 E2.11545
G1 X103.004 Y116.775 E2.11836
G1 X102.877 Y117.043 E2.12184
G1 X102.748 Y117.455 E2.12687
G1 X102.677 Y117.952 E2.13274
G1 X102.686 Y118.816 E2.14285
G1 X102.672 Y118.991 E2.14490
G1 X102.552 Y119.108 E2.14686
G1 X102.385 Y119.206 E2.14911
G1 X102.199 Y119.212 E2.15129
G1 X101.936 Y119.155 E2.15443
G1 X101.642 Y118.928 E2.15877
G1 X101.469 Y118.721 E2.16193
G1 X100.964 Y117.734 E2.17488
G1 X100.813 Y117.547 E2.17768
G1 X100.537 Y117.296 E2.18205
G1 X100.138 Y117.156 E2.18698
G1 X99.743 Y117.201 E2.19164
G1 X99.363 Y117.400 E2.19665
G1 X99.178 Y117.577 E2.19964
G1 X98.980 Y117.839 E2.20348
G1 X98.546 Y118.700 E2.21474
G1 X98.414 Y118.874 E2.21730
G1 X98.064 Y119.149 E2.22249
G1 X97.799 Y119.205 E2.22566
G1 X97.622 Y119.196 E2.22773
G1 X97.415 Y119.065 E2.23059
G1 X97.369 Y119.014 E2.23140
G1 X97.337 Y118.939 E2.23235
G1 X97.323 Y117.901 E2.24448
G1 X97.261 Y117.486 E2.24939
G1 X97.188 Y117.203 E2.25280
G1 X97.074 Y116.919 E2.25638
G1 X96.945 Y116.678 E2.25957
G1 X96.662 Y116.338 E2.26474
G1 X96.342 Y116.105 E2.26937
G1 X96.016 Y115.970 E2.27349
G1 X95.682 Y115.925 E2.27742
G1 X95.193 Y116.010 E2.28322
G1 X94.884 Y116.134 E2.28712
G1 X94.386 Y116.400 E2.29372
G1 X94.189 Y116.484 E2.29622
G1 X93.951 Y116.555 E2.29912
G1 X93.754 Y116.555 E2.30142
G1 X93.647 Y116.478 E2.30297
G1 X93.566 Y116.386 E2.30439
G1 X93.404 Y116.107 E2.30816
G1 X93.273 Y115.754 E2.31257
G1 X93.196 Y115.353 E2.31733
G1 X93.185 Y114.982 E2.32167
G1 X93.234 Y114.566 E2.32656
G1 X93.507 Y113.285 E2.34187
G1 X93.753 Y111.811 E2.35933
G1 X94.132 Y110.343 E2.37705
G1 X94.228 Y109.904 E2.38230
G1 X94.308 Y109.436 E2.38784
G1 X94.381 Y108.769 E2.39568
G1 X94.395 Y108.161 E2.40280
G1 X94.359 Y107.566 E2.40976
G1 X94.293 Y107.110 E2.41514
G1 X94.027 Y105.995 E2.42854
G1 X93.987 Y105.711 E2.43189
G1 X93.985 Y105.456 E2.43488
G1 X94.030 Y104.975 E2.44052
