; generated by Slic3r 0.9.10-dev on 2013-05-16 at 15:43:05

; layer_height = 0.4
; perimeters = 3
; top_solid_layers = 3
; bottom_solid_layers = 3
; fill_density = 0.4
; perimeter_speed = 30
; infill_speed = 60
; travel_speed = 130
; nozzle_diameter = 0.5
; filament_diameter = 3
; extrusion_multiplier = 1
; perimeters extrusion width = 0.53mm
; infill extrusion width = 0.53mm
; solid infill extrusion width = 0.53mm
; top infill extrusion width = 0.53mm
; first layer extrusion width = 0.70mm

G21 ; set units to millimeters
M107
M104 S200 ; set temperature
G28 ; home all axes
G1 Z5 F5000 ; lift nozzle

M109 S200 ; wait for temperature to be reached
G90 ; use absolute coordinates
G92 E0
M82 ; use absolute distances for extrusion
G1 F1800.000 E-1.00000
G92 E0
G1 Z0.350 F7800.000
G1 X72.974 Y16.064
G1 F1800.000 E1.00000
G1 X73.984 Y15.224 F540.000 E1.04274
G1 X75.144 Y14.604 E1.08553
G1 X76.394 Y14.214 E1.12814
G1 X77.704 Y14.084 E1.17097
G1 X171.354 Y14.084 E4.21789
G1 X172.704 Y14.224 E4.26205
G1 X174.004 Y14.634 E4.30640
G1 X175.194 Y15.304 E4.35083
G1 X176.224 Y16.204 E4.39533
G1 X177.044 Y17.284 E4.43945
G1 X177.624 Y18.514 E4.48369
G1 X177.954 Y19.834 E4.52796
G1 X185.854 Y77.354 E6.41696
G1 X185.914 Y78.264 E6.44663
G1 X185.914 Y121.724 E7.86061
G1 X185.814 Y122.844 E7.89719
G1 X177.914 Y169.254 E9.42887
G1 X177.574 Y170.514 E9.47133
G1 X176.984 Y171.684 E9.51396
G1 X176.184 Y172.714 E9.55640
G1 X175.194 Y173.574 E9.59906
G1 X174.054 Y174.224 E9.64176
G1 X172.814 Y174.634 E9.68425
G1 X123.184 Y185.754 E11.33901
G1 X122.454 Y185.874 E11.36308
G1 X121.724 Y185.914 E11.38686
G1 X78.264 Y185.914 E12.80084
G1 X77.604 Y185.874 E12.82235
G1 X76.954 Y185.784 E12.84370
G1 X21.554 Y174.664 E14.68211
G1 X20.154 Y174.214 E14.72995
G1 X18.884 Y173.474 E14.77777
G1 X17.814 Y172.474 E14.82542
G1 X16.984 Y171.254 E14.87343
G1 X16.444 Y169.894 E14.92104
G1 X16.214 Y168.434 E14.96913
G1 X14.084 Y121.724 E16.49042
G1 X14.084 Y78.264 E17.90441
G1 X14.214 Y76.974 E17.94659
G1 X14.584 Y75.734 E17.98869
G1 X15.194 Y74.584 E18.03104
G1 X16.014 Y73.584 E18.07312
G1 X72.905 Y16.135 E20.70365
G1 F1800.000 E19.70365
G92 E0
G1 X78.099 Y121.921 F7800.000
G1 F1800.000 E1.00000
G1 X89.674 Y121.921 F540.000 E1.37659
G1 X88.820 Y122.776 E1.41591
G1 X78.954 Y122.776 E1.73690
G1 X78.169 Y121.991 E1.77301
G1 X78.079 Y121.901 F7800.000
G1 X77.224 Y121.046 F540.000 E1.81233
G1 X77.224 Y111.180 E2.13333
G1 X78.079 Y110.325 E2.17265
G1 X78.079 Y121.802 E2.54605
G1 X78.736 Y121.264 F7800.000
G1 X91.260 Y121.264 F540.000 E2.95353
G1 X89.092 Y123.433 E3.05330
G1 X78.682 Y123.433 E3.39201
G1 X76.567 Y121.318 E3.48930
G1 X76.567 Y110.908 E3.82801
G1 X78.736 Y108.739 E3.92780
G1 X78.736 Y121.166 E4.33210
G1 X79.393 Y120.607 F7800.000
G1 X92.847 Y120.607 F378.000 E4.76984
G1 X89.364 Y124.090 E4.93010
G1 X78.410 Y124.090 E5.28651
G1 X75.910 Y121.590 E5.40152
G1 X75.910 Y110.636 E5.75794
G1 X79.393 Y107.153 E5.91820
G1 X79.393 Y120.508 E6.35273
G1 X79.393 Y121.264 F7800.000
G1 F1800.000 E5.35273
G92 E0
G1 X110.325 Y121.921 F7800.000
G1 F1800.000 E1.00000
G1 X121.901 Y121.921 F540.000 E1.37661
G1 X121.046 Y122.776 E1.41593
G1 X111.180 Y122.776 E1.73692
G1 X110.395 Y121.991 E1.77304
G1 X121.921 Y121.901 F7800.000
G1 X121.921 Y110.326 F540.000 E2.14963
G1 X122.776 Y111.180 E2.18895
G1 X122.776 Y121.046 E2.50994
G1 X121.991 Y121.831 E2.54605
G1 X121.264 Y121.264 F7800.000
G1 X121.264 Y108.740 F540.000 E2.95353
G1 X123.433 Y110.908 E3.05330
G1 X123.433 Y121.318 E3.39201
G1 X121.318 Y123.433 E3.48930
G1 X110.908 Y123.433 E3.82801
G1 X108.739 Y121.264 E3.92780
G1 X121.166 Y121.264 E4.33210
G1 X120.607 Y120.607 F7800.000
G1 X120.607 Y107.153 F378.000 E4.76984
G1 X124.090 Y110.636 E4.93010
G1 X124.090 Y121.590 E5.28651
G1 X121.590 Y124.090 E5.40152
G1 X110.636 Y124.090 E5.75794
G1 X107.153 Y120.607 E5.91820
G1 X120.508 Y120.607 E6.35273
G1 X121.264 Y120.607 F7800.000
G1 X105.288 Y120.607
G1 X105.288 Y121.599 F540.000 E6.38500
G1 X94.712 Y121.599 E6.72909
G1 X94.712 Y120.607 E6.76136
G1 X105.189 Y120.607 E7.10225
G1 X104.959 Y121.176 F7800.000
G1 F1800.000 E6.10225
G92 E0
G1 X79.393 Y105.288 F7800.000
G1 F1800.000 E1.00000
G1 X78.401 Y105.288 F540.000 E1.03227
G1 X78.401 Y94.712 E1.37636
G1 X79.393 Y94.712 E1.40863
G1 X79.393 Y105.189 E1.74952
G1 X78.824 Y104.959 F7800.000
G1 F1800.000 E0.74952
G92 E0
G1 X120.607 Y105.288 F7800.000
G1 F1800.000 E1.00000
G1 X120.607 Y94.712 F540.000 E1.34409
G1 X121.599 Y94.712 E1.37636
G1 X121.599 Y105.288 E1.72045
G1 X120.706 Y105.288 E1.74952
G1 X120.936 Y104.719 F7800.000
G1 F1800.000 E0.74952
G92 E0
G1 X89.697 Y78.101 F7800.000
G1 F1800.000 E1.00000
G1 X78.079 Y78.101 F540.000 E1.37799
G1 X78.079 Y89.674 E1.75453
G1 X77.224 Y88.820 E1.79385
G1 X77.224 Y78.954 E2.11484
G1 X78.954 Y77.224 E2.19443
G1 X88.820 Y77.224 E2.51542
G1 X89.627 Y78.031 E2.55255
G1 X89.300 Y76.774 F7800.000
G1 X91.283 Y78.758 F540.000 E2.64382
G1 X78.736 Y78.758 E3.05204
G1 X78.736 Y91.260 E3.45880
G1 X76.567 Y89.092 E3.55857
G1 X76.567 Y78.682 E3.89728
G1 X78.682 Y76.567 E3.99458
G1 X89.092 Y76.567 E4.33328
G1 X89.230 Y76.705 E4.33961
G1 X89.764 Y76.310 F7800.000
G1 X92.869 Y79.415 F378.000 E4.48249
G1 X79.393 Y79.415 E4.92094
G1 X79.393 Y92.847 E5.35797
G1 X75.910 Y89.364 E5.51823
G1 X75.910 Y78.410 E5.87464
G1 X78.410 Y75.910 E5.98965
G1 X89.364 Y75.910 E6.34607
G1 X89.694 Y76.240 E6.36125
G1 X89.594 Y76.944 F7800.000
G1 F1800.000 E5.36125
G92 E0
G1 X110.304 Y78.101 F7800.000
G1 F1800.000 E1.00000
G1 X111.180 Y77.224 F540.000 E1.04033
G1 X121.046 Y77.224 E1.36132
G1 X122.776 Y78.954 E1.44091
G1 X122.776 Y88.820 E1.76190
G1 X121.921 Y89.675 E1.80122
G1 X121.921 Y78.101 E2.17778
G1 X110.402 Y78.101 E2.55255
G1 X110.908 Y76.567 F7800.000
G1 X121.318 Y76.567 F540.000 E2.89126
G1 X123.433 Y78.682 E2.98855
G1 X123.433 Y89.092 E3.32726
G1 X121.264 Y91.261 E3.42705
G1 X121.264 Y78.758 E3.83384
G1 X108.718 Y78.758 E4.24204
G1 X110.838 Y76.637 E4.33961
G1 X110.636 Y75.910 F7800.000
G1 X121.590 Y75.910 F378.000 E4.69603
G1 X124.090 Y78.410 E4.81104
G1 X124.090 Y89.364 E5.16745
G1 X120.607 Y92.847 E5.32771
G1 X120.607 Y79.415 E5.76473
G1 X107.131 Y79.415 E6.20319
G1 X110.566 Y75.980 E6.36125
G1 X111.100 Y76.375 F7800.000
G1 F1800.000 E5.36125
G92 E0
G1 X105.288 Y78.401 F7800.000
G1 F1800.000 E1.00000
G1 X105.288 Y79.415 F540.000 E1.03299
G1 X94.712 Y79.415 E1.37708
G1 X94.712 Y78.401 E1.41007
G1 X105.189 Y78.401 E1.75095
G1 X104.959 Y78.970 F7800.000
G1 F1800.000 E0.75095
G92 E0
G1 X106.572 Y120.739 F7800.000
G1 F1800.000 E1.00000
G1 X106.608 Y120.794 F540.000 E1.00214
G1 X106.572 Y120.739 F7800.000
G1 X106.252 Y120.610 F540.000 E1.01335
G1 X106.252 Y120.610 F7800.000
G1 X105.963 Y120.611 F540.000 E1.02276
G1 X94.037 Y120.611 F7800.000
G1 X93.393 Y120.795 F540.000 E1.04455
G1 F1800.000 E0.04455
G92 E0
G1 X79.206 Y106.608 F7800.000
G1 F1800.000 E1.00000
G1 X79.389 Y105.963 F540.000 E1.02181
G1 X79.389 Y94.037 F7800.000
G1 X79.205 Y93.393 F540.000 E1.04359
G1 F1800.000 E0.04359
G92 E0
G1 X93.440 Y79.271 F7800.000
G1 F1800.000 E1.00000
G1 X93.392 Y79.202 F540.000 E1.00274
G1 X93.440 Y79.271 F7800.000
G1 X93.783 Y79.406 F540.000 E1.01471
G1 X93.783 Y79.406 F7800.000
G1 X94.023 Y79.404 F540.000 E1.02253
G1 X105.976 Y79.405 F7800.000
G1 X106.215 Y79.406 F540.000 E1.03032
G1 X106.215 Y79.406 F7800.000
G1 X106.607 Y79.201 F540.000 E1.04471
G1 F1800.000 E0.04471
G92 E0
G1 X120.794 Y93.392 F7800.000
G1 F1800.000 E1.00000
G1 X120.675 Y93.676 F540.000 E1.01001
G1 X120.675 Y93.676 F7800.000
G1 X120.606 Y93.764 F540.000 E1.01366
G1 X120.606 Y93.764 F7800.000
G1 X120.609 Y94.012 F540.000 E1.02172
G1 X120.609 Y94.012 F7800.000
G1 X120.611 Y94.037 F540.000 E1.02253
G1 X120.611 Y105.963 F7800.000
G1 X120.609 Y105.987 F540.000 E1.02329
G1 X120.609 Y105.987 F7800.000
G1 X120.610 Y106.250 F540.000 E1.03188
G1 X120.610 Y106.250 F7800.000
G1 X120.739 Y106.570 F540.000 E1.04310
G1 X120.739 Y106.570 F7800.000
G1 X120.795 Y106.607 F540.000 E1.04528
G1 F1800.000 E0.04528
G92 E0
G1 X95.445 Y121.131 F7800.000
G1 F1800.000 E1.00000
G1 X95.390 Y121.075 F360.000 E1.00126
G1 X95.853 Y121.075 E1.00876
G1 X95.908 Y121.131 E1.01002
G1 X96.316 Y121.075 E1.01669
G1 X96.371 Y121.131 E1.01795
G1 X96.778 Y121.075 E1.02462
G1 X96.833 Y121.131 E1.02588
G1 X97.241 Y121.075 E1.03255
G1 X97.296 Y121.131 E1.03381
G1 X97.704 Y121.075 E1.04048
G1 X97.759 Y121.131 E1.04174
G1 X98.167 Y121.075 E1.04840
G1 X98.222 Y121.131 E1.04967
G1 X98.630 Y121.075 E1.05633
G1 X98.685 Y121.131 E1.05759
G1 X99.092 Y121.075 E1.06426
G1 X99.147 Y121.131 E1.06552
G1 X99.555 Y121.075 E1.07219
G1 X99.610 Y121.131 E1.07345
G1 X100.018 Y121.075 E1.08012
G1 X100.073 Y121.131 E1.08138
G1 X100.481 Y121.075 E1.08805
G1 X100.536 Y121.131 E1.08931
G1 X100.944 Y121.075 E1.09598
G1 X100.999 Y121.131 E1.09724
G1 X101.406 Y121.075 E1.10390
G1 X101.461 Y121.131 E1.10517
G1 X101.869 Y121.075 E1.11183
G1 X101.924 Y121.131 E1.11309
G1 X102.332 Y121.075 E1.11976
G1 X102.387 Y121.131 E1.12102
G1 X102.795 Y121.075 E1.12769
G1 X102.850 Y121.131 E1.12895
G1 X103.258 Y121.075 E1.13562
G1 X103.313 Y121.131 E1.13688
G1 X103.720 Y121.075 E1.14355
G1 X103.775 Y121.131 E1.14481
G1 X104.183 Y121.075 E1.15148
G1 X104.238 Y121.131 E1.15274
G1 X104.646 Y121.075 E1.15941
G1 X104.701 Y121.131 E1.16067
G1 F1800.000 E0.16067
G92 E0
G1 X78.925 Y104.610 F7800.000
G1 F1800.000 E1.00000
G1 X78.869 Y104.555 F360.000 E1.00126
G1 X78.925 Y104.147 E1.00793
G1 X78.869 Y104.092 E1.00919
G1 X78.925 Y103.684 E1.01586
G1 X78.869 Y103.629 E1.01712
G1 X78.925 Y103.222 E1.02378
G1 X78.869 Y103.167 E1.02504
G1 X78.925 Y102.759 E1.03171
G1 X78.869 Y102.704 E1.03297
G1 X78.925 Y102.296 E1.03964
G1 X78.869 Y102.241 E1.04090
G1 X78.925 Y101.833 E1.04757
G1 X78.869 Y101.778 E1.04883
G1 X78.925 Y101.370 E1.05549
G1 X78.869 Y101.315 E1.05675
G1 X78.925 Y100.908 E1.06342
G1 X78.869 Y100.853 E1.06468
G1 X78.925 Y100.445 E1.07135
G1 X78.869 Y100.390 E1.07261
G1 X78.925 Y99.982 E1.07928
G1 X78.869 Y99.927 E1.08054
G1 X78.925 Y99.519 E1.08720
G1 X78.869 Y99.464 E1.08847
G1 X78.925 Y99.056 E1.09513
G1 X78.869 Y99.001 E1.09639
G1 X78.925 Y98.594 E1.10306
G1 X78.869 Y98.539 E1.10432
G1 X78.925 Y98.131 E1.11099
G1 X78.869 Y98.076 E1.11225
G1 X78.925 Y97.668 E1.11891
G1 X78.869 Y97.613 E1.12018
G1 X78.925 Y97.205 E1.12684
G1 X78.869 Y97.150 E1.12810
G1 X78.925 Y96.742 E1.13477
G1 X78.869 Y96.687 E1.13603
G1 X78.925 Y96.280 E1.14270
G1 X78.869 Y96.225 E1.14396
G1 X78.925 Y95.817 E1.15063
G1 X78.869 Y95.762 E1.15189
G1 X78.925 Y95.354 E1.15855
G1 X78.869 Y95.299 E1.15981
G1 F1800.000 E0.15981
G92 E0
G1 X95.376 Y78.947 F7800.000
G1 F1800.000 E1.00000
G1 X95.299 Y78.869 F360.000 E1.00177
G1 X95.762 Y78.869 E1.00926
G1 X95.839 Y78.947 E1.01103
G1 X96.225 Y78.869 E1.01740
G1 X96.302 Y78.947 E1.01917
G1 X96.688 Y78.869 E1.02554
G1 X96.765 Y78.947 E1.02731
G1 X97.151 Y78.869 E1.03368
G1 X97.228 Y78.947 E1.03545
G1 X97.613 Y78.869 E1.04182
G1 X97.690 Y78.947 E1.04358
G1 X98.076 Y78.869 E1.04996
G1 X98.153 Y78.947 E1.05172
G1 X98.539 Y78.869 E1.05810
G1 X98.616 Y78.947 E1.05986
G1 X99.002 Y78.869 E1.06624
G1 X99.079 Y78.947 E1.06800
G1 X99.465 Y78.869 E1.07437
G1 X99.542 Y78.947 E1.07614
G1 X99.927 Y78.869 E1.08251
G1 X100.004 Y78.947 E1.08428
G1 X100.390 Y78.869 E1.09065
G1 X100.467 Y78.947 E1.09242
G1 X100.853 Y78.869 E1.09879
G1 X100.930 Y78.947 E1.10056
G1 X101.316 Y78.869 E1.10693
G1 X101.393 Y78.947 E1.10869
G1 X101.779 Y78.869 E1.11507
G1 X101.856 Y78.947 E1.11683
G1 X102.241 Y78.869 E1.12321
G1 X102.318 Y78.947 E1.12497
G1 X102.704 Y78.869 E1.13135
G1 X102.781 Y78.947 E1.13311
G1 X103.167 Y78.869 E1.13948
G1 X103.244 Y78.947 E1.14125
G1 X103.630 Y78.869 E1.14762
G1 X103.707 Y78.947 E1.14939
G1 X104.093 Y78.869 E1.15576
G1 X104.170 Y78.947 E1.15753
G1 X104.555 Y78.869 E1.16390
G1 X104.632 Y78.947 E1.16567
G1 F1800.000 E0.16567
G92 E0
G1 X121.131 Y104.701 F7800.000
G1 F1800.000 E1.00000
G1 X121.075 Y104.646 F360.000 E1.00126
G1 X121.131 Y104.238 E1.00793
G1 X121.075 Y104.183 E1.00919
G1 X121.131 Y103.775 E1.01586
G1 X121.075 Y103.720 E1.01712
G1 X121.131 Y103.312 E1.02378
G1 X121.075 Y103.257 E1.02504
G1 X121.131 Y102.849 E1.03171
G1 X121.075 Y102.794 E1.03297
G1 X121.131 Y102.387 E1.03964
G1 X121.075 Y102.332 E1.04090
G1 X121.131 Y101.924 E1.04757
G1 X121.075 Y101.869 E1.04883
G1 X121.131 Y101.461 E1.05549
G1 X121.075 Y101.406 E1.05675
G1 X121.131 Y100.998 E1.06342
G1 X121.075 Y100.943 E1.06468
G1 X121.131 Y100.535 E1.07135
G1 X121.075 Y100.480 E1.07261
G1 X121.131 Y100.073 E1.07928
G1 X121.075 Y100.018 E1.08054
G1 X121.131 Y99.610 E1.08720
G1 X121.075 Y99.555 E1.08847
G1 X121.131 Y99.147 E1.09513
G1 X121.075 Y99.092 E1.09639
G1 X121.131 Y98.684 E1.10306
G1 X121.075 Y98.629 E1.10432
G1 X121.131 Y98.221 E1.11099
G1 X121.075 Y98.166 E1.11225
G1 X121.131 Y97.759 E1.11892
G1 X121.075 Y97.704 E1.12018
G1 X121.131 Y97.296 E1.12684
G1 X121.075 Y97.241 E1.12810
G1 X121.131 Y96.833 E1.13477
G1 X121.075 Y96.778 E1.13603
G1 X121.131 Y96.370 E1.14270
G1 X121.075 Y96.315 E1.14396
G1 X121.131 Y95.907 E1.15063
G1 X121.075 Y95.852 E1.15189
G1 X121.131 Y95.445 E1.15855
G1 X121.075 Y95.390 E1.15981
G1 F1800.000 E0.15981
G92 E0
G1 X132.936 Y121.921 F7800.000
G1 F1800.000 E1.00000
G1 X144.511 Y121.921 F540.000 E1.37659
G1 X143.657 Y122.776 E1.41591
G1 X133.791 Y122.776 E1.73690
G1 X133.006 Y121.991 E1.77301
G1 X132.916 Y121.901 F7800.000
G1 X132.061 Y121.046 F540.000 E1.81233
G1 X132.061 Y111.180 E2.13333
G1 X132.916 Y110.325 E2.17265
G1 X132.916 Y121.802 E2.54605
G1 X133.573 Y121.264 F7800.000
G1 X146.097 Y121.264 F540.000 E2.95353
G1 X143.929 Y123.433 E3.05330
G1 X133.519 Y123.433 E3.39201
G1 X131.404 Y121.318 E3.48930
G1 X131.404 Y110.908 E3.82801
G1 X133.573 Y108.739 E3.92780
G1 X133.573 Y121.166 E4.33210
G1 X134.230 Y120.607 F7800.000
G1 X147.684 Y120.607 F378.000 E4.76984
G1 X144.201 Y124.090 E4.93010
G1 X133.247 Y124.090 E5.28651
G1 X130.747 Y121.590 E5.40152
G1 X130.747 Y110.636 E5.75794
G1 X134.230 Y107.153 E5.91820
G1 X134.230 Y120.508 E6.35273
G1 X134.230 Y121.264 F7800.000
G1 F1800.000 E5.35273
G92 E0
G1 X165.162 Y121.921 F7800.000
G1 F1800.000 E1.00000
G1 X176.738 Y121.921 F540.000 E1.37661
G1 X175.883 Y122.776 E1.41593
G1 X166.017 Y122.776 E1.73692
G1 X165.232 Y121.991 E1.77304
G1 X176.758 Y121.901 F7800.000
G1 X176.758 Y110.326 F540.000 E2.14963
G1 X177.613 Y111.180 E2.18895
G1 X177.613 Y121.046 E2.50994
G1 X176.828 Y121.831 E2.54605
G1 X176.101 Y121.264 F7800.000
G1 X176.101 Y108.740 F540.000 E2.95353
G1 X178.270 Y110.908 E3.05330
G1 X178.270 Y121.318 E3.39201
G1 X176.155 Y123.433 E3.48930
G1 X165.745 Y123.433 E3.82801
G1 X163.576 Y121.264 E3.92780
G1 X176.003 Y121.264 E4.33210
G1 X175.444 Y120.607 F7800.000
G1 X175.444 Y107.153 F378.000 E4.76984
G1 X178.927 Y110.636 E4.93010
G1 X178.927 Y121.590 E5.28651
G1 X176.427 Y124.090 E5.40152
G1 X165.473 Y124.090 E5.75794
G1 X161.990 Y120.607 E5.91820
G1 X175.345 Y120.607 E6.35273
G1 X176.101 Y120.607 F7800.000
G1 X160.125 Y120.607
G1 X160.125 Y121.599 F540.000 E6.38500
G1 X149.549 Y121.599 E6.72909
G1 X149.549 Y120.607 E6.76136
G1 X160.026 Y120.607 E7.10225
G1 X159.796 Y121.176 F7800.000
G1 F1800.000 E6.10225
G92 E0
G1 X134.230 Y105.288 F7800.000
G1 F1800.000 E1.00000
G1 X133.238 Y105.288 F540.000 E1.03227
G1 X133.238 Y94.712 E1.37636
G1 X134.230 Y94.712 E1.40863
G1 X134.230 Y105.189 E1.74952
G1 X133.661 Y104.959 F7800.000
G1 F1800.000 E0.74952
G92 E0
G1 X175.444 Y105.288 F7800.000
G1 F1800.000 E1.00000
G1 X175.444 Y94.712 F540.000 E1.34409
G1 X176.436 Y94.712 E1.37636
G1 X176.436 Y105.288 E1.72045
G1 X175.543 Y105.288 E1.74952
G1 X175.773 Y104.719 F7800.000
G1 F1800.000 E0.74952
G92 E0
G1 X144.534 Y78.101 F7800.000
G1 F1800.000 E1.00000
G1 X132.916 Y78.101 F540.000 E1.37799
G1 X132.916 Y89.674 E1.75453
G1 X132.061 Y88.820 E1.79385
G1 X132.061 Y78.954 E2.11484
G1 X133.791 Y77.224 E2.19443
G1 X143.657 Y77.224 E2.51542
G1 X144.464 Y78.031 E2.55255
G1 X144.137 Y76.774 F7800.000
G1 X146.120 Y78.758 F540.000 E2.64382
G1 X133.573 Y78.758 E3.05204
G1 X133.573 Y91.260 E3.45880
G1 X131.404 Y89.092 E3.55857
G1 X131.404 Y78.682 E3.89728
