; generated by Slic3r 0.9.10-dev on 2013-05-03 at 13:44:46

; layer_height = 0.4
; perimeters = 3
; top_solid_layers = 3
; bottom_solid_layers = 3
; fill_density = 0.4
; perimeter_speed = 30
; infill_speed = 60
; travel_speed = 130
; nozzle_diameter = 0.5
; filament_diameter = 3
; extrusion_multiplier = 1
; perimeters extrusion width = 0.53mm
; infill extrusion width = 0.53mm
; solid infill extrusion width = 0.53mm
; top infill extrusion width = 0.53mm
; first layer extrusion width = 1.00mm

G21 ; set units to millimeters
M107
M104 S200 ; set temperature
G28 X0
M109 S200 ; wait for temperature to be reached
G90 ; use absolute coordinates
G1 F1800.000
G1 Z0.500 F7800.000
G1 X87.560 Y94.530
G1 F1800.000
G1 X88.190 Y94.010 F540.000
G1 X88.640 Y93.710
G1 X89.110 Y93.450
G1 X89.850 Y93.120
G1 X90.110 Y93.030
G1 X90.900 Y92.830
G1 X91.160 Y92.780
G1 X91.970 Y92.700
G1 X96.510 Y92.700
G1 X97.320 Y92.780
G1 X97.850 Y92.890
G1 X98.370 Y93.030
G1 X99.130 Y93.330
G1 X99.840 Y93.710
G1 X100.290 Y94.010
G1 X100.720 Y94.350
G1 X101.300 Y94.910
G1 X101.820 Y95.540
G1 X102.120 Y95.990
G1 X102.380 Y96.460
G1 X102.710 Y97.200
G1 X102.800 Y97.460
G1 X103.000 Y98.250
G1 X103.050 Y98.510
G1 X103.130 Y99.320
G1 X103.130 Y103.860
G1 X103.050 Y104.670
G1 X102.940 Y105.200
G1 X102.800 Y105.720
G1 X102.500 Y106.480
G1 X102.120 Y107.190
G1 X101.820 Y107.640
G1 X101.480 Y108.070
G1 X100.920 Y108.650
G1 X100.290 Y109.170
G1 X99.840 Y109.470
G1 X99.370 Y109.730
G1 X98.630 Y110.060
G1 X98.370 Y110.150
G1 X97.580 Y110.350
G1 X97.320 Y110.400
G1 X96.510 Y110.480
G1 X91.970 Y110.480
G1 X91.160 Y110.400
G1 X90.630 Y110.290
G1 X90.110 Y110.150
G1 X89.350 Y109.850
G1 X88.640 Y109.470
G1 X88.190 Y109.170
G1 X87.760 Y108.830
G1 X87.180 Y108.270
G1 X86.660 Y107.640
G1 X86.360 Y107.190
G1 X86.100 Y106.720
G1 X85.770 Y105.980
G1 X85.680 Y105.720
G1 X85.480 Y104.930
G1 X85.430 Y104.670
G1 X85.350 Y103.860
G1 X85.350 Y99.320
G1 X85.430 Y98.510
G1 X85.540 Y97.980
G1 X85.680 Y97.460
G1 X85.980 Y96.700
G1 X86.360 Y95.990
G1 X86.660 Y95.540
G1 X87.000 Y95.110
G1 X87.465 Y94.625
G1 F1800.000
G1 X96.043 Y101.019 F7800.000
G1 F1800.000
G1 X96.215 Y100.850 F540.000
G1 X96.009 Y100.572
G1 X96.233 Y100.350
G1 X95.751 Y99.849 F7800.000
G1 X95.500 Y99.600 F540.000
G1 X95.500 Y99.600 F7800.000
G1 X95.254 Y99.849 F540.000
G1 X95.000 Y99.600
G1 X94.723 Y99.817
G1 X94.500 Y99.600
G1 X94.128 Y99.983
G1 X94.176 Y100.253 F7800.000
G1 X93.490 Y100.569 F540.000
G1 X93.490 Y100.569 F7800.000
G1 X93.202 Y100.927 F540.000
G1 X93.202 Y100.927 F7800.000
G1 X92.949 Y101.658 F540.000
G1 X92.955 Y101.671 F7800.000
G1 X93.259 Y102.409 F540.000
G1 X94.006 Y102.889
G1 X93.500 Y103.599
G1 X93.234 Y103.356
G1 X93.000 Y103.600
G1 X92.499 Y103.101 F7800.000
G1 X92.250 Y102.850 F540.000
G1 X92.250 Y102.850 F7800.000
G1 X92.499 Y102.604 F540.000
G1 X92.250 Y102.350
G1 X92.250 Y102.350 F7800.000
G1 X92.423 Y102.028 F540.000
G1 X92.507 Y101.601 F7800.000
G1 X92.955 Y101.671 F540.000
G1 X92.423 Y102.028
G1 X92.250 Y101.850
G1 X92.507 Y101.601
G1 X92.250 Y101.350
G1 X92.462 Y101.131
G1 X92.250 Y100.850
G1 X92.499 Y100.596
G1 X92.250 Y100.350
G1 X92.499 Y100.099
G1 X92.250 Y99.850
G1 X92.500 Y99.600
G1 X92.711 Y99.811
G1 X93.000 Y99.657
G1 X94.000 Y99.810
G1 X94.176 Y100.253
G1 X95.311 Y100.895
G1 X95.594 Y101.636
G1 X95.131 Y102.524
G1 X94.626 Y102.782
G1 X94.626 Y102.782 F7800.000
G1 X94.035 Y102.893 F540.000
G1 X94.035 Y102.893 F7800.000
G1 X94.006 Y102.889 F540.000
G1 X94.179 Y102.916 F7800.000
G1 X94.500 Y103.600 F540.000
G1 X94.699 Y103.407
G1 X94.699 Y103.407 F7800.000
G1 X95.000 Y103.600 F540.000
G1 X95.254 Y103.351
G1 X95.500 Y103.600
G1 X96.249 Y102.850 F7800.000
G1 X96.014 Y102.634 F540.000
G1 X96.246 Y102.350
G1 X95.523 Y101.836
G1 X95.594 Y101.636 F7800.000
G1 X95.932 Y101.608 F540.000
G1 X96.056 Y102.105 F7800.000
G1 X96.240 Y101.850 F540.000
G1 X95.932 Y101.608
G1 X96.198 Y101.350
G1 X96.043 Y101.019
G1 X96.026 Y101.079 F7800.000
G1 X95.471 Y101.298 F540.000
G1 X94.488 Y100.318 F7800.000
G1 X94.723 Y99.817 F540.000
G1 F1800.000
G1 X98.250 Y97.600 F7800.000
G1 X90.250 Y97.600
G1 X90.250 Y105.600
G1 X94.236 Y103.331
G1 F1800.000
G1 X94.000 Y103.598 F540.000
G1 X93.753 Y103.383
M106 S196
G1 F1800.000
G1 Z0.900 F7800.000
G1 X93.883 Y102.924
G1 X94.489 Y102.962
G1 X106.749 Y98.488
G1 X107.905 Y97.324
G1 X109.169 Y87.664
G1 X108.637 Y87.087
G1 F1800.000
G1 X108.373 Y86.795 F1800.000
G1 X108.215 Y86.508
G1 X108.099 Y86.064
G1 X108.099 Y85.736
G1 X108.190 Y85.353
G1 X108.373 Y85.005
G1 X108.690 Y84.673
G1 X108.967 Y84.497
G1 X109.340 Y84.371
G1 X109.798 Y84.350
G1 X110.120 Y84.411
G1 X110.478 Y84.576
G1 X110.783 Y84.826
G1 X110.824 Y84.879
G1 X111.016 Y85.144
G1 X111.162 Y85.510
G1 X111.212 Y85.900
G1 X111.171 Y86.224
G1 X111.162 Y86.290
G1 X111.016 Y86.656
G1 X110.783 Y86.974
G1 X110.531 Y87.183
G1 X110.478 Y87.224
G1 X110.120 Y87.389
G1 X109.732 Y87.459
G1 X109.340 Y87.429
G1 X108.967 Y87.303
G1 X108.700 Y87.133
G1 X108.261 Y87.202 F7800.000
G1 X109.732 Y112.541
G1 X110.182 Y112.637 F1800.000
G1 X110.478 Y112.776
G1 X110.783 Y113.026
G1 X111.016 Y113.344
G1 X111.042 Y113.405
G1 X111.162 Y113.710
G1 X111.212 Y114.100
G1 X111.162 Y114.490
G1 X111.042 Y114.795
G1 X111.016 Y114.856
G1 X110.783 Y115.174
G1 X110.478 Y115.424
G1 X110.182 Y115.563
G1 X109.732 Y115.659
G1 X109.340 Y115.629
G1 X109.028 Y115.528
G1 X108.637 Y115.287
G1 X108.373 Y114.995
G1 X108.215 Y114.708
G1 X108.099 Y114.264
G1 X108.099 Y113.936
G1 X108.190 Y113.553
G1 X108.413 Y113.152
G1 X108.637 Y112.913
G1 X108.967 Y112.697
G1 X109.340 Y112.571
G1 X109.655 Y112.546
G1 X110.006 Y112.173 F7800.000
G1 X109.762 Y112.115
G1 X101.111 Y111.420
G1 X100.040 Y111.378
G1 X92.338 Y114.100
G1 X91.912 Y114.100
G1 X91.862 Y114.490 F1800.000
G1 X91.742 Y114.795
G1 X91.716 Y114.856
G1 X91.483 Y115.174
G1 X91.178 Y115.424
G1 X90.882 Y115.563
G1 X90.432 Y115.659
G1 X90.040 Y115.629
G1 X89.728 Y115.528
G1 X89.337 Y115.287
G1 X89.073 Y114.995
G1 X88.915 Y114.708
G1 X88.799 Y114.264
G1 X88.799 Y113.936
G1 X88.890 Y113.553
G1 X89.113 Y113.152
G1 X89.337 Y112.913
G1 X89.667 Y112.697
G1 X90.106 Y112.562
G1 X90.432 Y112.541
G1 X90.820 Y112.611
G1 X91.178 Y112.776
G1 X91.231 Y112.817
G1 X91.483 Y113.026
G1 X91.716 Y113.344
G1 X91.862 Y113.710
G1 X91.902 Y114.023
G1 X92.244 Y114.311 F7800.000
G1 X97.215 Y110.460
G1 X97.109 Y110.323 F1800.000
G1 X97.001 Y110.061
G1 X96.971 Y109.831
G1 X96.971 Y109.529
G1 X97.001 Y109.299
G1 X97.109 Y109.037
G1 X97.282 Y108.812
G1 X97.773 Y108.435
G1 X97.282 Y108.058
G1 X97.109 Y107.833
G1 X97.001 Y107.571
G1 X96.971 Y107.341
G1 X96.971 Y107.039
G1 X97.001 Y106.809
G1 X97.109 Y106.547
G1 X97.282 Y106.322
G1 X97.773 Y105.945
G1 X97.282 Y105.568
G1 X97.109 Y105.343
G1 X97.001 Y105.081
G1 X96.971 Y104.851
G1 X96.971 Y104.549
G1 X97.001 Y104.319
G1 X97.109 Y104.057
G1 X97.282 Y103.832
G1 X97.507 Y103.659
G1 X97.769 Y103.551
G1 X97.999 Y103.521
G1 X99.501 Y103.521
G1 X99.731 Y103.551
G1 X99.993 Y103.659
G1 X100.218 Y103.832
G1 X100.391 Y104.057
G1 X100.499 Y104.319
G1 X100.529 Y104.549
G1 X100.529 Y104.851
G1 X100.499 Y105.081
G1 X100.391 Y105.343
G1 X100.218 Y105.568
G1 X99.727 Y105.945
G1 X100.218 Y106.322
G1 X100.391 Y106.547
G1 X100.499 Y106.809
G1 X100.529 Y107.039
G1 X100.529 Y107.341
G1 X100.499 Y107.571
G1 X100.391 Y107.833
G1 X100.218 Y108.058
G1 X99.744 Y108.422
G1 X100.233 Y108.797
G1 X100.397 Y109.012
G1 X100.501 Y109.262
G1 X100.529 Y109.479
G1 X100.529 Y109.881
G1 X100.501 Y110.098
G1 X100.397 Y110.348
G1 X100.233 Y110.563
G1 X100.018 Y110.727
G1 X99.768 Y110.831
G1 X99.551 Y110.859
G1 X97.999 Y110.859
G1 X97.769 Y110.829
G1 X97.507 Y110.721
G1 X97.262 Y110.522
G1 X97.653 Y110.177 F7800.000
G1 X97.563 Y110.061 F1800.000
G1 X97.507 Y109.925
G1 X97.490 Y109.797
G1 X97.507 Y109.435
G1 X97.563 Y109.299
G1 X97.653 Y109.183
G1 X97.769 Y109.093
G1 X97.905 Y109.037
G1 X98.033 Y109.020
G1 X99.517 Y109.020
G1 X99.633 Y109.035
G1 X99.756 Y109.087
G1 X99.862 Y109.168
G1 X99.943 Y109.274
G1 X99.995 Y109.397
G1 X100.010 Y109.513
G1 X99.995 Y109.963
G1 X99.943 Y110.086
G1 X99.862 Y110.192
G1 X99.756 Y110.273
G1 X99.633 Y110.325
G1 X99.517 Y110.340
G1 X98.033 Y110.340
G1 X97.905 Y110.323
G1 X97.714 Y110.225
G1 X97.511 Y110.215 F7800.000
G1 X97.905 Y107.833
G1 X97.769 Y107.777 F1800.000
G1 X97.653 Y107.687
G1 X97.563 Y107.571
G1 X97.507 Y107.435
G1 X97.490 Y107.307
G1 X97.507 Y106.945
G1 X97.563 Y106.809
G1 X97.653 Y106.693
G1 X97.769 Y106.603
G1 X97.905 Y106.547
G1 X98.033 Y106.530
G1 X99.467 Y106.530
G1 X99.596 Y106.547
G1 X99.731 Y106.603
G1 X99.847 Y106.693
G1 X99.937 Y106.809
G1 X99.993 Y106.945
G1 X100.010 Y107.073
G1 X99.993 Y107.435
G1 X99.937 Y107.571
G1 X99.847 Y107.687
G1 X99.731 Y107.777
G1 X99.595 Y107.833
G1 X99.467 Y107.850
G1 X97.982 Y107.843
G1 X97.800 Y107.936 F7800.000
G1 X97.580 Y108.032
G1 X97.420 Y106.230
G1 X98.101 Y105.611
G1 X98.033 Y105.360
G1 X97.905 Y105.343 F1800.000
G1 X97.769 Y105.287
G1 X97.653 Y105.197
G1 X97.563 Y105.081
G1 X97.507 Y104.945
G1 X97.490 Y104.817
G1 X97.507 Y104.455
G1 X97.563 Y104.319
G1 X97.653 Y104.203
G1 X97.769 Y104.113
G1 X97.905 Y104.057
G1 X98.033 Y104.040
G1 X99.467 Y104.040
G1 X99.596 Y104.057
G1 X99.731 Y104.113
G1 X99.847 Y104.203
G1 X99.937 Y104.319
G1 X99.993 Y104.455
G1 X100.010 Y104.583
G1 X99.993 Y104.945
G1 X99.937 Y105.081
G1 X99.847 Y105.197
G1 X99.731 Y105.287
G1 X99.595 Y105.343
G1 X99.467 Y105.360
G1 X98.111 Y105.360
G1 X97.959 Y105.466 F7800.000
G1 X95.806 Y103.095
G1 X95.377 Y103.439 F1800.000
G1 X94.875 Y103.663
G1 X94.333 Y103.753
G1 X93.786 Y103.703
G1 X93.269 Y103.517
G1 X92.817 Y103.206
G1 X92.595 Y102.970
G1 X92.458 Y102.791
G1 X92.302 Y102.507
G1 X92.216 Y102.299
G1 X92.135 Y101.986
G1 X92.106 Y101.762
G1 X92.106 Y101.438
G1 X92.135 Y101.214
G1 X92.216 Y100.901
G1 X92.302 Y100.693
G1 X92.458 Y100.409
G1 X92.595 Y100.230
G1 X92.817 Y99.994
G1 X92.996 Y99.856
G1 X93.802 Y99.345
G1 X92.899 Y99.226
G1 X92.429 Y99.047
G1 X92.271 Y98.947
G1 X92.020 Y98.754
G1 X91.700 Y98.368
G1 X91.610 Y98.204
G1 X91.489 Y97.912
G1 X91.443 Y97.731
G1 X91.401 Y97.418
G1 X91.401 Y97.231
G1 X91.443 Y96.918
G1 X91.489 Y96.737
G1 X91.610 Y96.445
G1 X91.700 Y96.281
G1 X91.820 Y96.124
G1 X91.700 Y95.968
G1 X91.610 Y95.804
G1 X91.489 Y95.512
G1 X91.443 Y95.331
G1 X91.401 Y95.018
G1 X91.401 Y94.831
G1 X91.443 Y94.518
G1 X91.489 Y94.337
G1 X91.610 Y94.045
G1 X91.700 Y93.881
G1 X92.020 Y93.494
G1 X92.271 Y93.302
G1 X92.429 Y93.202
G1 X92.899 Y93.023
G1 X93.398 Y92.970
G1 X93.896 Y93.046
G1 X94.472 Y93.301
G1 X94.629 Y93.202
G1 X95.099 Y93.023
G1 X95.598 Y92.970
G1 X96.096 Y93.046
G1 X96.672 Y93.301
G1 X96.829 Y93.202
G1 X97.298 Y93.023
G1 X97.798 Y92.970
G1 X98.296 Y93.046
G1 X98.872 Y93.301
G1 X99.029 Y93.202
G1 X99.498 Y93.023
G1 X99.998 Y92.970
G1 X100.496 Y93.046
G1 X101.072 Y93.301
G1 X101.229 Y93.202
G1 X101.521 Y93.081
G1 X101.698 Y93.023
G1 X102.012 Y92.982
G1 X102.198 Y92.970
G1 X102.696 Y93.046
G1 X103.272 Y93.301
G1 X103.429 Y93.202
G1 X103.898 Y93.023
G1 X104.398 Y92.970
G1 X104.896 Y93.046
G1 X105.472 Y93.301
G1 X105.629 Y93.202
G1 X106.098 Y93.023
G1 X106.598 Y92.970
G1 X107.096 Y93.046
G1 X107.557 Y93.247
G1 X107.952 Y93.559
G1 X108.145 Y93.810
G1 X108.255 Y93.961
G1 X108.445 Y94.428
G1 X108.509 Y94.924
G1 X108.445 Y95.421
G1 X108.255 Y95.887
G1 X108.083 Y96.124
G1 X108.255 Y96.361
G1 X108.445 Y96.828
G1 X108.509 Y97.324
G1 X108.445 Y97.821
G1 X108.255 Y98.287
G1 X107.952 Y98.690
G1 X107.557 Y99.002
G1 X107.096 Y99.202
G1 X106.598 Y99.279
G1 X106.098 Y99.226
G1 X105.629 Y99.047
G1 X105.472 Y98.948
G1 X104.896 Y99.202
G1 X104.398 Y99.279
G1 X103.898 Y99.226
G1 X103.429 Y99.047
G1 X103.272 Y98.948
G1 X102.696 Y99.202
G1 X102.198 Y99.279
G1 X101.698 Y99.226
G1 X101.229 Y99.047
G1 X101.072 Y98.948
G1 X100.496 Y99.202
G1 X99.998 Y99.279
G1 X99.498 Y99.226
G1 X99.029 Y99.047
G1 X98.872 Y98.948
G1 X98.296 Y99.202
G1 X97.798 Y99.279
G1 X97.298 Y99.226
G1 X96.829 Y99.047
G1 X96.672 Y98.948
G1 X96.096 Y99.202
G1 X95.912 Y99.237
G1 X95.598 Y99.279
G1 X94.874 Y99.233
G1 X94.808 Y99.494
G1 X95.377 Y99.761
G1 X95.806 Y100.105
G1 X96.134 Y100.547
G1 X96.340 Y101.057
G1 X96.409 Y101.600
G1 X96.340 Y102.143
G1 X96.134 Y102.653
G1 X95.853 Y103.033
G1 X95.429 Y102.732 F7800.000
G1 X95.105 Y102.992 F1800.000
G1 X94.873 Y103.101
G1 X94.725 Y103.163
G1 X94.315 Y103.231
G1 X93.901 Y103.194
G1 X93.658 Y103.115
G1 X93.510 Y103.054
G1 X93.167 Y102.820
G1 X92.894 Y102.506
G1 X92.771 Y102.282
G1 X92.710 Y102.134
G1 X92.625 Y101.728
G1 X92.625 Y101.472
G1 X92.710 Y101.066
G1 X92.894 Y100.694
G1 X92.992 Y100.567
G1 X93.167 Y100.380
G1 X93.510 Y100.146
G1 X93.901 Y100.006
G1 X94.315 Y99.969
G1 X94.725 Y100.037
G1 X94.873 Y100.099
G1 X95.105 Y100.208
G1 X95.429 Y100.468
G1 X95.677 Y100.803
G1 X95.739 Y100.951
G1 X95.833 Y101.189
G1 X95.886 Y101.600
G1 X95.833 Y102.011
G1 X95.677 Y102.397
G1 X95.477 Y102.670
G1 X95.053 Y102.369 F7800.000
G1 X94.833 Y102.546 F1800.000
G1 X94.663 Y102.626
G1 X94.576 Y102.662
G1 X94.297 Y102.710
G1 X94.016 Y102.686
G1 X93.838 Y102.628
G1 X93.750 Y102.591
G1 X93.517 Y102.433
G1 X93.331 Y102.221
G1 X93.240 Y102.057
G1 X93.204 Y101.969
G1 X93.145 Y101.694
G1 X93.145 Y101.506
G1 X93.204 Y101.231
G1 X93.331 Y100.979
G1 X93.388 Y100.904
G1 X93.517 Y100.767
G1 X93.750 Y100.609
G1 X94.016 Y100.514
G1 X94.110 Y100.502
G1 X94.297 Y100.490
G1 X94.576 Y100.538
G1 X94.833 Y100.654
G1 X94.908 Y100.712
G1 X95.053 Y100.831
G1 X95.221 Y101.058
G1 X95.326 Y101.320
G1 X95.362 Y101.600
G1 X95.326 Y101.880
G1 X95.221 Y102.142
G1 X95.100 Y102.307
G1 X95.120 Y102.643 F7800.000
G1 X95.462 Y98.750
G1 X95.214 Y98.717 F1800.000
G1 X94.869 Y98.584
G1 X94.444 Y98.271
G1 X94.085 Y98.555
G1 X93.746 Y98.702
G1 X93.381 Y98.757
G1 X93.014 Y98.717
G1 X92.669 Y98.584
G1 X92.370 Y98.368
G1 X92.136 Y98.083
G1 X92.079 Y97.979
G1 X91.983 Y97.747
G1 X91.921 Y97.384
G1 X91.954 Y97.017
G1 X91.983 Y96.902
G1 X92.136 Y96.566
G1 X92.289 Y96.367
G1 X92.517 Y96.124
G1 X92.289 Y95.882
G1 X92.136 Y95.683
G1 X91.983 Y95.347
G1 X91.921 Y94.984
G1 X91.954 Y94.617
G1 X91.983 Y94.502
G1 X92.136 Y94.166
G1 X92.370 Y93.881
G1 X92.669 Y93.665
G1 X93.014 Y93.532
G1 X93.381 Y93.492
G1 X93.630 Y93.525
G1 X93.746 Y93.547
G1 X94.085 Y93.693
G1 X94.444 Y93.978
G1 X94.869 Y93.665
G1 X95.214 Y93.532
G1 X95.581 Y93.492
G1 X95.946 Y93.547
G1 X96.178 Y93.643
G1 X96.285 Y93.693
G1 X96.644 Y93.978
G1 X97.069 Y93.665
G1 X97.414 Y93.532
G1 X97.781 Y93.492
G1 X98.146 Y93.547
G1 X98.378 Y93.643
G1 X98.485 Y93.693
G1 X98.844 Y93.978
G1 X99.269 Y93.665
G1 X99.614 Y93.532
G1 X99.981 Y93.492
G1 X100.346 Y93.547
G1 X100.578 Y93.643
G1 X100.685 Y93.693
G1 X101.044 Y93.978
G1 X101.469 Y93.665
G1 X101.814 Y93.532
G1 X102.181 Y93.492
G1 X102.546 Y93.547
G1 X102.778 Y93.643
G1 X102.885 Y93.693
G1 X103.244 Y93.978
G1 X103.669 Y93.665
G1 X104.014 Y93.532
G1 X104.381 Y93.492
G1 X104.746 Y93.547
G1 X104.978 Y93.643
G1 X105.085 Y93.693
G1 X105.444 Y93.978
G1 X105.869 Y93.665
G1 X106.214 Y93.532
G1 X106.581 Y93.492
G1 X106.946 Y93.547
G1 X107.285 Y93.693
G1 X107.484 Y93.846
G1 X107.576 Y93.922
G1 X107.798 Y94.217
G1 X107.938 Y94.560
G1 X107.986 Y94.924
G1 X107.938 Y95.289
G1 X107.798 Y95.632
G1 X107.576 Y95.927
G1 X107.337 Y96.124
G1 X107.576 Y96.322
G1 X107.798 Y96.617
G1 X107.938 Y96.960
G1 X107.986 Y97.324
G1 X107.938 Y97.689
G1 X107.798 Y98.032
G1 X107.576 Y98.327
G1 X107.285 Y98.555
G1 X106.946 Y98.702
G1 X106.581 Y98.757
G1 X106.214 Y98.717
G1 X105.869 Y98.584
G1 X105.444 Y98.271
G1 X105.085 Y98.555
G1 X104.746 Y98.702
G1 X104.381 Y98.757
G1 X104.262 Y98.750
G1 X104.014 Y98.717
G1 X103.669 Y98.584
G1 X103.244 Y98.271
G1 X102.885 Y98.555
G1 X102.546 Y98.702
G1 X102.181 Y98.757
G1 X102.062 Y98.750
G1 X101.814 Y98.717
G1 X101.469 Y98.584
G1 X101.044 Y98.271
G1 X100.685 Y98.555
G1 X100.578 Y98.606
G1 X100.346 Y98.702
G1 X99.981 Y98.757
G1 X99.614 Y98.717
G1 X99.269 Y98.584
G1 X98.844 Y98.271
G1 X98.485 Y98.555
G1 X98.378 Y98.606
G1 X98.146 Y98.702
G1 X97.781 Y98.757
G1 X97.414 Y98.717
G1 X97.069 Y98.584
G1 X96.644 Y98.271
G1 X96.285 Y98.555
G1 X96.178 Y98.606
G1 X95.946 Y98.702
G1 X95.540 Y98.754
G1 X94.142 Y97.776 F7800.000
