; generated by Slic3r 0.9.10-dev on 2013-05-09 at 11:41:56

; layer_height = 0.3
; perimeters = 3
; top_solid_layers = 3
; bottom_solid_layers = 3
; fill_density = 0.2
; perimeter_speed = 30
; infill_speed = 60
; travel_speed = 130
; nozzle_diameter = 0.5
; filament_diameter = 1.1283792
; extrusion_multiplier = 1
; perimeters extrusion width = 0.70mm
; infill extrusion width = 0.70mm
; solid infill extrusion width = 0.70mm
; top infill extrusion width = 0.70mm
; first layer extrusion width = 0.60mm

G21 ; set units to millimeters
M107
M190 S115 ; wait for bed temperature to be reached
M104 S235 ; set temperature
G28 X0
G1 Y100
M109 S235 ; wait for temperature to be reached
G90 ; use absolute coordinates
G92 E0
M82 ; use absolute distances for extrusion
G1 F1800.000 E-1.00000
G92 E0
G1 Z0.300 F7800.000
G1 X87.590 Y94.940
G1 F1800.000 E1.50000
G1 X88.590 Y94.120 F600.000 E1.72445
G1 X89.720 Y93.510 E1.94733
G1 X90.960 Y93.140 E2.17192
G1 X92.240 Y93.010 E2.39522
G1 X96.240 Y93.010 E3.08947
G1 X97.520 Y93.140 E3.31277
G1 X98.760 Y93.510 E3.53737
G1 X99.890 Y94.120 E3.76024
G1 X100.890 Y94.940 E3.98470
G1 X101.710 Y95.940 E4.20915
G1 X102.320 Y97.070 E4.43203
G1 X102.690 Y98.310 E4.65662
G1 X102.820 Y99.590 E4.87992
G1 X102.820 Y103.590 E5.57417
G1 X102.690 Y104.870 E5.79747
G1 X102.320 Y106.110 E6.02207
G1 X101.710 Y107.240 E6.24494
G1 X100.890 Y108.240 E6.46939
G1 X99.890 Y109.060 E6.69385
G1 X98.760 Y109.670 E6.91672
G1 X97.520 Y110.040 E7.14132
G1 X96.240 Y110.170 E7.36462
G1 X92.240 Y110.170 E8.05887
G1 X90.960 Y110.040 E8.28217
G1 X89.720 Y109.670 E8.50676
G1 X88.590 Y109.060 E8.72964
G1 X87.590 Y108.240 E8.95409
G1 X86.770 Y107.240 E9.17854
G1 X86.160 Y106.110 E9.40142
G1 X85.790 Y104.870 E9.62601
G1 X85.660 Y103.590 E9.84932
G1 X85.660 Y99.590 E10.54356
G1 X85.790 Y98.310 E10.76687
G1 X86.160 Y97.070 E10.99146
G1 X86.770 Y95.940 E11.21434
G1 X87.535 Y95.007 E11.42373
G1 F1800.000 E10.42373
G92 E0
G1 X93.320 Y102.457 F7800.000
G1 F1800.000 E1.50000
G1 X94.096 Y102.902 F600.000 E1.65512
G1 X94.683 Y102.784 E1.75904
G1 X95.266 Y102.352 E1.88495
G1 X95.594 Y101.636 E2.02174
G1 X95.279 Y100.867 E2.16597
G1 X94.896 Y100.503 E2.25758
G1 X94.285 Y100.275 E2.37082
G1 X94.241 Y99.867 E2.44201
G1 X94.107 Y99.748 E2.47300
G1 X92.357 Y99.743 E2.77673
G1 X92.361 Y101.457 E3.07427
G1 X92.507 Y101.600 E3.10972
G1 X92.361 Y101.743 E3.14516
G1 X92.357 Y103.457 E3.44270
G1 X93.821 Y103.472 E3.69672
G1 X94.096 Y102.902 E3.80663
G1 X94.179 Y102.916 F7800.000
G1 X94.236 Y103.331 F600.000 E3.87931
G1 X94.107 Y103.477 E3.91314
G1 X94.107 Y103.477 F7800.000
G1 X93.821 Y103.473 F600.000 E3.96273
G1 X93.821 Y103.473 F7800.000
G1 X93.821 Y103.472 F600.000 E3.96293
G1 X94.236 Y103.331 F7800.000
G1 X94.393 Y103.490 F600.000 E4.00164
G1 X94.964 Y103.477 E4.10085
G1 X94.964 Y103.477 F7800.000
G1 X96.143 Y103.457 F600.000 E4.30543
G1 X96.108 Y102.062 E4.54764
G1 X95.538 Y101.794 E4.65699
G1 X95.594 Y101.636 F7800.000
G1 X95.932 Y101.608 F600.000 E4.71587
G1 X96.088 Y101.457 E4.75350
G1 X96.110 Y101.171 E4.80324
G1 X95.501 Y101.354 E4.91367
G1 X95.932 Y101.608 F7800.000
G1 X96.104 Y101.743 F600.000 E4.95154
G1 X96.108 Y102.062 E5.00695
G1 X96.093 Y101.151 F7800.000
G1 X96.103 Y100.286 F600.000 E5.15711
G1 X96.103 Y100.286 F7800.000
G1 X96.106 Y99.998 F600.000 E5.20716
G1 X96.106 Y99.998 F7800.000
G1 X96.107 Y99.707 F600.000 E5.25764
G1 X94.393 Y99.710 E5.55518
G1 X94.241 Y99.867 E5.59309
G1 X94.285 Y100.275 F7800.000
G1 X93.997 Y100.356 F600.000 E5.64507
G1 X93.835 Y99.759 F7800.000
G1 X93.997 Y100.356 F600.000 E5.75232
G1 X93.247 Y100.805 E5.90402
G1 X92.957 Y101.600 E6.05089
G1 X92.507 Y101.600 E6.12909
G1 X92.957 Y101.600 F7800.000
G1 X92.976 Y101.644 F600.000 E6.13748
G1 X92.976 Y101.644 F7800.000
G1 X93.084 Y102.127 F600.000 E6.22334
G1 X93.320 Y102.457 E6.29380
M106 S159
G1 F1800.000 E5.29380
G92 E0
G1 Z0.600 F7800.000
G1 X96.084 Y102.921
G1 F1800.000 E1.50000
G1 X96.134 Y101.767 F1260.000 E1.72680
G1 X95.932 Y101.608 E1.77722
G1 X96.112 Y101.433 E1.82650
G1 X96.089 Y101.151 E1.88203
G1 X95.505 Y101.377 E2.00499
G1 X94.980 Y100.549 E2.19739
G1 X94.285 Y100.277 E2.34391
G1 X94.083 Y99.727 E2.45897
G1 X92.333 Y99.767 E2.80267
G1 X92.336 Y101.433 E3.12992
G1 X92.507 Y101.600 E3.17674
G1 X92.336 Y101.767 E3.22356
G1 X92.333 Y103.433 E3.55081
G1 X93.821 Y103.450 E3.84286
G1 X94.043 Y102.894 E3.96056
G1 X93.393 Y102.551 E4.10483
G1 X93.053 Y102.049 E4.22395
G1 X92.961 Y101.600 E4.31394
G1 X92.507 Y101.600 E4.40306
G1 X92.961 Y101.600 F7800.000
G1 X93.241 Y100.814 F1260.000 E4.56695
G1 X93.997 Y100.357 E4.74042
G1 X93.834 Y99.776 E4.85900
G1 X94.241 Y99.867 F7800.000
G1 X94.417 Y99.686 F1260.000 E4.90860
G1 X94.657 Y99.817 E4.96227
G1 X94.657 Y99.817 F7800.000
G1 X94.428 Y100.305 F1260.000 E5.06808
G1 X94.285 Y100.277 F7800.000
G1 X94.160 Y100.330 F1260.000 E5.09480
G1 X94.160 Y100.330 F7800.000
G1 X93.997 Y100.357 F1260.000 E5.12718
G1 X94.657 Y99.759 F7800.000
G1 X94.955 Y99.767 F1260.000 E5.18582
G1 X94.955 Y99.767 F7800.000
G1 X95.254 Y99.770 F1260.000 E5.24444
G1 X95.254 Y99.770 F7800.000
G1 X96.167 Y99.767 F1260.000 E5.42371
G1 X96.089 Y101.151 E5.69602
G1 X95.932 Y101.608 F7800.000
G1 X95.594 Y101.636 F1260.000 E5.76263
G1 X95.505 Y101.377 F7800.000
G1 X95.594 Y101.636 F1260.000 E5.81634
G1 X95.208 Y102.428 E5.98943
G1 X95.208 Y102.428 F7800.000
G1 X94.890 Y102.709 F1260.000 E6.07266
G1 X94.890 Y102.709 F7800.000
G1 X94.525 Y102.831 F1260.000 E6.14814
G1 X94.525 Y102.831 F7800.000
G1 X94.179 Y102.917 F1260.000 E6.21817
G1 X94.043 Y102.894 F7800.000
G1 X94.179 Y102.917 F1260.000 E6.24526
G1 X94.236 Y103.331 E6.32728
G1 X94.083 Y103.504 E6.37261
G1 X94.083 Y103.504 F7800.000
G1 X93.821 Y103.450 F1260.000 E6.42523
G1 X94.236 Y103.331 F7800.000
G1 X94.417 Y103.514 F1260.000 E6.47573
G1 X94.750 Y103.524 E6.54122
G1 X94.750 Y103.524 F7800.000
G1 X96.083 Y103.517 F1260.000 E6.80302
G1 X96.084 Y102.921 E6.92004
M106 S179
G1 F1800.000 E5.92004
G92 E0
G1 Z0.900 F7800.000
G1 X91.212 Y112.718
G1 F1800.000 E1.50000
G1 X91.531 Y112.978 F1260.000 E1.58085
G1 X91.582 Y113.044 E1.59729
G1 X91.775 Y113.310 E1.66172
G1 X91.928 Y113.692 E1.74259
G1 X91.980 Y114.100 E1.82331
G1 X91.939 Y114.425 E1.88758
G1 X91.928 Y114.508 E1.90402
G1 X91.775 Y114.890 E1.98490
G1 X91.531 Y115.222 E2.06576
G1 X91.278 Y115.431 E2.13019
G1 X91.212 Y115.482 E2.14662
G1 X90.838 Y115.654 E2.22745
G1 X90.433 Y115.726 E2.30828
G1 X90.105 Y115.706 E2.37269
G1 X90.022 Y115.695 E2.38911
G1 X89.633 Y115.561 E2.46991
G1 X89.290 Y115.335 E2.55069
G1 X89.065 Y115.096 E2.61510
G1 X88.824 Y114.665 E2.71205
G1 X88.732 Y114.264 E2.79278
G1 X88.732 Y113.936 E2.85719
G1 X88.856 Y113.458 E2.95415
G1 X89.014 Y113.171 E3.01856
G1 X89.290 Y112.865 E3.09932
G1 X89.633 Y112.639 E3.18010
G1 X89.710 Y112.607 E3.19652
G1 X90.022 Y112.505 E3.26093
G1 X90.433 Y112.474 E3.34174
G1 X90.838 Y112.546 E3.42256
G1 X91.123 Y112.676 E3.48412
G1 X91.583 Y112.539 F7800.000
G1 F1800.000 E2.48412
G92 E0
G1 X108.656 Y87.186 F7800.000
G1 F1800.000 E1.50000
G1 X108.590 Y87.135 F1260.000 E1.51642
G1 X108.314 Y86.829 E1.59718
G1 X108.124 Y86.465 E1.67793
G1 X108.043 Y86.147 E1.74233
G1 X108.043 Y85.653 E1.83929
G1 X108.124 Y85.335 E1.90370
G1 X108.314 Y84.971 E1.98445
G1 X108.590 Y84.665 E2.06521
G1 X108.656 Y84.614 E2.08163
G1 X108.933 Y84.439 E2.14604
G1 X109.322 Y84.305 E2.22683
G1 X109.733 Y84.274 E2.30764
G1 X109.816 Y84.285 E2.32406
G1 X110.138 Y84.346 E2.38849
G1 X110.512 Y84.518 E2.46932
G1 X110.831 Y84.778 E2.55017
G1 X110.882 Y84.844 E2.56660
G1 X111.075 Y85.110 E2.63104
G1 X111.228 Y85.492 E2.71191
G1 X111.280 Y85.900 E2.79263
G1 X111.239 Y86.225 E2.85690
G1 X111.228 Y86.308 E2.87334
G1 X111.075 Y86.690 E2.95422
G1 X110.831 Y87.022 E3.03508
G1 X110.578 Y87.231 E3.09951
G1 X110.512 Y87.282 E3.11594
G1 X110.138 Y87.454 E3.19677
G1 X109.733 Y87.526 E3.27759
G1 X109.322 Y87.495 E3.35840
G1 X108.933 Y87.361 E3.43920
G1 X108.739 Y87.238 E3.48433
G1 X108.580 Y87.220 F7800.000
G1 X91.980 Y85.900
G1 X91.928 Y86.308 F1260.000 E3.56505
G1 X91.807 Y86.613 E3.62948
G1 X91.775 Y86.690 E3.64592
G1 X91.531 Y87.022 E3.72678
G1 X91.212 Y87.282 E3.80763
G1 X90.915 Y87.422 E3.87206
G1 X90.838 Y87.454 E3.88848
G1 X90.433 Y87.526 E3.96931
G1 X90.022 Y87.495 E4.05012
G1 X89.710 Y87.393 E4.11453
G1 X89.633 Y87.361 E4.13095
G1 X89.290 Y87.135 E4.21173
G1 X89.014 Y86.829 E4.29249
G1 X88.856 Y86.542 E4.35690
G1 X88.732 Y86.064 E4.45385
G1 X88.732 Y85.736 E4.51826
G1 X88.824 Y85.335 E4.59899
G1 X89.065 Y84.904 E4.69595
G1 X89.290 Y84.665 E4.76036
G1 X89.633 Y84.439 E4.84114
G1 X90.022 Y84.305 E4.92193
G1 X90.105 Y84.294 E4.93835
G1 X90.433 Y84.274 E5.00277
G1 X90.838 Y84.346 E5.08359
G1 X91.212 Y84.518 E5.16442
G1 X91.278 Y84.569 E5.18086
G1 X91.531 Y84.778 E5.24528
G1 X91.775 Y85.110 E5.32615
G1 X91.928 Y85.492 E5.40702
G1 X91.968 Y85.803 E5.46846
G1 X92.327 Y86.120 F7800.000
G1 X93.176 Y92.646
G1 X93.411 Y92.632 F1800.000 E5.51462
G1 X93.994 Y92.722 E5.63035
G1 X94.450 Y92.911 E5.72731
G1 X95.025 Y92.693 E5.84809
G1 X95.611 Y92.632 E5.96381
G1 X96.194 Y92.722 E6.07955
G1 X96.650 Y92.911 E6.17651
G1 X97.225 Y92.693 E6.29729
G1 X97.811 Y92.632 E6.41301
G1 X98.394 Y92.722 E6.52875
G1 X98.850 Y92.911 E6.62570
G1 X99.425 Y92.693 E6.74649
G1 X100.011 Y92.632 E6.86221
G1 X100.594 Y92.722 E6.97796
G1 X101.050 Y92.911 E7.07490
G1 X101.625 Y92.693 E7.19569
G1 X102.211 Y92.632 E7.31141
G1 X102.794 Y92.722 E7.42715
G1 X103.250 Y92.911 E7.52410
G1 X103.825 Y92.693 E7.64488
G1 X104.411 Y92.632 E7.76060
G1 X104.994 Y92.722 E7.87635
G1 X105.450 Y92.911 E7.97329
G1 X106.025 Y92.693 E8.09408
G1 X106.376 Y92.646 E8.16371
G1 X106.611 Y92.632 E8.20986
G1 X107.194 Y92.722 E8.32561
G1 X107.734 Y92.958 E8.44140
G1 X108.197 Y93.324 E8.55724
G1 X108.551 Y93.796 E8.67315
G1 X108.774 Y94.343 E8.78910
G1 X108.849 Y94.924 E8.90426
G1 X108.774 Y95.506 E9.01941
G1 X108.522 Y96.124 E9.15053
G1 X108.774 Y96.743 E9.28165
G1 X108.849 Y97.324 E9.39682
G1 X108.774 Y97.906 E9.51197
G1 X108.551 Y98.453 E9.62792
G1 X108.197 Y98.925 E9.74383
G1 X108.016 Y99.075 E9.79003
G1 X107.734 Y99.291 E9.85969
G1 X107.194 Y99.527 E9.97548
G1 X106.611 Y99.617 E10.09122
G1 X106.025 Y99.556 E10.20694
G1 X105.450 Y99.338 E10.32773
G1 X104.994 Y99.527 E10.42467
G1 X104.411 Y99.617 E10.54042
G1 X103.825 Y99.556 E10.65614
G1 X103.250 Y99.338 E10.77693
G1 X102.794 Y99.527 E10.87387
G1 X102.211 Y99.617 E10.98962
G1 X101.625 Y99.556 E11.10534
G1 X101.050 Y99.338 E11.22612
G1 X100.594 Y99.527 E11.32307
G1 X100.011 Y99.617 E11.43882
G1 X99.425 Y99.556 E11.55454
G1 X98.850 Y99.338 E11.67532
G1 X98.394 Y99.527 E11.77228
G1 X97.811 Y99.617 E11.88801
G1 X97.577 Y99.602 E11.93417
G1 X97.225 Y99.556 E12.00380
G1 X96.650 Y99.338 E12.12458
G1 X95.885 Y99.655 E12.28716
G1 X96.430 Y100.381 E12.46541
G1 X96.668 Y100.972 E12.59056
G1 X96.749 Y101.600 E12.71492
G1 X96.668 Y102.228 E12.83928
G1 X96.302 Y103.153 E13.03469
G1 X95.553 Y103.729 E13.22020
G1 X94.971 Y103.988 E13.34520
G1 X94.343 Y104.092 E13.47015
G1 X93.710 Y104.033 E13.59505
G1 X93.364 Y103.921 E13.66648
G1 X93.112 Y103.817 E13.72000
G1 X92.805 Y103.622 E13.79141
G1 X92.589 Y103.456 E13.84493
G1 X92.340 Y103.191 E13.91634
G1 X92.174 Y102.975 E13.96984
G1 X91.999 Y102.656 E14.04125
G1 X91.894 Y102.404 E14.09474
G1 X91.804 Y102.052 E14.16615
G1 X91.768 Y101.782 E14.21964
G1 X91.768 Y101.418 E14.29104
G1 X91.804 Y101.148 E14.34454
G1 X91.894 Y100.796 E14.41595
G1 X91.999 Y100.544 E14.46944
G1 X92.174 Y100.225 E14.54085
G1 X92.340 Y100.009 E14.59435
G1 X92.768 Y99.553 E14.71730
G1 X92.274 Y99.348 E14.82239
G1 X92.076 Y99.222 E14.86853
G1 X91.794 Y99.006 E14.93812
G1 X91.634 Y98.835 E14.98425
G1 X91.418 Y98.554 E15.05382
G1 X91.305 Y98.348 E15.09994
G1 X91.169 Y98.021 E15.16953
G1 X91.111 Y97.793 E15.21565
G1 X91.064 Y97.442 E15.28522
G1 X91.064 Y97.207 E15.33134
G1 X91.111 Y96.856 E15.40092
G1 X91.169 Y96.628 E15.44703
G1 X91.305 Y96.301 E15.51661
G1 X91.402 Y96.124 E15.55613
G1 X91.305 Y95.948 E15.59564
G1 X91.169 Y95.621 E15.66523
G1 X91.111 Y95.393 E15.71134
G1 X91.064 Y95.042 E15.78092
G1 X91.064 Y94.807 E15.82704
G1 X91.111 Y94.456 E15.89661
G1 X91.169 Y94.228 E15.94273
G1 X91.305 Y93.901 E16.01230
G1 X91.418 Y93.695 E16.05842
G1 X91.634 Y93.414 E16.12802
G1 X91.794 Y93.243 E16.17414
G1 X92.076 Y93.027 E16.24373
G1 X92.274 Y92.901 E16.28987
G1 X92.601 Y92.765 E16.35946
G1 X92.825 Y92.693 E16.40560
G1 X93.079 Y92.659 E16.45596
G1 X93.240 Y93.298 F7800.000
G1 X93.389 Y93.289 F1800.000 E16.48525
G1 X93.805 Y93.352 E16.56795
G1 X94.192 Y93.520 E16.65069
G1 X94.450 Y93.718 E16.71458
G1 X94.777 Y93.484 E16.79355
G1 X95.028 Y93.380 E16.84697
G1 X95.170 Y93.334 E16.87626
G1 X95.589 Y93.289 E16.95894
G1 X96.005 Y93.352 E17.04164
G1 X96.392 Y93.520 E17.12438
G1 X96.650 Y93.718 E17.18827
G1 X96.977 Y93.484 E17.26724
G1 X97.228 Y93.380 E17.32067
G1 X97.370 Y93.334 E17.34995
G1 X97.789 Y93.289 E17.43264
G1 X98.205 Y93.352 E17.51534
G1 X98.592 Y93.520 E17.59808
G1 X98.850 Y93.718 E17.66196
G1 X99.177 Y93.484 E17.74093
G1 X99.428 Y93.380 E17.79436
G1 X99.570 Y93.334 E17.82364
G1 X99.989 Y93.289 E17.90633
G1 X100.405 Y93.352 E17.98904
G1 X100.792 Y93.520 E18.07177
G1 X101.050 Y93.718 E18.13566
G1 X101.377 Y93.484 E18.21463
G1 X101.628 Y93.380 E18.26805
G1 X101.770 Y93.334 E18.29734
G1 X102.189 Y93.289 E18.38003
G1 X102.605 Y93.352 E18.46273
G1 X102.992 Y93.520 E18.54546
G1 X103.250 Y93.718 E18.60935
G1 X103.577 Y93.484 E18.68832
G1 X103.970 Y93.334 E18.77097
G1 X104.240 Y93.298 E18.82441
G1 X104.389 Y93.289 E18.85370
G1 X104.805 Y93.352 E18.93641
G1 X105.192 Y93.520 E19.01914
G1 X105.450 Y93.718 E19.08303
G1 X105.777 Y93.484 E19.16200
G1 X106.170 Y93.334 E19.24465
G1 X106.589 Y93.289 E19.32734
G1 X107.005 Y93.352 E19.41005
G1 X107.392 Y93.520 E19.49278
G1 X107.723 Y93.781 E19.57554
G1 X107.976 Y94.118 E19.65834
G1 X108.136 Y94.508 E19.74117
G1 X108.190 Y94.924 E19.82353
G1 X108.136 Y95.340 E19.90588
G1 X107.976 Y95.731 E19.98871
G1 X107.679 Y96.124 E20.08550
G1 X107.976 Y96.518 E20.18228
G1 X108.136 Y96.908 E20.26511
G1 X108.190 Y97.324 E20.34747
G1 X108.136 Y97.740 E20.42982
G1 X107.976 Y98.131 E20.51265
G1 X107.723 Y98.468 E20.59546
G1 X107.608 Y98.563 E20.62478
G1 X107.392 Y98.729 E20.67824
G1 X107.005 Y98.897 E20.76097
G1 X106.589 Y98.960 E20.84367
G1 X106.170 Y98.915 E20.92636
G1 X106.028 Y98.869 E20.95564
G1 X105.777 Y98.765 E21.00907
G1 X105.450 Y98.531 E21.08804
G1 X105.192 Y98.729 E21.15193
G1 X104.805 Y98.897 E21.23466
G1 X104.389 Y98.960 E21.31737
G1 X103.970 Y98.915 E21.40005
G1 X103.828 Y98.869 E21.42934
G1 X103.577 Y98.765 E21.48276
G1 X103.250 Y98.531 E21.56173
G1 X102.992 Y98.729 E21.62563
G1 X102.605 Y98.897 E21.70835
G1 X102.189 Y98.960 E21.79106
G1 X101.770 Y98.915 E21.87375
G1 X101.628 Y98.869 E21.90303
G1 X101.377 Y98.765 E21.95646
G1 X101.050 Y98.531 E22.03543
G1 X100.792 Y98.729 E22.09932
G1 X100.405 Y98.897 E22.18205
G1 X99.989 Y98.960 E22.26475
G1 X99.570 Y98.915 E22.34744
G1 X99.428 Y98.869 E22.37672
G1 X99.177 Y98.765 E22.43015
G1 X98.850 Y98.531 E22.50912
G1 X98.592 Y98.729 E22.57301
G1 X98.205 Y98.897 E22.65575
G1 X97.789 Y98.960 E22.73844
G1 X97.370 Y98.915 E22.82113
G1 X97.228 Y98.869 E22.85042
G1 X96.977 Y98.765 E22.90384
G1 X96.650 Y98.531 E22.98281
G1 X96.392 Y98.729 E23.04670
G1 X96.005 Y98.897 E23.12944
G1 X95.589 Y98.960 E23.21214
G1 X95.170 Y98.915 E23.29483
G1 X95.028 Y98.869 E23.32411
G1 X94.777 Y98.765 E23.37753
G1 X94.450 Y98.531 E23.45651
G1 X94.192 Y98.729 E23.52040
G1 X93.805 Y98.897 E23.60313
G1 X93.389 Y98.960 E23.68583
G1 X92.970 Y98.915 E23.76852
G1 X92.577 Y98.765 E23.85116
G1 X92.235 Y98.519 E23.93379
G1 X91.967 Y98.195 E24.01637
G1 X91.791 Y97.813 E24.09895
G1 X91.719 Y97.399 E24.18149
G1 X91.719 Y97.250 E24.21076
G1 X91.754 Y96.980 E24.26416
G1 X91.791 Y96.836 E24.29343
G1 X91.896 Y96.585 E24.34684
G1 X91.967 Y96.454 E24.37611
G1 X92.220 Y96.124 E24.45765
G1 X91.967 Y95.795 E24.53919
G1 X91.791 Y95.413 E24.62176
G1 X91.719 Y94.999 E24.70430
G1 X91.719 Y94.850 E24.73357
G1 X91.791 Y94.436 E24.81611
G1 X91.967 Y94.054 E24.89867
G1 X92.133 Y93.838 E24.95209
G1 X92.235 Y93.729 E24.98136
